(1001)
(T1  D=3.175 CR=0. - ZMIN=-24.3 - FLAT END MILL)
G0 G90 G94 G17
G21
G53 G0 Z0.

(ADAPTIVE2)
M5
M9
T1
S16500 M3
G4 P4.
G55
G0 X-35.358 Y1.04
Z15.
Z5.
Z2.5
G3 X-33.175 Y-1.04 Z2.335 I1.092 J-1.04 F1016.
X-35.358 Y1.04 Z2.169 I-1.092 J1.04
X-33.175 Y-1.04 Z2.004 I1.092 J-1.04
X-35.358 Y1.04 Z1.838 I-1.092 J1.04
X-33.175 Y-1.04 Z1.673 I1.092 J-1.04
X-35.358 Y1.04 Z1.507 I-1.092 J1.04
X-33.175 Y-1.04 Z1.342 I1.092 J-1.04
X-35.358 Y1.04 Z1.176 I-1.092 J1.04
X-33.175 Y-1.04 Z1.011 I1.092 J-1.04
X-35.358 Y1.04 Z0.845 I-1.092 J1.04
X-33.175 Y-1.04 Z0.68 I1.092 J-1.04
X-35.358 Y1.04 Z0.515 I-1.092 J1.04
X-33.175 Y-1.04 Z0.349 I1.092 J-1.04
X-35.358 Y1.04 Z0.184 I-1.092 J1.04
X-33.175 Y-1.04 Z0.018 I1.092 J-1.04
X-35.358 Y1.04 Z-0.147 I-1.092 J1.04
X-33.175 Y-1.04 Z-0.313 I1.092 J-1.04
X-35.358 Y1.04 Z-0.478 I-1.092 J1.04
X-33.175 Y-1.04 Z-0.644 I1.092 J-1.04
X-35.358 Y1.04 Z-0.809 I-1.092 J1.04
X-33.175 Y-1.04 Z-0.974 I1.092 J-1.04
X-35.358 Y1.04 Z-1.14 I-1.092 J1.04
X-33.175 Y-1.04 Z-1.305 I1.092 J-1.04
X-35.358 Y1.04 Z-1.471 I-1.092 J1.04
X-33.175 Y-1.04 Z-1.636 I1.092 J-1.04
X-35.358 Y1.04 Z-1.802 I-1.092 J1.04
X-33.175 Y-1.04 Z-1.967 I1.092 J-1.04
X-35.358 Y1.04 Z-2.133 I-1.092 J1.04
X-33.175 Y-1.04 Z-2.298 I1.092 J-1.04
X-35.358 Y1.04 Z-2.464 I-1.092 J1.04
X-33.175 Y-1.04 Z-2.629 I1.092 J-1.04
X-35.358 Y1.04 Z-2.794 I-1.092 J1.04
X-33.175 Y-1.04 Z-2.96 I1.092 J-1.04
X-32.758 Y0. Z-3. I-1.092 J1.04
X-35.775 I-1.508 J0.
X-32.758 I1.508 J0.
G1 X-32.739 Y0.738
X-32.717 Y0.827
X-32.702 Y0.976
X-32.714 Y1.126
X-32.75 Y1.272
X-32.805 Y1.411
X-32.876 Y1.543
X-32.962 Y1.666
X-33.06 Y1.78
X-33.169 Y1.883
X-33.287 Y1.976
X-33.412 Y2.058
X-33.544 Y2.129
X-33.683 Y2.189
X-33.83 Y2.24
X-33.984 Y2.279
X-34.144 Y2.306
X-34.309 Y2.321
X-34.477 Y2.323
X-34.648 Y2.311
X-34.82 Y2.284
X-34.992 Y2.244
X-35.161 Y2.189
X-35.327 Y2.121
X-35.489 Y2.038
X-35.645 Y1.942
X-35.793 Y1.833
X-35.934 Y1.711
X-36.064 Y1.578
X-36.185 Y1.434
X-36.293 Y1.281
X-36.39 Y1.118
X-36.473 Y0.948
X-36.543 Y0.771
X-36.598 Y0.589
X-36.639 Y0.402
X-36.664 Y0.212
X-36.675 Y0.021
X-36.67 Y-0.171
X-36.649 Y-0.362
X-36.613 Y-0.551
X-36.562 Y-0.737
X-36.496 Y-0.918
X-36.416 Y-1.094
X-36.322 Y-1.262
X-36.215 Y-1.423
X-36.095 Y-1.575
X-35.963 Y-1.716
X-35.82 Y-1.847
X-35.667 Y-1.965
X-35.506 Y-2.072
X-35.336 Y-2.164
X-35.159 Y-2.243
X-34.976 Y-2.308
X-34.789 Y-2.357
X-34.598 Y-2.392
X-34.405 Y-2.411
X-34.211 Y-2.414
X-34.018 Y-2.402
X-33.826 Y-2.374
X-33.637 Y-2.331
X-33.452 Y-2.273
X-33.272 Y-2.201
X-33.099 Y-2.114
X-32.933 Y-2.013
X-32.776 Y-1.9
X-32.628 Y-1.774
X-32.491 Y-1.637
X-32.365 Y-1.489
X-32.252 Y-1.332
X-32.148 Y-1.159
X-32.036 Y-0.937
X-31.889 Y-0.572
X-31.782 Y-0.229
X-31.718 Y0.054
X-31.682 Y0.309
X-31.667 Y0.546
X-31.671 Y0.77
X-31.692 Y0.983
X-31.73 Y1.19
X-31.783 Y1.392
X-31.853 Y1.589
X-31.938 Y1.779
X-32.038 Y1.962
X-32.153 Y2.137
X-32.283 Y2.304
X-32.427 Y2.461
X-32.585 Y2.608
X-32.756 Y2.744
X-32.941 Y2.867
X-33.137 Y2.976
X-33.345 Y3.071
X-33.563 Y3.15
X-33.79 Y3.212
X-34.024 Y3.256
X-34.263 Y3.281
X-34.507 Y3.288
X-34.754 Y3.274
X-35.001 Y3.241
X-35.246 Y3.187
X-35.489 Y3.113
X-35.727 Y3.019
X-35.958 Y2.906
X-36.181 Y2.773
X-36.393 Y2.622
X-36.594 Y2.454
X-36.782 Y2.269
X-36.955 Y2.069
X-37.113 Y1.854
X-37.253 Y1.627
X-37.374 Y1.388
X-37.477 Y1.14
X-37.559 Y0.883
X-37.621 Y0.62
X-37.662 Y0.353
X-37.681 Y0.082
X-37.678 Y-0.19
X-37.653 Y-0.461
X-37.607 Y-0.73
X-37.539 Y-0.994
X-37.45 Y-1.253
X-37.341 Y-1.503
X-37.211 Y-1.744
X-37.063 Y-1.975
X-36.896 Y-2.192
X-36.713 Y-2.396
X-36.513 Y-2.585
X-36.299 Y-2.757
X-36.072 Y-2.911
X-35.833 Y-3.046
X-35.584 Y-3.162
X-35.327 Y-3.258
X-35.062 Y-3.333
X-34.792 Y-3.386
X-34.519 Y-3.417
X-34.244 Y-3.427
X-33.969 Y-3.414
X-33.697 Y-3.379
X-33.427 Y-3.323
X-33.163 Y-3.245
X-32.907 Y-3.146
X-32.659 Y-3.026
X-32.421 Y-2.888
X-32.195 Y-2.73
X-31.982 Y-2.554
X-31.775 Y-2.355
X-31.561 Y-2.111
X-31.359 Y-1.84
X-31.173 Y-1.543
X-31.008 Y-1.227
X-30.871 Y-0.902
X-30.763 Y-0.575
X-30.684 Y-0.252
X-30.633 Y0.068
X-30.608 Y0.385
X-30.609 Y0.697
X-30.634 Y1.005
X-30.683 Y1.306
X-30.756 Y1.6
X-30.852 Y1.886
X-30.97 Y2.162
X-31.109 Y2.427
X-31.27 Y2.681
X-31.451 Y2.922
X-31.652 Y3.148
X-31.871 Y3.359
X-32.109 Y3.553
X-32.363 Y3.728
X-32.632 Y3.884
X-32.916 Y4.019
X-33.212 Y4.132
X-33.519 Y4.221
X-33.835 Y4.286
X-34.157 Y4.326
X-34.484 Y4.34
X-34.814 Y4.327
X-35.144 Y4.288
X-35.472 Y4.222
X-35.795 Y4.129
X-36.113 Y4.01
X-36.421 Y3.865
X-36.718 Y3.695
X-37.002 Y3.5
X-37.271 Y3.282
X-37.523 Y3.042
X-37.756 Y2.782
X-37.968 Y2.503
X-38.157 Y2.206
X-38.323 Y1.895
X-38.463 Y1.57
X-38.577 Y1.234
X-38.664 Y0.889
X-38.723 Y0.538
X-38.754 Y0.182
X-38.756 Y-0.176
X-38.73 Y-0.533
X-38.675 Y-0.887
X-38.591 Y-1.236
X-38.48 Y-1.578
X-38.341 Y-1.91
X-38.176 Y-2.23
X-37.986 Y-2.536
X-37.772 Y-2.826
X-37.535 Y-3.098
X-37.277 Y-3.35
X-36.999 Y-3.58
X-36.704 Y-3.788
X-36.392 Y-3.972
X-36.067 Y-4.129
X-35.731 Y-4.261
X-35.385 Y-4.365
X-35.031 Y-4.441
X-34.672 Y-4.488
X-34.311 Y-4.506
X-33.95 Y-4.495
X-33.59 Y-4.455
X-33.235 Y-4.387
X-32.886 Y-4.29
X-32.547 Y-4.166
X-32.217 Y-4.014
X-31.899 Y-3.835
X-31.587 Y-3.625
X-31.283 Y-3.383
X-30.991 Y-3.11
X-30.715 Y-2.805
X-30.459 Y-2.474
X-30.229 Y-2.12
X-30.028 Y-1.749
X-29.858 Y-1.365
X-29.721 Y-0.971
X-29.616 Y-0.572
X-29.545 Y-0.169
X-29.507 Y0.235
X-29.501 Y0.637
X-29.527 Y1.036
X-29.585 Y1.428
X-29.674 Y1.812
X-29.792 Y2.187
X-29.94 Y2.55
X-30.117 Y2.9
X-30.321 Y3.235
X-30.552 Y3.552
X-30.808 Y3.851
X-31.088 Y4.129
X-31.391 Y4.385
X-31.716 Y4.617
X-32.06 Y4.824
X-32.421 Y5.003
X-32.798 Y5.154
X-33.188 Y5.274
X-33.589 Y5.364
X-33.998 Y5.421
X-34.413 Y5.445
X-34.831 Y5.436
X-35.25 Y5.393
X-35.665 Y5.317
X-36.076 Y5.206
X-36.478 Y5.063
X-36.87 Y4.886
X-37.247 Y4.678
X-37.609 Y4.44
X-37.951 Y4.171
X-38.272 Y3.876
X-38.569 Y3.554
X-38.84 Y3.208
X-39.084 Y2.841
X-39.297 Y2.454
X-39.48 Y2.05
X-39.629 Y1.632
X-39.745 Y1.203
X-39.827 Y0.765
X-39.873 Y0.32
X-39.883 Y-0.127
X-39.857 Y-0.574
X-39.795 Y-1.018
X-39.698 Y-1.456
X-39.566 Y-1.886
X-39.399 Y-2.304
X-39.2 Y-2.707
X-38.968 Y-3.094
X-38.706 Y-3.46
X-38.416 Y-3.805
X-38.098 Y-4.125
X-37.756 Y-4.42
X-37.391 Y-4.685
X-37.006 Y-4.921
X-36.603 Y-5.125
X-36.184 Y-5.296
X-35.754 Y-5.433
X-35.313 Y-5.535
X-34.866 Y-5.601
X-34.415 Y-5.632
X-33.963 Y-5.626
X-33.513 Y-5.583
X-33.067 Y-5.505
X-32.629 Y-5.391
X-32.199 Y-5.241
X-31.778 Y-5.056
X-31.369 Y-4.835
X-30.973 Y-4.578
X-30.592 Y-4.285
X-30.229 Y-3.955
X-29.888 Y-3.593
X-29.575 Y-3.2
X-29.292 Y-2.781
X-29.044 Y-2.339
X-28.831 Y-1.88
X-28.657 Y-1.406
X-28.522 Y-0.922
X-28.427 Y-0.432
X-28.372 Y0.062
X-28.357 Y0.556
X-28.381 Y1.047
X-28.444 Y1.533
X-28.546 Y2.01
X-28.686 Y2.476
X-28.861 Y2.928
X-29.073 Y3.364
X-29.319 Y3.783
X-29.598 Y4.18
X-29.908 Y4.554
X-30.248 Y4.904
X-30.617 Y5.225
X-31.011 Y5.518
X-31.43 Y5.778
X-31.87 Y6.006
X-32.328 Y6.198
X-32.804 Y6.353
X-33.292 Y6.471
X-33.791 Y6.549
X-34.296 Y6.587
X-34.806 Y6.584
X-35.316 Y6.541
X-35.823 Y6.456
X-36.324 Y6.33
X-36.816 Y6.163
X-37.294 Y5.957
X-37.756 Y5.713
X-38.198 Y5.431
X-38.618 Y5.113
X-39.012 Y4.761
X-39.378 Y4.378
X-39.713 Y3.966
X-40.014 Y3.527
X-40.28 Y3.064
X-40.508 Y2.58
X-40.697 Y2.078
X-40.846 Y1.562
X-40.952 Y1.035
X-41.017 Y0.5
X-41.038 Y-0.039
X-41.015 Y-0.579
X-40.95 Y-1.116
X-40.841 Y-1.646
X-40.69 Y-2.166
X-40.498 Y-2.673
X-40.265 Y-3.164
X-39.994 Y-3.634
X-39.686 Y-4.081
X-39.342 Y-4.503
X-38.966 Y-4.895
X-38.559 Y-5.256
X-38.125 Y-5.584
X-37.665 Y-5.875
X-37.183 Y-6.129
X-36.683 Y-6.344
X-36.167 Y-6.517
X-35.638 Y-6.649
X-35.1 Y-6.738
X-34.557 Y-6.783
X-34.012 Y-6.785
X-33.469 Y-6.743
X-32.929 Y-6.657
X-32.396 Y-6.528
X-31.873 Y-6.355
X-31.361 Y-6.14
X-30.863 Y-5.881
X-30.381 Y-5.579
X-29.919 Y-5.236
X-29.482 Y-4.852
X-29.073 Y-4.431
X-28.696 Y-3.975
X-28.356 Y-3.487
X-28.055 Y-2.973
X-27.797 Y-2.437
X-27.582 Y-1.882
X-27.413 Y-1.312
X-27.291 Y-0.733
X-27.216 Y-0.148
X-27.188 Y0.44
X-27.207 Y1.025
X-27.273 Y1.606
X-27.385 Y2.177
X-27.543 Y2.737
X-27.744 Y3.281
X-27.988 Y3.807
X-28.274 Y4.312
X-28.6 Y4.793
X-28.963 Y5.246
X-29.363 Y5.67
X-29.796 Y6.061
X-30.26 Y6.417
X-30.754 Y6.736
X-31.273 Y7.015
X-31.814 Y7.252
X-32.376 Y7.446
X-32.953 Y7.595
X-33.542 Y7.697
X-34.141 Y7.752
X-34.744 Y7.759
X-35.348 Y7.717
X-35.949 Y7.627
X-36.543 Y7.488
X-37.126 Y7.301
X-37.694 Y7.067
X-38.244 Y6.787
X-38.771 Y6.464
X-39.271 Y6.097
X-39.742 Y5.691
X-40.18 Y5.247
X-40.582 Y4.768
X-40.945 Y4.258
X-41.267 Y3.718
X-41.544 Y3.154
X-41.776 Y2.568
X-41.961 Y1.964
X-42.097 Y1.347
X-42.182 Y0.719
X-42.218 Y0.086
X-42.202 Y-0.548
X-42.135 Y-1.18
X-42.018 Y-1.805
X-41.851 Y-2.419
X-41.635 Y-3.018
X-41.371 Y-3.598
X-41.062 Y-4.156
X-40.708 Y-4.687
X-40.313 Y-5.188
X-39.879 Y-5.656
X-39.408 Y-6.088
X-38.904 Y-6.481
X-38.37 Y-6.832
X-37.81 Y-7.14
X-37.226 Y-7.401
X-36.623 Y-7.615
X-36.005 Y-7.78
X-35.376 Y-7.894
X-34.739 Y-7.958
X-34.099 Y-7.971
X-33.459 Y-7.932
X-32.822 Y-7.841
X-32.193 Y-7.699
X-31.573 Y-7.507
X-30.967 Y-7.263
X-30.377 Y-6.969
X-29.809 Y-6.626
X-29.265 Y-6.235
X-28.75 Y-5.798
X-28.269 Y-5.319
X-27.826 Y-4.799
X-27.423 Y-4.243
X-27.066 Y-3.655
X-26.757 Y-3.039
X-26.498 Y-2.4
X-26.291 Y-1.743
X-26.138 Y-1.074
X-26.04 Y-0.395
X-25.996 Y0.287
X-26.007 Y0.969
X-26.073 Y1.646
X-26.193 Y2.315
X-26.366 Y2.97
X-26.59 Y3.609
X-26.865 Y4.228
X-27.189 Y4.822
X-27.559 Y5.389
X-27.974 Y5.924
X-28.432 Y6.426
X-28.929 Y6.89
X-29.463 Y7.313
X-30.03 Y7.693
X-30.628 Y8.027
X-31.253 Y8.314
X-31.901 Y8.549
X-32.567 Y8.733
X-33.249 Y8.863
X-33.941 Y8.938
X-34.639 Y8.957
X-35.339 Y8.921
X-36.036 Y8.827
X-36.726 Y8.678
X-37.403 Y8.473
X-38.064 Y8.214
X-38.704 Y7.901
X-39.318 Y7.537
X-39.903 Y7.124
X-40.454 Y6.665
X-40.968 Y6.161
X-41.44 Y5.616
X-41.869 Y5.034
X-42.25 Y4.419
X-42.58 Y3.774
X-42.859 Y3.103
X-43.083 Y2.411
X-43.251 Y1.702
X-43.361 Y0.982
X-43.414 Y0.253
X-43.408 Y-0.477
X-43.343 Y-1.206
X-43.22 Y-1.928
X-43.039 Y-2.637
X-42.802 Y-3.331
X-42.509 Y-4.004
X-42.164 Y-4.651
X-41.767 Y-5.269
X-41.322 Y-5.853
X-40.831 Y-6.4
X-40.298 Y-6.906
X-39.725 Y-7.368
X-39.117 Y-7.782
X-38.478 Y-8.147
X-37.812 Y-8.458
X-37.122 Y-8.716
X-36.414 Y-8.917
X-35.692 Y-9.061
X-34.961 Y-9.146
X-34.224 Y-9.173
X-33.487 Y-9.14
X-32.755 Y-9.048
X-32.033 Y-8.898
X-31.324 Y-8.691
X-30.635 Y-8.428
X-29.968 Y-8.112
X-29.329 Y-7.745
X-28.719 Y-7.328
X-28.144 Y-6.866
X-27.606 Y-6.362
X-27.108 Y-5.817
X-26.653 Y-5.237
X-26.242 Y-4.624
X-25.879 Y-3.981
X-25.566 Y-3.313
X-25.303 Y-2.624
X-25.093 Y-1.917
X-24.937 Y-1.196
X-24.835 Y-0.465
X-24.79 Y0.272
X-24.801 Y1.009
X-24.87 Y1.744
X-24.994 Y2.471
X-25.174 Y3.187
X-25.408 Y3.887
X-25.694 Y4.567
X-26.032 Y5.222
X-26.419 Y5.851
X-26.853 Y6.448
X-27.331 Y7.01
X-27.85 Y7.534
X-28.408 Y8.017
X-29.001 Y8.456
X-29.625 Y8.849
X-30.277 Y9.194
X-30.954 Y9.489
X-31.65 Y9.732
X-32.363 Y9.923
X-33.088 Y10.059
X-33.821 Y10.139
X-34.559 Y10.164
X-35.296 Y10.134
X-36.029 Y10.048
X-36.753 Y9.909
X-37.466 Y9.718
X-38.162 Y9.474
X-38.839 Y9.181
X-39.493 Y8.839
X-40.121 Y8.451
X-40.719 Y8.019
X-41.283 Y7.544
X-41.811 Y7.028
X-42.298 Y6.474
X-42.745 Y5.887
X-43.148 Y5.269
X-43.505 Y4.623
X-43.816 Y3.954
X-44.079 Y3.264
X-44.292 Y2.558
X-44.454 Y1.838
X-44.563 Y1.109
X-44.618 Y0.373
X-44.62 Y-0.365
X-44.568 Y-1.101
X-44.465 Y-1.831
X-44.31 Y-2.553
X-44.105 Y-3.262
X-43.851 Y-3.954
X-43.549 Y-4.627
X-43.198 Y-5.277
X-42.801 Y-5.898
X-42.36 Y-6.49
X-41.878 Y-7.048
X-41.357 Y-7.571
X-40.801 Y-8.056
X-40.213 Y-8.501
X-39.595 Y-8.904
X-38.95 Y-9.262
X-38.28 Y-9.573
X-37.59 Y-9.833
X-36.883 Y-10.043
X-36.162 Y-10.203
X-35.433 Y-10.311
X-34.697 Y-10.368
X-33.959 Y-10.374
X-33.223 Y-10.328
X-32.492 Y-10.23
X-31.769 Y-10.079
X-31.06 Y-9.876
X-30.367 Y-9.624
X-29.693 Y-9.324
X-29.041 Y-8.978
X-28.414 Y-8.589
X-27.815 Y-8.158
X-27.247 Y-7.687
X-26.711 Y-7.18
X-26.213 Y-6.635
X-25.754 Y-6.058
X-25.334 Y-5.451
X-24.956 Y-4.817
X-24.621 Y-4.16
X-24.33 Y-3.482
X-24.084 Y-2.786
X-23.885 Y-2.076
X-23.734 Y-1.354
X-23.633 Y-0.623
X-23.584 Y0.113
X-23.585 Y0.851
X-23.636 Y1.587
X-23.736 Y2.318
X-23.886 Y3.041
X-24.083 Y3.752
X-24.327 Y4.448
X-24.618 Y5.126
X-24.957 Y5.781
X-25.339 Y6.412
X-25.764 Y7.015
X-26.229 Y7.589
X-26.731 Y8.129
X-27.268 Y8.635
X-27.837 Y9.105
X-28.436 Y9.535
X-29.063 Y9.924
X-29.716 Y10.269
X-30.39 Y10.568
X-31.083 Y10.821
X-31.791 Y11.028
X-32.512 Y11.187
X-33.241 Y11.297
X-33.977 Y11.359
X-34.714 Y11.373
X-35.451 Y11.337
X-36.184 Y11.252
X-36.909 Y11.117
X-37.624 Y10.934
X-38.326 Y10.706
X-39.011 Y10.432
X-39.677 Y10.115
X-40.322 Y9.756
X-40.942 Y9.357
X-41.536 Y8.919
X-42.099 Y8.442
X-42.628 Y7.928
X-43.122 Y7.379
X-43.579 Y6.8
X-43.998 Y6.193
X-44.377 Y5.56
X-44.716 Y4.905
X-45.013 Y4.229
X-45.267 Y3.537
X-45.477 Y2.829
X-45.639 Y2.109
X-45.752 Y1.38
X-45.818 Y0.645
X-45.836 Y-0.092
X-45.807 Y-0.829
X-45.732 Y-1.563
X-45.611 Y-2.291
X-45.445 Y-3.01
X-45.234 Y-3.717
X-44.979 Y-4.409
X-44.678 Y-5.083
X-44.333 Y-5.735
X-43.947 Y-6.364
X-43.522 Y-6.967
X-43.059 Y-7.542
X-42.562 Y-8.086
X-42.031 Y-8.599
X-41.469 Y-9.077
X-40.878 Y-9.519
X-40.26 Y-9.922
X-39.617 Y-10.284
X-38.952 Y-10.603
X-38.267 Y-10.878
X-37.567 Y-11.11
X-36.853 Y-11.297
X-36.129 Y-11.438
X-35.397 Y-11.535
X-34.661 Y-11.585
X-33.924 Y-11.589
X-33.187 Y-11.545
X-32.455 Y-11.453
X-31.73 Y-11.314
X-31.016 Y-11.13
X-30.315 Y-10.9
X-29.629 Y-10.628
X-28.961 Y-10.314
X-28.314 Y-9.96
X-27.689 Y-9.568
X-27.091 Y-9.136
X-26.52 Y-8.669
X-25.98 Y-8.166
X-25.472 Y-7.631
X-24.998 Y-7.066
X-24.558 Y-6.473
X-24.155 Y-5.855
X-23.79 Y-5.214
X-23.462 Y-4.553
X-23.175 Y-3.873
X-22.93 Y-3.177
X-22.728 Y-2.468
X-22.57 Y-1.747
X-22.457 Y-1.018
X-22.389 Y-0.283
X-22.365 Y0.454
X-22.386 Y1.192
X-22.452 Y1.927
X-22.562 Y2.656
X-22.715 Y3.378
X-22.912 Y4.089
X-23.154 Y4.786
X-23.438 Y5.467
X-23.764 Y6.129
X-24.13 Y6.769
X-24.535 Y7.387
X-24.975 Y7.978
X-25.451 Y8.542
X-25.959 Y9.077
X-26.498 Y9.581
X-27.068 Y10.05
X-27.665 Y10.483
X-28.288 Y10.878
X-28.934 Y11.235
X-29.6 Y11.552
X-30.285 Y11.828
X-30.984 Y12.063
X-31.696 Y12.255
X-32.418 Y12.406
X-33.149 Y12.513
X-33.884 Y12.575
X-34.621 Y12.592
X-35.359 Y12.564
X-36.093 Y12.491
X-36.821 Y12.374
X-37.542 Y12.215
X-38.252 Y12.014
X-38.949 Y11.771
X-39.63 Y11.489
X-40.295 Y11.169
X-40.939 Y10.809
X-41.561 Y10.412
X-42.158 Y9.978
X-42.727 Y9.509
X-43.268 Y9.007
X-43.778 Y8.474
X-44.256 Y7.912
X-44.701 Y7.324
X-45.111 Y6.71
X-45.486 Y6.075
X-45.824 Y5.419
X-46.122 Y4.744
X-46.38 Y4.053
X-46.598 Y3.348
X-46.773 Y2.631
X-46.906 Y1.905
X-46.996 Y1.173
X-47.044 Y0.437
X-47.05 Y-0.301
X-47.014 Y-1.038
X-46.936 Y-1.772
X-46.815 Y-2.499
X-46.652 Y-3.219
X-46.447 Y-3.928
X-46.202 Y-4.624
X-45.917 Y-5.304
X-45.592 Y-5.967
X-45.23 Y-6.609
X-44.831 Y-7.23
X-44.397 Y-7.827
X-43.931 Y-8.399
X-43.432 Y-8.943
X-42.902 Y-9.456
X-42.344 Y-9.938
X-41.759 Y-10.388
X-41.148 Y-10.802
X-40.515 Y-11.181
X-39.861 Y-11.522
X-39.188 Y-11.824
X-38.499 Y-12.088
X-37.796 Y-12.312
X-37.081 Y-12.496
X-36.357 Y-12.638
X-35.626 Y-12.738
X-34.891 Y-12.796
X-34.153 Y-12.811
X-33.416 Y-12.783
X-32.681 Y-12.713
X-31.952 Y-12.6
X-31.23 Y-12.447
X-30.519 Y-12.252
X-29.819 Y-12.018
X-29.134 Y-11.745
X-28.465 Y-11.432
X-27.816 Y-11.083
X-27.187 Y-10.697
X-26.58 Y-10.277
X-25.999 Y-9.823
X-25.443 Y-9.337
X-24.916 Y-8.821
X-24.418 Y-8.277
X-23.95 Y-7.706
X-23.514 Y-7.111
X-23.111 Y-6.493
X-22.744 Y-5.853
X-22.413 Y-5.194
X-22.118 Y-4.517
X-21.86 Y-3.826
X-21.641 Y-3.121
X-21.462 Y-2.406
X-21.322 Y-1.681
X-21.222 Y-0.95
X-21.163 Y-0.215
X-21.144 Y0.523
X-21.166 Y1.26
X-21.229 Y1.995
X-21.333 Y2.726
X-21.478 Y3.449
X-21.663 Y4.164
X-21.887 Y4.867
X-22.15 Y5.556
X-22.451 Y6.23
X-22.788 Y6.886
X-23.161 Y7.522
X-23.569 Y8.137
X-24.01 Y8.729
X-24.484 Y9.294
X-24.988 Y9.833
X-25.521 Y10.343
X-26.081 Y10.823
X-26.667 Y11.271
X-27.277 Y11.686
X-27.909 Y12.067
X-28.561 Y12.412
X-29.231 Y12.722
X-29.917 Y12.995
X-30.616 Y13.229
X-31.328 Y13.424
X-32.049 Y13.58
X-32.778 Y13.696
X-33.511 Y13.772
X-34.248 Y13.808
X-34.986 Y13.803
X-35.723 Y13.757
X-36.456 Y13.672
X-37.183 Y13.548
X-37.902 Y13.385
X-38.612 Y13.183
X-39.31 Y12.943
X-39.994 Y12.666
X-40.662 Y12.353
X-41.312 Y12.005
X-41.943 Y11.622
X-42.552 Y11.206
X-43.138 Y10.757
X-43.699 Y10.278
X-44.233 Y9.769
X-44.74 Y9.233
X-45.217 Y8.67
X-45.663 Y8.083
X-46.077 Y7.472
X-46.459 Y6.84
X-46.806 Y6.189
X-47.119 Y5.521
X-47.395 Y4.837
X-47.636 Y4.14
X-47.839 Y3.43
X-48.003 Y2.711
X-48.13 Y1.984
X-48.218 Y1.252
X-48.267 Y0.515
X-48.276 Y-0.222
X-48.246 Y-0.96
X-48.177 Y-1.694
X-48.07 Y-2.424
X-47.925 Y-3.148
X-47.742 Y-3.862
X-47.522 Y-4.566
X-47.265 Y-5.258
X-46.972 Y-5.935
X-46.643 Y-6.596
X-46.28 Y-7.238
X-45.883 Y-7.86
X-45.454 Y-8.46
X-44.994 Y-9.037
X-44.504 Y-9.589
X-43.986 Y-10.114
X-43.441 Y-10.611
X-42.871 Y-11.08
X-42.277 Y-11.517
X-41.661 Y-11.923
X-41.024 Y-12.297
X-40.369 Y-12.636
X-39.696 Y-12.939
X-39.009 Y-13.206
X-38.308 Y-13.437
X-37.596 Y-13.631
X-36.875 Y-13.787
X-36.146 Y-13.905
X-35.413 Y-13.984
X-34.676 Y-14.026
X-33.939 Y-14.029
X-33.202 Y-13.993
X-32.467 Y-13.919
X-31.738 Y-13.807
X-31.016 Y-13.655
X-30.303 Y-13.465
X-29.601 Y-13.239
X-28.911 Y-12.977
X-28.236 Y-12.68
X-27.577 Y-12.348
X-26.936 Y-11.982
X-26.314 Y-11.585
X-25.714 Y-11.156
X-25.136 Y-10.697
X-24.582 Y-10.21
X-24.054 Y-9.694
X-23.554 Y-9.152
X-23.082 Y-8.585
X-22.639 Y-7.995
X-22.226 Y-7.384
X-21.845 Y-6.752
X-21.495 Y-6.102
X-21.179 Y-5.436
X-20.896 Y-4.754
X-20.648 Y-4.06
X-20.435 Y-3.353
X-20.257 Y-2.637
X-20.117 Y-1.913
X-20.015 Y-1.182
X-19.949 Y-0.447
X-19.921 Y0.29
X-19.93 Y1.028
X-19.977 Y1.764
X-20.061 Y2.497
X-20.182 Y3.225
X-20.339 Y3.946
X-20.533 Y4.658
X-20.762 Y5.359
X-21.027 Y6.048
X-21.327 Y6.722
X-21.661 Y7.38
X-22.029 Y8.019
X-22.428 Y8.64
X-22.859 Y9.239
X-23.319 Y9.816
X-23.807 Y10.369
X-24.323 Y10.896
X-24.865 Y11.397
X-25.431 Y11.87
X-26.02 Y12.314
X-26.631 Y12.728
X-27.262 Y13.11
X-27.913 Y13.459
X-28.579 Y13.774
X-29.261 Y14.056
X-29.956 Y14.303
X-30.663 Y14.515
X-31.38 Y14.692
X-32.104 Y14.832
X-32.834 Y14.936
X-33.569 Y15.004
X-34.306 Y15.034
X-35.044 Y15.028
X-35.781 Y14.984
X-36.514 Y14.903
X-37.242 Y14.785
X-37.964 Y14.631
X-38.677 Y14.442
X-39.38 Y14.219
X-40.071 Y13.96
X-40.749 Y13.669
X-41.412 Y13.345
X-42.058 Y12.989
X-42.686 Y12.601
X-43.294 Y12.183
X-43.88 Y11.735
X-44.443 Y11.258
X-44.982 Y10.754
X-45.495 Y10.224
X-45.982 Y9.669
X-46.44 Y9.092
X-46.871 Y8.492
X-47.271 Y7.873
X-47.641 Y7.234
X-47.98 Y6.579
X-48.287 Y5.908
X-48.562 Y5.223
X-48.802 Y4.525
X-49.007 Y3.817
X-49.176 Y3.099
X-49.311 Y2.373
X-49.41 Y1.642
X-49.473 Y0.907
X-49.5 Y0.17
X-49.492 Y-0.568
X-49.448 Y-1.305
X-49.369 Y-2.038
X-49.255 Y-2.767
X-49.106 Y-3.49
X-48.922 Y-4.204
X-48.703 Y-4.909
X-48.449 Y-5.602
X-48.162 Y-6.281
X-47.843 Y-6.946
X-47.491 Y-7.595
X-47.108 Y-8.226
X-46.696 Y-8.837
X-46.254 Y-9.428
X-45.784 Y-9.998
X-45.288 Y-10.544
X-44.766 Y-11.065
X-44.22 Y-11.561
X-43.65 Y-12.03
X-43.058 Y-12.469
X-42.445 Y-12.88
X-41.812 Y-13.26
X-41.162 Y-13.61
X-40.496 Y-13.927
X-39.816 Y-14.212
X-39.122 Y-14.463
X-38.417 Y-14.681
X-37.703 Y-14.865
X-36.98 Y-15.014
X-36.251 Y-15.129
X-35.518 Y-15.209
X-34.781 Y-15.252
X-34.043 Y-15.259
X-33.306 Y-15.23
X-32.571 Y-15.166
X-31.84 Y-15.067
X-31.115 Y-14.932
X-30.397 Y-14.762
X-29.687 Y-14.559
X-28.989 Y-14.322
X-28.302 Y-14.052
X-27.629 Y-13.75
X-26.971 Y-13.417
X-26.329 Y-13.052
X-25.706 Y-12.657
X-25.103 Y-12.232
X-24.52 Y-11.78
X-23.959 Y-11.301
X-23.421 Y-10.796
X-22.907 Y-10.266
X-22.419 Y-9.712
X-21.957 Y-9.137
X-21.523 Y-8.541
X-21.116 Y-7.925
X-20.738 Y-7.292
X-20.39 Y-6.641
X-20.072 Y-5.975
X-19.787 Y-5.295
X-19.533 Y-4.602
X-19.312 Y-3.898
X-19.124 Y-3.185
X-18.97 Y-2.463
X-18.85 Y-1.735
X-18.763 Y-1.002
X-18.711 Y-0.267
X-18.693 Y0.471
X-18.709 Y1.209
X-18.76 Y1.945
X-18.845 Y2.678
X-18.964 Y3.406
X-19.118 Y4.127
X-19.306 Y4.841
X-19.527 Y5.545
X-19.781 Y6.238
X-20.067 Y6.918
X-20.385 Y7.584
X-20.733 Y8.234
X-21.112 Y8.867
X-21.519 Y9.482
X-21.955 Y10.078
X-22.417 Y10.653
X-22.906 Y11.205
X-23.421 Y11.734
X-23.96 Y12.238
X-24.522 Y12.716
X-25.105 Y13.167
X-25.709 Y13.591
X-26.333 Y13.986
X-26.973 Y14.351
X-27.631 Y14.687
X-28.303 Y14.992
X-28.988 Y15.265
X-29.685 Y15.507
X-30.393 Y15.716
X-31.109 Y15.892
X-31.833 Y16.034
X-32.563 Y16.142
X-33.297 Y16.216
X-34.034 Y16.256
X-34.772 Y16.262
X-35.509 Y16.233
X-36.244 Y16.171
X-36.976 Y16.075
X-37.702 Y15.946
X-38.422 Y15.784
X-39.133 Y15.589
X-39.836 Y15.362
X-40.527 Y15.104
X-41.205 Y14.814
X-41.869 Y14.493
X-42.519 Y14.142
X-43.151 Y13.762
X-43.766 Y13.354
X-44.361 Y12.918
X-44.935 Y12.455
X-45.488 Y11.967
X-46.019 Y11.454
X-46.525 Y10.917
X-47.007 Y10.358
X-47.463 Y9.778
X-47.893 Y9.179
X-48.294 Y8.56
X-48.667 Y7.923
X-49.011 Y7.27
X-49.325 Y6.603
X-49.61 Y5.922
X-49.863 Y5.229
X-50.084 Y4.525
X-50.273 Y3.812
X-50.43 Y3.091
X-50.555 Y2.364
X-50.647 Y1.632
X-50.706 Y0.896
X-50.731 Y0.159
X-50.724 Y-0.579
X-50.682 Y-1.316
X-50.608 Y-2.05
X-50.501 Y-2.78
X-50.362 Y-3.504
X-50.19 Y-4.222
X-49.986 Y-4.931
X-49.75 Y-5.63
X-49.484 Y-6.318
X-49.187 Y-6.993
X-48.86 Y-7.655
X-48.503 Y-8.301
X-48.118 Y-8.93
X-47.706 Y-9.542
X-47.265 Y-10.134
X-46.799 Y-10.705
X-46.307 Y-11.256
X-45.792 Y-11.784
X-45.253 Y-12.288
X-44.693 Y-12.768
X-44.111 Y-13.222
X-43.51 Y-13.649
X-42.89 Y-14.05
X-42.253 Y-14.422
X-41.6 Y-14.765
X-40.933 Y-15.079
X-40.251 Y-15.363
X-39.558 Y-15.616
X-38.854 Y-15.836
X-38.141 Y-16.026
X-37.42 Y-16.183
X-36.693 Y-16.308
X-35.961 Y-16.4
X-35.226 Y-16.46
X-34.488 Y-16.487
X-33.751 Y-16.48
X-33.014 Y-16.441
X-32.279 Y-16.37
X-31.549 Y-16.265
X-30.824 Y-16.129
X-30.106 Y-15.959
X-29.396 Y-15.758
X-28.696 Y-15.525
X-28.007 Y-15.262
X-27.33 Y-14.968
X-26.666 Y-14.645
X-26.018 Y-14.293
X-25.386 Y-13.913
X-24.77 Y-13.506
X-24.174 Y-13.072
X-23.596 Y-12.613
X-23.039 Y-12.129
X-22.504 Y-11.621
X-21.991 Y-11.09
X-21.503 Y-10.538
X-21.039 Y-9.964
X-20.6 Y-9.371
X-20.187 Y-8.759
X-19.801 Y-8.131
X-19.442 Y-7.486
X-19.111 Y-6.826
X-18.809 Y-6.153
X-18.537 Y-5.468
X-18.294 Y-4.771
X-18.081 Y-4.064
X-17.899 Y-3.349
X-17.748 Y-2.627
X-17.628 Y-1.899
X-17.541 Y-1.167
X-17.485 Y-0.431
X-17.462 Y0.307
X-17.471 Y1.044
X-17.511 Y1.781
X-17.584 Y2.515
X-17.688 Y3.246
X-17.824 Y3.971
X-17.991 Y4.69
X-18.189 Y5.4
X-18.418 Y6.102
X-18.677 Y6.793
X-18.966 Y7.472
X-19.284 Y8.137
X-19.631 Y8.788
X-20.006 Y9.424
X-20.409 Y10.042
X-20.838 Y10.642
X-21.292 Y11.224
X-21.771 Y11.785
X-22.274 Y12.324
X-22.8 Y12.842
X-23.348 Y13.336
X-23.916 Y13.807
X-24.505 Y14.252
X-25.112 Y14.672
X-25.736 Y15.065
X-26.377 Y15.43
X-27.033 Y15.767
X-27.704 Y16.075
X-28.387 Y16.354
X-29.081 Y16.604
X-29.785 Y16.823
X-30.498 Y17.012
X-31.219 Y17.171
X-31.946 Y17.297
X-32.678 Y17.393
X-33.413 Y17.457
X-34.15 Y17.49
X-34.888 Y17.491
X-35.625 Y17.461
X-36.36 Y17.399
X-37.092 Y17.305
X-37.819 Y17.179
X-38.54 Y17.023
X-39.254 Y16.837
X-39.959 Y16.62
X-40.655 Y16.374
X-41.339 Y16.099
X-42.012 Y15.795
X-42.67 Y15.463
X-43.315 Y15.104
X-43.943 Y14.717
X-44.555 Y14.305
X-45.149 Y13.867
X-45.724 Y13.404
X-46.278 Y12.917
X-46.81 Y12.406
X-47.321 Y11.874
X-47.809 Y11.32
X-48.273 Y10.747
X-48.713 Y10.154
X-49.127 Y9.544
X-49.516 Y8.917
X-49.878 Y8.274
X-50.213 Y7.616
X-50.52 Y6.945
X-50.799 Y6.262
X-51.049 Y5.568
X-51.27 Y4.864
X-51.46 Y4.152
X-51.62 Y3.431
X-51.75 Y2.705
X-51.849 Y1.974
X-51.917 Y1.239
X-51.955 Y0.502
X-51.962 Y-0.235
X-51.938 Y-0.973
X-51.884 Y-1.709
X-51.798 Y-2.442
X-51.683 Y-3.17
X-51.538 Y-3.894
X-51.362 Y-4.61
X-51.157 Y-5.319
X-50.922 Y-6.018
X-50.658 Y-6.707
X-50.364 Y-7.384
X-50.043 Y-8.048
X-49.695 Y-8.699
X-49.319 Y-9.334
X-48.918 Y-9.953
X-48.491 Y-10.555
X-48.039 Y-11.138
X-47.564 Y-11.702
X-47.066 Y-12.246
X-46.545 Y-12.769
X-46.003 Y-13.27
X-45.442 Y-13.749
X-44.86 Y-14.203
X-44.26 Y-14.632
X-43.642 Y-15.035
X-43.008 Y-15.412
X-42.359 Y-15.763
X-41.695 Y-16.086
X-41.019 Y-16.381
X-40.331 Y-16.648
X-39.633 Y-16.886
X-38.925 Y-17.095
X-38.21 Y-17.274
X-37.487 Y-17.424
X-36.759 Y-17.544
X-36.027 Y-17.633
X-35.291 Y-17.692
X-34.554 Y-17.72
X-33.816 Y-17.716
X-33.079 Y-17.682
X-32.344 Y-17.618
X-31.613 Y-17.523
X-30.885 Y-17.397
X-30.164 Y-17.242
X-29.45 Y-17.057
X-28.744 Y-16.842
X-28.047 Y-16.599
X-27.361 Y-16.328
X-26.687 Y-16.028
X-26.025 Y-15.702
X-25.378 Y-15.349
X-24.745 Y-14.969
X-24.129 Y-14.563
X-23.53 Y-14.132
X-22.949 Y-13.678
X-22.387 Y-13.199
X-21.845 Y-12.699
X-21.323 Y-12.177
X-20.823 Y-11.635
X-20.346 Y-11.072
X-19.891 Y-10.491
X-19.461 Y-9.892
X-19.054 Y-9.276
X-18.673 Y-8.644
X-18.317 Y-7.998
X-17.987 Y-7.338
X-17.685 Y-6.665
X-17.41 Y-5.98
X-17.163 Y-5.285
X-16.945 Y-4.58
X-16.755 Y-3.867
X-16.593 Y-3.147
X-16.461 Y-2.421
X-16.359 Y-1.691
X-16.286 Y-0.957
X-16.243 Y-0.22
X-16.229 Y0.518
X-16.245 Y1.255
X-16.291 Y1.992
X-16.366 Y2.726
X-16.471 Y3.456
X-16.606 Y4.181
X-16.771 Y4.9
X-16.965 Y5.612
X-17.187 Y6.316
X-17.438 Y7.01
X-17.716 Y7.693
X-18.022 Y8.364
X-18.355 Y9.023
X-18.715 Y9.667
X-19.1 Y10.296
X-19.51 Y10.91
X-19.945 Y11.506
X-20.403 Y12.084
X-20.884 Y12.644
X-21.387 Y13.184
X-21.912 Y13.702
X-22.458 Y14.199
X-23.023 Y14.673
X-23.607 Y15.124
X-24.209 Y15.551
X-24.827 Y15.953
X-25.461 Y16.331
X-26.11 Y16.682
X-26.772 Y17.007
X-27.447 Y17.305
X-28.133 Y17.576
X-28.83 Y17.82
X-29.535 Y18.035
X-30.249 Y18.222
X-30.97 Y18.38
X-31.696 Y18.509
X-32.427 Y18.608
X-33.162 Y18.677
X-33.899 Y18.717
X-34.636 Y18.728
X-35.374 Y18.709
X-36.11 Y18.661
X-36.844 Y18.583
X-37.574 Y18.476
X-38.299 Y18.34
X-39.018 Y18.176
X-39.731 Y17.983
X-40.435 Y17.763
X-41.13 Y17.515
X-41.814 Y17.24
X-42.487 Y16.937
X-43.148 Y16.608
X-43.794 Y16.253
X-44.427 Y15.873
X-45.043 Y15.468
X-45.644 Y15.039
X-46.227 Y14.587
X-46.791 Y14.112
X-47.336 Y13.614
X-47.861 Y13.096
X-48.366 Y12.558
X-48.849 Y12.
X-49.31 Y11.424
X-49.748 Y10.83
X-50.162 Y10.22
X-50.552 Y9.593
X-50.916 Y8.952
X-51.255 Y8.296
X-51.569 Y7.628
X-51.856 Y6.948
X-52.116 Y6.258
X-52.349 Y5.558
X-52.554 Y4.849
X-52.731 Y4.133
X-52.88 Y3.41
X-53.001 Y2.683
X-53.093 Y1.951
X-53.157 Y1.216
X-53.192 Y0.479
X-53.198 Y-0.259
X-53.175 Y-0.997
X-53.123 Y-1.733
X-53.042 Y-2.466
X-52.932 Y-3.196
X-52.795 Y-3.921
X-52.629 Y-4.64
X-52.436 Y-5.352
X-52.215 Y-6.055
X-51.966 Y-6.75
X-51.69 Y-7.435
X-51.388 Y-8.108
X-51.06 Y-8.769
X-50.707 Y-9.416
X-50.329 Y-10.05
X-49.926 Y-10.668
X-49.5 Y-11.27
X-49.05 Y-11.855
X-48.577 Y-12.421
X-48.083 Y-12.969
X-47.567 Y-13.497
X-47.032 Y-14.005
X-46.478 Y-14.492
X-45.905 Y-14.957
X-45.314 Y-15.399
X-44.706 Y-15.817
X-44.083 Y-16.212
X-43.445 Y-16.582
X-42.792 Y-16.927
X-42.127 Y-17.246
X-41.451 Y-17.54
X-40.763 Y-17.807
X-40.065 Y-18.046
X-39.358 Y-18.258
X-38.643 Y-18.442
X-37.922 Y-18.598
X-37.196 Y-18.726
X-36.465 Y-18.827
X-35.73 Y-18.898
X-34.994 Y-18.941
X-34.256 Y-18.955
X-33.519 Y-18.941
X-32.782 Y-18.898
X-32.048 Y-18.826
X-31.317 Y-18.726
X-30.59 Y-18.598
X-29.869 Y-18.443
X-29.154 Y-18.258
X-28.448 Y-18.046
X-27.75 Y-17.807
X-27.062 Y-17.541
X-26.384 Y-17.249
X-25.718 Y-16.931
X-25.065 Y-16.588
X-24.425 Y-16.221
X-23.8 Y-15.828
X-23.191 Y-15.413
X-22.597 Y-14.974
X-22.021 Y-14.513
X-21.463 Y-14.031
X-20.923 Y-13.528
X-20.403 Y-13.004
X-19.903 Y-12.462
X-19.425 Y-11.9
X-18.968 Y-11.321
X-18.534 Y-10.724
X-18.122 Y-10.112
X-17.733 Y-9.485
X-17.368 Y-8.844
X-17.028 Y-8.189
X-16.712 Y-7.522
X-16.423 Y-6.844
X-16.158 Y-6.155
X-15.92 Y-5.456
X-15.709 Y-4.749
X-15.524 Y-4.035
X-15.366 Y-3.314
X-15.235 Y-2.588
X-15.132 Y-1.858
X-15.058 Y-1.124
X-15.012 Y-0.387
X-14.993 Y0.35
X-15.002 Y1.088
X-15.04 Y1.825
X-15.104 Y2.56
X-15.197 Y3.292
X-15.317 Y4.02
X-15.465 Y4.743
X-15.641 Y5.459
X-15.843 Y6.169
X-16.072 Y6.87
X-16.327 Y7.562
X-16.608 Y8.245
X-16.915 Y8.916
X-17.248 Y9.574
X-17.605 Y10.22
X-17.987 Y10.851
X-18.393 Y11.467
X-18.821 Y12.068
X-19.272 Y12.652
X-19.745 Y13.219
X-20.238 Y13.767
X-20.752 Y14.296
X-21.286 Y14.806
X-21.839 Y15.295
X-22.409 Y15.762
X-22.997 Y16.208
X-23.601 Y16.632
X-24.221 Y17.032
X-24.855 Y17.409
X-25.503 Y17.762
X-26.165 Y18.089
X-26.838 Y18.391
X-27.522 Y18.667
X-28.216 Y18.918
X-28.919 Y19.142
X-29.629 Y19.34
X-30.347 Y19.511
X-31.071 Y19.655
X-31.799 Y19.772
X-32.532 Y19.861
X-33.267 Y19.922
X-34.004 Y19.956
X-34.742 Y19.963
X-35.479 Y19.942
X-36.215 Y19.894
X-36.949 Y19.817
X-37.68 Y19.712
X-38.406 Y19.581
X-39.126 Y19.422
X-39.84 Y19.237
X-40.547 Y19.026
X-41.246 Y18.789
X-41.936 Y18.526
X-42.615 Y18.238
X-43.283 Y17.924
X-43.938 Y17.586
X-44.581 Y17.225
X-45.211 Y16.839
X-45.825 Y16.431
X-46.424 Y16.
X-47.007 Y15.548
X-47.572 Y15.073
X-48.119 Y14.578
X-48.647 Y14.062
X-49.155 Y13.528
X-49.644 Y12.975
X-50.112 Y12.405
X-50.559 Y11.818
X-50.984 Y11.215
X-51.386 Y10.596
X-51.766 Y9.963
X-52.122 Y9.317
X-52.454 Y8.658
X-52.761 Y7.988
X-53.044 Y7.306
X-53.302 Y6.615
X-53.534 Y5.915
X-53.74 Y5.206
X-53.919 Y4.49
X-54.072 Y3.768
X-54.198 Y3.041
X-54.297 Y2.31
X-54.37 Y1.576
X-54.415 Y0.84
X-54.434 Y0.102
X-54.426 Y-0.636
X-54.39 Y-1.373
X-54.328 Y-2.108
X-54.238 Y-2.84
X-54.122 Y-3.569
X-53.98 Y-4.293
X-53.812 Y-5.011
X-53.617 Y-5.723
X-53.396 Y-6.427
X-53.149 Y-7.122
X-52.876 Y-7.808
X-52.579 Y-8.483
X-52.257 Y-9.146
X-51.911 Y-9.798
X-51.541 Y-10.437
X-51.149 Y-11.062
X-50.734 Y-11.672
X-50.297 Y-12.266
X-49.838 Y-12.844
X-49.358 Y-13.404
X-48.859 Y-13.947
X-48.34 Y-14.472
X-47.802 Y-14.977
X-47.247 Y-15.463
X-46.674 Y-15.927
X-46.083 Y-16.37
X-45.477 Y-16.791
X-44.856 Y-17.189
X-44.221 Y-17.565
X-43.573 Y-17.917
X-42.912 Y-18.245
X-42.24 Y-18.549
X-41.557 Y-18.828
X-40.864 Y-19.082
X-40.162 Y-19.31
X-39.453 Y-19.513
X-38.736 Y-19.689
X-38.014 Y-19.84
X-37.287 Y-19.964
X-36.555 Y-20.062
X-35.821 Y-20.133
X-35.085 Y-20.177
X-34.347 Y-20.193
X-33.609 Y-20.183
X-32.872 Y-20.145
X-32.137 Y-20.081
X-31.405 Y-19.99
X-30.677 Y-19.872
X-29.953 Y-19.729
X-29.235 Y-19.559
X-28.524 Y-19.363
X-27.82 Y-19.141
X-27.125 Y-18.894
X-26.439 Y-18.622
X-25.763 Y-18.325
X-25.099 Y-18.005
X-24.446 Y-17.661
X-23.806 Y-17.294
X-23.18 Y-16.903
X-22.569 Y-16.49
X-21.973 Y-16.055
X-21.393 Y-15.599
X-20.83 Y-15.123
X-20.283 Y-14.627
X-19.755 Y-14.111
X-19.246 Y-13.578
X-18.756 Y-13.026
X-18.286 Y-12.457
X-17.836 Y-11.872
X-17.408 Y-11.272
X-17.001 Y-10.656
X-16.616 Y-10.027
X-16.253 Y-9.384
X-15.913 Y-8.73
X-15.597 Y-8.063
X-15.305 Y-7.385
X-15.038 Y-6.697
X-14.795 Y-6.001
X-14.577 Y-5.296
X-14.384 Y-4.584
X-14.217 Y-3.865
X-14.075 Y-3.141
X-13.959 Y-2.412
X-13.869 Y-1.68
X-13.805 Y-0.945
X-13.767 Y-0.208
X-13.756 Y0.529
X-13.77 Y1.267
X-13.811 Y2.004
X-13.878 Y2.739
X-13.971 Y3.471
X-14.09 Y4.199
X-14.236 Y4.922
X-14.408 Y5.64
X-14.605 Y6.35
X-14.827 Y7.054
X-15.074 Y7.749
X-15.345 Y8.435
X-15.641 Y9.111
X-15.961 Y9.776
X-16.304 Y10.429
X-16.671 Y11.07
X-17.06 Y11.696
X-17.471 Y12.309
X-17.904 Y12.907
X-18.357 Y13.489
X-18.83 Y14.055
X-19.324 Y14.603
X-19.837 Y15.134
X-20.369 Y15.645
X-20.918 Y16.137
X-21.485 Y16.609
X-22.069 Y17.061
X-22.667 Y17.492
X-23.281 Y17.902
X-23.909 Y18.29
X-24.55 Y18.655
X-25.204 Y18.997
X-25.869 Y19.315
X-26.546 Y19.61
X-27.232 Y19.88
X-27.928 Y20.127
X-28.631 Y20.349
X-29.342 Y20.546
X-30.06 Y20.717
X-30.783 Y20.863
X-31.511 Y20.982
X-32.243 Y21.076
X-32.978 Y21.143
X-33.714 Y21.185
X-34.452 Y21.201
X-35.19 Y21.191
X-35.927 Y21.156
X-36.662 Y21.094
X-37.395 Y21.006
X-38.124 Y20.892
X-38.848 Y20.753
X-39.567 Y20.589
X-40.281 Y20.4
X-40.987 Y20.186
X-41.685 Y19.948
X-42.375 Y19.686
X-43.055 Y19.399
X-43.724 Y19.088
X-44.382 Y18.754
X-45.028 Y18.398
X-45.661 Y18.019
X-46.28 Y17.618
X-46.886 Y17.197
X-47.476 Y16.754
X-48.05 Y16.291
X-48.608 Y15.808
X-49.149 Y15.305
X-49.671 Y14.785
X-50.176 Y14.246
X-50.661 Y13.691
X-51.127 Y13.119
X-51.573 Y12.531
X-51.999 Y11.928
X-52.402 Y11.311
X-52.784 Y10.679
X-53.144 Y10.035
X-53.481 Y9.379
X-53.795 Y8.711
X-54.086 Y8.033
X-54.354 Y7.346
X-54.598 Y6.649
X-54.817 Y5.945
X-55.012 Y5.233
X-55.182 Y4.515
X-55.327 Y3.792
X-55.446 Y3.064
X-55.541 Y2.332
X-55.611 Y1.597
X-55.655 Y0.861
X-55.674 Y0.123
X-55.667 Y-0.614
X-55.634 Y-1.351
X-55.575 Y-2.087
X-55.491 Y-2.82
X-55.383 Y-3.55
X-55.249 Y-4.275
X-55.09 Y-4.996
X-54.907 Y-5.711
X-54.699 Y-6.418
X-54.467 Y-7.119
X-54.21 Y-7.81
X-53.93 Y-8.493
X-53.626 Y-9.165
X-53.3 Y-9.827
X-52.951 Y-10.477
X-52.58 Y-11.115
X-52.187 Y-11.74
X-51.773 Y-12.35
X-51.337 Y-12.946
X-50.881 Y-13.526
X-50.406 Y-14.09
X-49.911 Y-14.637
X-49.398 Y-15.167
X-48.867 Y-15.68
X-48.319 Y-16.174
X-47.754 Y-16.648
X-47.173 Y-17.103
X-46.577 Y-17.538
X-45.966 Y-17.951
X-45.341 Y-18.344
X-44.703 Y-18.714
X-44.053 Y-19.063
X-43.391 Y-19.389
X-42.719 Y-19.693
X-42.036 Y-19.972
X-41.344 Y-20.228
X-40.643 Y-20.459
X-39.935 Y-20.666
X-39.22 Y-20.849
X-38.499 Y-21.007
X-37.774 Y-21.14
X-37.044 Y-21.249
X-36.311 Y-21.333
X-35.575 Y-21.391
X-34.838 Y-21.423
X-34.1 Y-21.43
X-33.363 Y-21.412
X-32.626 Y-21.369
X-31.892 Y-21.3
X-31.16 Y-21.207
X-30.432 Y-21.088
X-29.708 Y-20.945
X-28.99 Y-20.776
X-28.278 Y-20.583
X-27.573 Y-20.365
X-26.876 Y-20.123
X-26.187 Y-19.858
X-25.508 Y-19.569
X-24.839 Y-19.258
X-24.181 Y-18.925
X-23.534 Y-18.569
X-22.901 Y-18.191
X-22.28 Y-17.792
X-21.673 Y-17.372
X-21.081 Y-16.932
X-20.504 Y-16.472
X-19.943 Y-15.994
X-19.398 Y-15.496
X-18.87 Y-14.981
X-18.36 Y-14.448
X-17.868 Y-13.897
X-17.396 Y-13.331
X-16.943 Y-12.748
X-16.509 Y-12.151
X-16.096 Y-11.54
X-15.703 Y-10.916
X-15.331 Y-10.278
X-14.981 Y-9.629
X-14.652 Y-8.968
X-14.346 Y-8.297
X-14.063 Y-7.616
X-13.803 Y-6.925
X-13.566 Y-6.227
X-13.352 Y-5.52
X-13.162 Y-4.808
X-12.996 Y-4.089
X-12.854 Y-3.365
X-12.737 Y-2.636
X-12.645 Y-1.904
X-12.577 Y-1.169
X-12.535 Y-0.433
X-12.517 Y0.305
X-12.524 Y1.043
X-12.555 Y1.78
X-12.611 Y2.515
X-12.691 Y3.249
X-12.796 Y3.979
X-12.926 Y4.705
X-13.081 Y5.427
X-13.259 Y6.143
X-13.462 Y6.852
X-13.688 Y7.555
X-13.937 Y8.249
X-14.21 Y8.935
X-14.505 Y9.611
X-14.824 Y10.276
X-15.165 Y10.93
X-15.528 Y11.573
X-15.912 Y12.202
X-16.317 Y12.819
X-16.743 Y13.422
X-17.188 Y14.01
X-17.653 Y14.583
X-18.137 Y15.14
X-18.639 Y15.681
X-19.159 Y16.204
X-19.697 Y16.709
X-20.251 Y17.196
X-20.821 Y17.665
X-21.406 Y18.114
X-22.006 Y18.543
X-22.62 Y18.952
X-23.248 Y19.341
X-23.888 Y19.707
X-24.541 Y20.052
X-25.204 Y20.374
X-25.878 Y20.674
X-26.562 Y20.952
X-27.254 Y21.206
X-27.955 Y21.438
X-28.663 Y21.646
X-29.377 Y21.831
X-30.097 Y21.991
X-30.822 Y22.127
X-31.552 Y22.239
X-32.284 Y22.326
X-33.02 Y22.389
X-33.756 Y22.428
X-34.494 Y22.442
X-35.232 Y22.432
X-35.969 Y22.397
X-36.704 Y22.337
X-37.437 Y22.252
X-38.167 Y22.143
X-38.892 Y22.01
X-39.613 Y21.853
X-40.329 Y21.673
X-41.038 Y21.469
X-41.74 Y21.242
X-42.434 Y20.992
X-43.12 Y20.719
X-43.796 Y20.424
X-44.462 Y20.106
X-45.117 Y19.767
X-45.761 Y19.406
X-46.392 Y19.024
X-47.011 Y18.623
X-47.616 Y18.2
X-48.207 Y17.758
X-48.782 Y17.297
X-49.342 Y16.816
X-49.885 Y16.317
X-50.412 Y15.801
X-50.922 Y15.267
X-51.414 Y14.717
X-51.888 Y14.152
X-52.343 Y13.571
X-52.779 Y12.976
X-53.195 Y12.367
X-53.591 Y11.744
X-53.966 Y11.109
X-54.32 Y10.462
X-54.653 Y9.803
X-54.965 Y9.134
X-55.254 Y8.456
X-55.522 Y7.768
X-55.766 Y7.072
X-55.987 Y6.368
X-56.185 Y5.657
X-56.359 Y4.94
X-56.509 Y4.218
X-56.636 Y3.491
X-56.739 Y2.76
X-56.819 Y2.027
X-56.874 Y1.291
X-56.906 Y0.554
X-56.913 Y-0.184
X-56.896 Y-0.922
X-56.855 Y-1.658
X-56.79 Y-2.393
X-56.701 Y-3.126
X-56.589 Y-3.855
X-56.453 Y-4.58
X-56.294 Y-5.3
X-56.111 Y-6.015
X-55.905 Y-6.724
X-55.675 Y-7.425
X-55.422 Y-8.118
X-55.147 Y-8.802
X-54.849 Y-9.478
X-54.53 Y-10.143
X-54.19 Y-10.797
X-53.828 Y-11.441
X-53.446 Y-12.072
X-53.043 Y-12.69
X-52.621 Y-13.295
X-52.178 Y-13.885
X-51.717 Y-14.461
X-51.237 Y-15.022
X-50.74 Y-15.567
X-50.225 Y-16.095
X-49.693 Y-16.607
X-49.146 Y-17.101
X-48.581 Y-17.576
X-48.002 Y-18.033
X-47.408 Y-18.47
X-46.8 Y-18.888
X-46.178 Y-19.286
X-45.544 Y-19.663
X-44.898 Y-20.02
X-44.241 Y-20.356
X-43.574 Y-20.67
X-42.896 Y-20.962
X-42.21 Y-21.232
X-41.514 Y-21.479
X-40.812 Y-21.704
X-40.102 Y-21.905
X-39.386 Y-22.084
X-38.665 Y-22.239
X-37.939 Y-22.371
X-37.209 Y-22.48
X-36.476 Y-22.564
X-35.741 Y-22.624
X-35.004 Y-22.66
X-34.266 Y-22.672
X-33.528 Y-22.66
X-32.791 Y-22.624
X-32.056 Y-22.564
X-31.323 Y-22.48
X-30.593 Y-22.373
X-29.867 Y-22.243
X-29.145 Y-22.089
X-28.429 Y-21.911
X-27.719 Y-21.71
X-27.016 Y-21.486
X-26.32 Y-21.24
X-25.633 Y-20.972
X-24.955 Y-20.682
X-24.286 Y-20.37
X-23.628 Y-20.037
X-22.98 Y-19.683
X-22.345 Y-19.308
X-21.722 Y-18.912
X-21.113 Y-18.496
X-20.517 Y-18.062
X-19.935 Y-17.608
X-19.367 Y-17.137
X-18.815 Y-16.647
X-18.279 Y-16.141
X-17.759 Y-15.617
X-17.256 Y-15.077
X-16.771 Y-14.521
X-16.304 Y-13.95
X-15.855 Y-13.365
X-15.424 Y-12.765
X-15.013 Y-12.153
X-14.622 Y-11.527
X-14.25 Y-10.89
X-13.898 Y-10.241
X-13.568 Y-9.581
X-13.26 Y-8.911
X-12.972 Y-8.232
X-12.707 Y-7.543
X-12.463 Y-6.847
X-12.241 Y-6.143
X-12.042 Y-5.433
X-11.865 Y-4.717
X-11.711 Y-3.995
X-11.58 Y-3.269
X-11.472 Y-2.539
X-11.388 Y-1.806
X-11.327 Y-1.071
X-11.29 Y-0.334
X-11.275 Y0.404
X-11.284 Y1.142
X-11.316 Y1.879
X-11.372 Y2.614
X-11.451 Y3.348
X-11.554 Y4.078
X-11.681 Y4.805
X-11.83 Y5.528
X-12.003 Y6.245
X-12.198 Y6.957
X-12.416 Y7.662
X-12.656 Y8.359
X-12.917 Y9.049
X-13.201 Y9.73
X-13.506 Y10.402
X-13.833 Y11.064
X-14.181 Y11.714
X-14.549 Y12.354
X-14.937 Y12.981
X-15.345 Y13.596
X-15.772 Y14.198
X-16.218 Y14.786
X-16.682 Y15.359
X-17.165 Y15.917
X-17.665 Y16.459
X-18.182 Y16.985
X-18.716 Y17.494
X-19.266 Y17.986
X-19.831 Y18.461
X-20.411 Y18.917
X-21.005 Y19.355
X-21.612 Y19.774
X-22.232 Y20.174
X-22.865 Y20.553
X-23.51 Y20.912
X-24.165 Y21.251
X-24.831 Y21.568
X-25.507 Y21.864
X-26.192 Y22.139
X-26.885 Y22.393
X-27.585 Y22.624
X-28.293 Y22.833
X-29.007 Y23.019
X-29.726 Y23.183
X-30.451 Y23.323
X-31.179 Y23.44
X-31.911 Y23.534
X-32.645 Y23.605
X-33.382 Y23.653
X-34.119 Y23.678
X-34.857 Y23.68
X-35.594 Y23.659
X-36.331 Y23.614
X-37.065 Y23.546
X-37.797 Y23.455
X-38.526 Y23.34
X-39.251 Y23.204
X-39.972 Y23.044
X-40.687 Y22.863
X-41.396 Y22.659
X-42.098 Y22.433
X-42.793 Y22.185
X-43.48 Y21.915
X-44.158 Y21.623
X-44.826 Y21.311
X-45.484 Y20.977
X-46.132 Y20.624
X-46.768 Y20.251
X-47.393 Y19.858
X-48.005 Y19.446
X-48.603 Y19.014
X-49.188 Y18.565
X-49.759 Y18.097
X-50.314 Y17.611
X-50.854 Y17.108
X-51.378 Y16.589
X-51.886 Y16.054
X-52.377 Y15.503
X-52.851 Y14.938
X-53.307 Y14.358
X-53.745 Y13.764
X-54.163 Y13.156
X-54.562 Y12.535
X-54.942 Y11.903
X-55.302 Y11.259
X-55.643 Y10.604
X-55.962 Y9.939
X-56.262 Y9.265
X-56.54 Y8.582
X-56.797 Y7.89
X-57.032 Y7.191
X-57.245 Y6.484
X-57.436 Y5.771
X-57.605 Y5.053
X-57.751 Y4.33
X-57.875 Y3.603
X-57.977 Y2.872
X-58.057 Y2.139
X-58.113 Y1.403
X-58.146 Y0.666
X-58.156 Y-0.072
X-58.143 Y-0.81
X-58.108 Y-1.547
X-58.049 Y-2.282
X-57.968 Y-3.015
X-57.865 Y-3.746
X-57.739 Y-4.473
X-57.591 Y-5.196
X-57.421 Y-5.914
X-57.228 Y-6.626
X-57.013 Y-7.332
X-56.777 Y-8.031
X-56.519 Y-8.722
X-56.24 Y-9.405
X-55.939 Y-10.079
X-55.619 Y-10.743
X-55.278 Y-11.398
X-54.917 Y-12.041
X-54.536 Y-12.673
X-54.136 Y-13.293
X-53.716 Y-13.9
X-53.278 Y-14.493
X-52.821 Y-15.073
X-52.348 Y-15.638
X-51.857 Y-16.189
X-51.349 Y-16.725
X-50.825 Y-17.244
X-50.286 Y-17.748
X-49.731 Y-18.234
X-49.161 Y-18.703
X-48.577 Y-19.153
X-47.979 Y-19.586
X-47.369 Y-20.
X-46.745 Y-20.395
X-46.11 Y-20.771
X-45.464 Y-21.127
X-44.807 Y-21.463
X-44.14 Y-21.778
X-43.464 Y-22.073
X-42.778 Y-22.346
X-42.085 Y-22.597
X-41.384 Y-22.827
X-40.676 Y-23.036
X-39.962 Y-23.223
X-39.243 Y-23.387
X-38.519 Y-23.53
X-37.791 Y-23.651
X-37.06 Y-23.749
X-36.326 Y-23.824
X-35.59 Y-23.876
X-34.853 Y-23.906
X-34.115 Y-23.913
X-33.377 Y-23.897
X-32.641 Y-23.859
X-31.905 Y-23.798
X-31.172 Y-23.715
X-30.442 Y-23.609
X-29.716 Y-23.48
X-28.993 Y-23.329
X-28.276 Y-23.155
X-27.565 Y-22.96
X-26.86 Y-22.743
X-26.161 Y-22.504
X-25.471 Y-22.245
X-24.788 Y-21.964
X-24.115 Y-21.663
X-23.451 Y-21.342
X-22.797 Y-21.
X-22.153 Y-20.639
X-21.522 Y-20.258
X-20.902 Y-19.858
X-20.294 Y-19.439
X-19.7 Y-19.002
X-19.119 Y-18.547
X-18.551 Y-18.075
X-17.999 Y-17.587
X-17.461 Y-17.081
X-16.94 Y-16.559
X-16.435 Y-16.022
X-15.946 Y-15.469
X-15.474 Y-14.902
X-15.019 Y-14.321
X-14.582 Y-13.726
X-14.163 Y-13.119
X-13.762 Y-12.5
X-13.38 Y-11.869
X-13.017 Y-11.226
X-12.673 Y-10.573
X-12.35 Y-9.91
X-12.047 Y-9.237
X-11.764 Y-8.556
X-11.502 Y-7.866
X-11.26 Y-7.169
X-11.04 Y-6.465
X-10.84 Y-5.755
X-10.663 Y-5.039
X-10.507 Y-4.317
X-10.373 Y-3.592
X-10.262 Y-2.862
X-10.172 Y-2.13
X-10.105 Y-1.395
X-10.06 Y-0.659
X-10.036 Y0.079
X-10.035 Y0.816
X-10.056 Y1.554
X-10.1 Y2.29
X-10.165 Y3.025
X-10.253 Y3.758
X-10.363 Y4.487
X-10.495 Y5.213
X-10.649 Y5.935
X-10.825 Y6.652
X-11.022 Y7.363
X-11.24 Y8.067
X-11.48 Y8.765
X-11.74 Y9.455
X-12.022 Y10.137
X-12.324 Y10.81
X-12.647 Y11.474
X-12.99 Y12.127
X-13.352 Y12.77
X-13.733 Y13.402
X-14.133 Y14.022
X-14.552 Y14.629
X-14.988 Y15.224
X-15.442 Y15.806
X-15.914 Y16.373
X-16.403 Y16.926
X-16.908 Y17.463
X-17.429 Y17.986
X-17.966 Y18.492
X-18.518 Y18.982
X-19.084 Y19.455
X-19.663 Y19.911
X-20.257 Y20.35
X-20.863 Y20.77
X-21.482 Y21.172
X-22.113 Y21.554
X-22.755 Y21.917
X-23.408 Y22.261
X-24.071 Y22.585
X-24.743 Y22.889
X-25.425 Y23.173
X-26.114 Y23.436
X-26.81 Y23.679
X-27.514 Y23.901
X-28.224 Y24.101
X-28.94 Y24.28
X-29.661 Y24.437
X-30.386 Y24.572
X-31.115 Y24.686
X-31.847 Y24.778
X-32.582 Y24.848
X-33.318 Y24.896
X-34.055 Y24.922
X-34.793 Y24.925
X-35.531 Y24.906
X-36.268 Y24.865
X-37.003 Y24.802
X-37.736 Y24.717
X-38.466 Y24.61
X-39.192 Y24.482
X-39.915 Y24.332
X-40.632 Y24.161
X-41.345 Y23.969
X-42.051 Y23.756
X-42.751 Y23.522
X-43.443 Y23.266
X-44.127 Y22.991
X-44.803 Y22.695
X-45.47 Y22.379
X-46.127 Y22.044
X-46.774 Y21.689
X-47.411 Y21.316
X-48.036 Y20.924
X-48.649 Y20.513
X-49.249 Y20.084
X-49.836 Y19.637
X-50.41 Y19.173
X-50.969 Y18.692
X-51.514 Y18.195
X-52.044 Y17.682
X-52.559 Y17.154
X-53.058 Y16.61
X-53.542 Y16.053
X-54.008 Y15.481
X-54.457 Y14.895
X-54.888 Y14.297
X-55.302 Y13.686
X-55.697 Y13.063
X-56.074 Y12.429
X-56.432 Y11.783
X-56.771 Y11.128
X-57.091 Y10.463
X-57.391 Y9.789
X-57.671 Y9.106
X-57.93 Y8.416
X-58.169 Y7.718
X-58.386 Y7.013
X-58.583 Y6.301
X-58.759 Y5.585
X-58.914 Y4.864
X-59.047 Y4.138
X-59.16 Y3.409
X-59.251 Y2.677
X-59.32 Y1.942
X-59.368 Y1.206
X-59.394 Y0.468
X-59.398 Y-0.269
X-59.38 Y-1.007
X-59.34 Y-1.744
X-59.28 Y-2.479
X-59.197 Y-3.212
X-59.094 Y-3.943
X-58.969 Y-4.67
X-58.822 Y-5.393
X-58.654 Y-6.112
X-58.465 Y-6.825
X-58.254 Y-7.532
X-58.023 Y-8.233
X-57.772 Y-8.926
X-57.5 Y-9.612
X-57.209 Y-10.29
X-56.898 Y-10.959
X-56.567 Y-11.619
X-56.217 Y-12.268
X-55.849 Y-12.907
X-55.461 Y-13.535
X-55.055 Y-14.151
X-54.631 Y-14.755
X-54.19 Y-15.346
X-53.731 Y-15.925
X-53.256 Y-16.489
X-52.765 Y-17.04
X-52.258 Y-17.575
X-51.735 Y-18.096
X-51.197 Y-18.601
X-50.644 Y-19.09
X-50.077 Y-19.562
X-49.497 Y-20.017
X-48.903 Y-20.455
X-48.297 Y-20.875
X-47.678 Y-21.278
X-47.049 Y-21.663
X-46.408 Y-22.029
X-45.757 Y-22.376
X-45.096 Y-22.703
X-44.426 Y-23.011
X-43.746 Y-23.3
X-43.059 Y-23.568
X-42.364 Y-23.815
X-41.662 Y-24.043
X-40.954 Y-24.25
X-40.24 Y-24.436
X-39.521 Y-24.601
X-38.797 Y-24.745
X-38.07 Y-24.867
X-37.339 Y-24.968
X-36.605 Y-25.048
X-35.87 Y-25.105
X-35.133 Y-25.141
X-34.395 Y-25.156
X-33.657 Y-25.149
X-32.92 Y-25.12
X-32.184 Y-25.071
X-31.449 Y-24.999
X-30.718 Y-24.907
X-29.989 Y-24.793
X-29.263 Y-24.657
X-28.542 Y-24.5
X-27.826 Y-24.322
X-27.116 Y-24.124
X-26.411 Y-23.905
X-25.713 Y-23.665
X-25.023 Y-23.406
X-24.34 Y-23.126
X-23.665 Y-22.827
X-23. Y-22.508
X-22.344 Y-22.17
X-21.699 Y-21.812
X-21.064 Y-21.437
X-20.44 Y-21.042
X-19.828 Y-20.631
X-19.228 Y-20.201
X-18.641 Y-19.755
X-18.066 Y-19.292
X-17.505 Y-18.813
X-16.958 Y-18.317
X-16.426 Y-17.806
X-15.909 Y-17.28
X-15.407 Y-16.739
X-14.921 Y-16.184
X-14.451 Y-15.615
X-13.998 Y-15.033
X-13.561 Y-14.439
X-13.141 Y-13.832
X-12.739 Y-13.213
X-12.355 Y-12.583
X-11.99 Y-11.942
X-11.643 Y-11.291
X-11.315 Y-10.63
X-11.006 Y-9.96
X-10.716 Y-9.282
X-10.446 Y-8.595
X-10.195 Y-7.901
X-9.965 Y-7.2
X-9.754 Y-6.493
X-9.563 Y-5.78
X-9.394 Y-5.062
X-9.245 Y-4.34
X-9.117 Y-3.613
X-9.01 Y-2.883
X-8.924 Y-2.15
X-8.859 Y-1.415
X-8.815 Y-0.679
X-8.792 Y0.059
X-8.79 Y0.796
X-8.809 Y1.534
X-8.85 Y2.271
X-8.912 Y3.006
X-8.996 Y3.739
X-9.1 Y4.469
X-9.226 Y5.196
X-9.372 Y5.92
X-9.539 Y6.638
X-9.726 Y7.352
X-9.934 Y8.06
X-10.162 Y8.762
X-10.409 Y9.457
X-10.677 Y10.144
X-10.965 Y10.823
X-11.272 Y11.494
X-11.599 Y12.156
X-11.944 Y12.808
X-12.308 Y13.45
X-12.69 Y14.081
X-13.09 Y14.701
X-13.507 Y15.309
X-13.942 Y15.905
X-14.395 Y16.488
X-14.863 Y17.058
X-15.348 Y17.614
X-15.849 Y18.156
X-16.365 Y18.683
X-16.896 Y19.196
X-17.441 Y19.693
X-18.001 Y20.174
X-18.573 Y20.639
X-19.159 Y21.088
X-19.758 Y21.519
X-20.368 Y21.933
X-20.991 Y22.33
X-21.624 Y22.708
X-22.268 Y23.068
X-22.922 Y23.409
X-23.586 Y23.732
X-24.258 Y24.035
X-24.939 Y24.32
X-25.628 Y24.585
X-26.324 Y24.829
X-27.027 Y25.054
X-27.735 Y25.258
X-28.45 Y25.442
X-29.17 Y25.605
X-29.893 Y25.748
X-30.621 Y25.87
X-31.352 Y25.971
X-32.085 Y26.052
X-32.821 Y26.112
X-33.557 Y26.151
X-34.295 Y26.168
X-35.033 Y26.165
X-35.77 Y26.14
X-36.507 Y26.095
X-37.242 Y26.028
X-37.974 Y25.941
X-38.704 Y25.833
X-39.431 Y25.704
X-40.153 Y25.555
X-40.871 Y25.386
X-41.584 Y25.196
X-42.291 Y24.985
X-42.992 Y24.755
X-43.686 Y24.505
X-44.373 Y24.235
X-45.052 Y23.946
X-45.723 Y23.639
X-46.384 Y23.312
X-47.036 Y22.967
X-47.679 Y22.604
X-48.31 Y22.223
X-48.931 Y21.824
X-49.54 Y21.407
X-50.137 Y20.973
X-50.721 Y20.523
X-51.293 Y20.056
X-51.851 Y19.574
X-52.395 Y19.076
X-52.925 Y18.562
X-53.441 Y18.035
X-53.941 Y17.492
X-54.426 Y16.936
X-54.894 Y16.366
X-55.347 Y15.783
X-55.783 Y15.188
X-56.202 Y14.581
X-56.603 Y13.962
X-56.987 Y13.332
X-57.354 Y12.691
X-57.702 Y12.041
X-58.032 Y11.381
X-58.344 Y10.712
X-58.637 Y10.035
X-58.91 Y9.35
X-59.164 Y8.657
X-59.398 Y7.957
X-59.613 Y7.251
X-59.807 Y6.54
X-59.982 Y5.823
X-60.136 Y5.101
X-60.271 Y4.376
X-60.385 Y3.647
X-60.478 Y2.915
X-60.55 Y2.181
X-60.602 Y1.445
X-60.633 Y0.708
X-60.643 Y-0.03
X-60.632 Y-0.768
X-60.601 Y-1.505
X-60.55 Y-2.241
X-60.478 Y-2.975
X-60.386 Y-3.707
X-60.273 Y-4.436
X-60.14 Y-5.162
X-59.987 Y-5.884
X-59.813 Y-6.601
X-59.619 Y-7.313
X-59.405 Y-8.019
X-59.172 Y-8.719
X-58.919 Y-9.412
X-58.647 Y-10.098
X-58.356 Y-10.776
X-58.046 Y-11.446
X-57.717 Y-12.106
X-57.37 Y-12.757
X-57.005 Y-13.398
X-56.622 Y-14.028
X-56.221 Y-14.648
X-55.803 Y-15.256
X-55.368 Y-15.852
X-54.917 Y-16.436
X-54.45 Y-17.007
X-53.967 Y-17.565
X-53.469 Y-18.109
X-52.956 Y-18.639
X-52.428 Y-19.155
X-51.885 Y-19.655
X-51.329 Y-20.14
X-50.76 Y-20.609
X-50.178 Y-21.062
X-49.583 Y-21.499
X-48.977 Y-21.919
X-48.358 Y-22.322
X-47.729 Y-22.708
X-47.09 Y-23.075
X-46.44 Y-23.425
X-45.78 Y-23.756
X-45.112 Y-24.068
X-44.435 Y-24.362
X-43.75 Y-24.636
X-43.058 Y-24.891
X-42.359 Y-25.127
X-41.654 Y-25.344
X-40.943 Y-25.541
X-40.226 Y-25.718
X-39.505 Y-25.875
X-38.78 Y-26.011
X-38.052 Y-26.127
X-37.32 Y-26.223
X-36.586 Y-26.299
X-35.85 Y-26.353
X-35.113 Y-26.387
X-34.376 Y-26.401
X-33.638 Y-26.395
X-32.901 Y-26.367
X-32.164 Y-26.319
X-31.43 Y-26.25
X-30.697 Y-26.161
X-29.968 Y-26.051
X-29.241 Y-25.921
X-28.519 Y-25.771
X-27.801 Y-25.601
X-27.088 Y-25.41
X-26.381 Y-25.201
X-25.68 Y-24.972
X-24.985 Y-24.723
X-24.297 Y-24.456
X-23.617 Y-24.169
X-22.946 Y-23.864
X-22.283 Y-23.54
X-21.629 Y-23.198
X-20.985 Y-22.838
X-20.351 Y-22.46
X-19.728 Y-22.065
X-19.116 Y-21.653
X-18.516 Y-21.224
X-17.927 Y-20.779
X-17.351 Y-20.318
X-16.788 Y-19.841
X-16.239 Y-19.348
X-15.703 Y-18.841
X-15.182 Y-18.319
X-14.675 Y-17.783
X-14.183 Y-17.233
X-13.706 Y-16.671
X-13.244 Y-16.095
X-12.798 Y-15.507
X-12.369 Y-14.907
X-11.956 Y-14.296
X-11.56 Y-13.673
X-11.181 Y-13.04
X-10.82 Y-12.397
X-10.476 Y-11.744
X-10.151 Y-11.082
X-9.843 Y-10.411
X-9.554 Y-9.732
X-9.284 Y-9.046
X-9.032 Y-8.352
X-8.8 Y-7.652
X-8.587 Y-6.945
X-8.393 Y-6.233
X-8.219 Y-5.516
X-8.065 Y-4.795
X-7.931 Y-4.069
X-7.817 Y-3.34
X-7.722 Y-2.609
X-7.648 Y-1.875
X-7.593 Y-1.139
X-7.559 Y-0.402
X-7.544 Y0.336
X-7.55 Y1.074
X-7.576 Y1.811
X-7.623 Y2.547
X-7.689 Y3.282
X-7.776 Y4.015
X-7.883 Y4.745
X-8.01 Y5.472
X-8.157 Y6.195
X-8.323 Y6.914
X-8.509 Y7.628
X-8.715 Y8.336
X-8.94 Y9.039
X-9.185 Y9.735
X-9.448 Y10.424
X-9.73 Y11.106
X-10.031 Y11.779
X-10.351 Y12.444
X-10.688 Y13.101
X-11.043 Y13.747
X-11.416 Y14.384
X-11.806 Y15.01
X-12.213 Y15.626
X-12.636 Y16.23
X-13.076 Y16.822
X-13.533 Y17.402
X-14.004 Y17.969
X-14.492 Y18.523
X-14.994 Y19.064
X-15.511 Y19.591
X-16.042 Y20.103
X-16.586 Y20.6
X-17.145 Y21.083
X-17.716 Y21.55
X-18.3 Y22.001
X-18.896 Y22.436
X-19.504 Y22.854
X-20.123 Y23.255
X-20.752 Y23.64
X-21.392 Y24.007
X-22.042 Y24.357
X-22.701 Y24.688
X-23.369 Y25.002
X-24.045 Y25.298
X-24.729 Y25.575
X-25.42 Y25.833
X-26.118 Y26.072
X-26.822 Y26.292
X-27.532 Y26.493
X-28.248 Y26.674
X-28.967 Y26.835
X-29.691 Y26.978
X-30.419 Y27.1
X-31.15 Y27.202
X-31.883 Y27.285
X-32.618 Y27.347
X-33.355 Y27.389
X-34.092 Y27.411
X-34.83 Y27.413
X-35.568 Y27.395
X-36.304 Y27.357
X-37.04 Y27.299
X-37.774 Y27.221
X-38.505 Y27.123
X-39.233 Y27.005
X-39.958 Y26.869
X-40.679 Y26.712
X-41.396 Y26.536
X-42.107 Y26.341
X-42.813 Y26.126
X-43.513 Y25.892
X-44.206 Y25.64
X-44.893 Y25.369
X-45.571 Y25.079
X-46.242 Y24.772
X-46.904 Y24.446
X-47.557 Y24.103
X-48.201 Y23.742
X-48.834 Y23.364
X-49.457 Y22.968
X-50.069 Y22.556
X-50.67 Y22.128
X-51.259 Y21.684
X-51.836 Y21.224
X-52.4 Y20.748
X-52.951 Y20.258
X-53.489 Y19.753
X-54.013 Y19.233
X-54.523 Y18.7
X-55.018 Y18.153
X-55.499 Y17.594
X-55.964 Y17.021
X-56.414 Y16.436
X-56.848 Y15.839
X-57.265 Y15.231
X-57.667 Y14.612
X-58.051 Y13.982
X-58.419 Y13.342
X-58.769 Y12.693
X-59.101 Y12.034
X-59.416 Y11.367
X-59.712 Y10.691
X-59.991 Y10.008
X-60.251 Y9.317
X-60.492 Y8.62
X-60.714 Y7.917
X-60.918 Y7.207
X-61.102 Y6.493
X-61.268 Y5.774
X-61.414 Y5.051
X-61.541 Y4.324
X-61.648 Y3.594
X-61.736 Y2.862
X-61.804 Y2.127
X-61.852 Y1.391
X-61.88 Y0.653
X-61.889 Y-0.084
X-61.878 Y-0.822
X-61.847 Y-1.559
X-61.797 Y-2.295
X-61.727 Y-3.03
X-61.637 Y-3.762
X-61.527 Y-4.492
X-61.398 Y-5.218
X-61.25 Y-5.941
X-61.082 Y-6.66
X-60.896 Y-7.373
X-60.69 Y-8.082
X-60.465 Y-8.785
X-60.222 Y-9.481
X-59.96 Y-10.171
X-59.68 Y-10.854
X-59.382 Y-11.529
X-59.066 Y-12.195
X-58.732 Y-12.853
X-58.381 Y-13.502
X-58.012 Y-14.141
X-57.626 Y-14.77
X-57.224 Y-15.389
X-56.806 Y-15.996
X-56.371 Y-16.593
X-55.921 Y-17.177
X-55.455 Y-17.749
X-54.974 Y-18.309
X-54.478 Y-18.855
X-53.968 Y-19.388
X-53.443 Y-19.907
X-52.905 Y-20.412
X-52.354 Y-20.902
X-51.79 Y-21.377
X-51.213 Y-21.838
X-50.624 Y-22.282
X-50.024 Y-22.711
X-49.412 Y-23.124
X-48.79 Y-23.52
X-48.157 Y-23.9
X-47.515 Y-24.262
X-46.863 Y-24.607
X-46.201 Y-24.935
X-45.532 Y-25.245
X-44.854 Y-25.537
X-44.169 Y-25.81
X-43.477 Y-26.066
X-42.778 Y-26.302
X-42.073 Y-26.52
X-41.363 Y-26.719
X-40.647 Y-26.899
X-39.927 Y-27.06
X-39.203 Y-27.201
X-38.475 Y-27.323
X-37.744 Y-27.426
X-37.011 Y-27.509
X-36.276 Y-27.573
X-35.54 Y-27.617
X-34.802 Y-27.641
X-34.065 Y-27.646
X-33.327 Y-27.631
X-32.59 Y-27.597
X-31.854 Y-27.542
X-31.12 Y-27.469
X-30.388 Y-27.375
X-29.659 Y-27.263
X-28.933 Y-27.13
X-28.211 Y-26.979
X-27.493 Y-26.809
X-26.78 Y-26.619
X-26.072 Y-26.411
X-25.37 Y-26.184
X-24.675 Y-25.938
X-23.986 Y-25.674
X-23.304 Y-25.391
X-22.63 Y-25.091
X-21.964 Y-24.773
X-21.307 Y-24.438
X-20.659 Y-24.085
X-20.021 Y-23.715
X-19.392 Y-23.329
X-18.774 Y-22.926
X-18.166 Y-22.508
X-17.57 Y-22.073
X-16.985 Y-21.623
X-16.413 Y-21.157
X-15.853 Y-20.677
X-15.306 Y-20.182
X-14.772 Y-19.673
X-14.251 Y-19.15
X-13.745 Y-18.614
X-13.252 Y-18.064
X-12.774 Y-17.502
X-12.312 Y-16.927
X-11.864 Y-16.341
X-11.432 Y-15.743
X-11.016 Y-15.134
X-10.615 Y-14.514
X-10.231 Y-13.884
X-9.864 Y-13.244
X-9.514 Y-12.595
X-9.18 Y-11.936
X-8.864 Y-11.27
X-8.566 Y-10.595
X-8.284 Y-9.913
X-8.021 Y-9.224
X-7.776 Y-8.528
X-7.55 Y-7.826
X-7.341 Y-7.118
X-7.152 Y-6.405
X-6.981 Y-5.687
X-6.829 Y-4.965
X-6.695 Y-4.239
X-6.581 Y-3.51
X-6.486 Y-2.779
X-6.41 Y-2.045
X-6.354 Y-1.309
X-6.317 Y-0.572
X-6.299 Y0.165
X-6.3 Y0.903
X-6.321 Y1.641
X-6.361 Y2.377
X-6.421 Y3.113
X-6.5 Y3.846
X-6.598 Y4.578
X-6.714 Y5.306
X-6.85 Y6.031
X-7.005 Y6.753
X-7.179 Y7.47
X-7.371 Y8.182
X-7.582 Y8.889
X-7.812 Y9.59
X-8.06 Y10.285
X-8.326 Y10.973
X-8.61 Y11.654
X-8.912 Y12.328
X-9.231 Y12.993
X-9.567 Y13.649
X-9.921 Y14.297
X-10.292 Y14.935
X-10.679 Y15.563
X-11.083 Y16.18
X-11.503 Y16.787
X-11.938 Y17.383
X-12.389 Y17.967
X-12.855 Y18.539
X-13.336 Y19.099
X-13.831 Y19.645
X-14.34 Y20.179
X-14.863 Y20.7
X-15.4 Y21.206
X-15.949 Y21.699
X-16.511 Y22.176
X-17.086 Y22.639
X-17.672 Y23.087
X-18.27 Y23.519
X-18.88 Y23.935
X-19.499 Y24.336
X-20.129 Y24.72
X-20.769 Y25.087
X-21.418 Y25.438
X-22.076 Y25.771
X-22.743 Y26.087
X-23.418 Y26.386
X-24.1 Y26.667
X-24.789 Y26.93
X-25.485 Y27.175
X-26.188 Y27.401
X-26.895 Y27.61
X-27.608 Y27.799
X-28.326 Y27.97
X-29.048 Y28.123
X-29.774 Y28.257
X-30.502 Y28.371
X-31.234 Y28.467
X-31.968 Y28.544
X-32.703 Y28.601
X-33.44 Y28.64
X-34.178 Y28.659
X-34.916
X-35.653 Y28.639
X-36.39 Y28.601
X-37.126 Y28.544
X-37.859 Y28.467
X-38.591 Y28.371
X-39.32 Y28.256
X-40.045 Y28.123
X-40.767 Y27.971
X-41.485 Y27.8
X-42.198 Y27.61
X-42.906 Y27.402
X-43.608 Y27.176
X-44.305 Y26.932
X-44.995 Y26.671
X-45.677 Y26.391
X-46.353 Y26.094
X-47.02 Y25.78
X-47.68 Y25.448
X-48.33 Y25.1
X-48.971 Y24.735
X-49.603 Y24.354
X-50.224 Y23.956
X-50.835 Y23.542
X-51.435 Y23.113
X-52.024 Y22.669
X-52.601 Y22.209
X-53.166 Y21.735
X-53.719 Y21.246
X-54.259 Y20.743
X-54.785 Y20.226
X-55.299 Y19.696
X-55.798 Y19.153
X-56.283 Y18.597
X-56.754 Y18.029
X-57.21 Y17.449
X-57.651 Y16.857
X-58.077 Y16.255
X-58.487 Y15.641
X-58.881 Y15.018
X-59.259 Y14.384
X-59.621 Y13.741
X-59.966 Y13.089
X-60.295 Y12.428
X-60.606 Y11.759
X-60.9 Y11.083
X-61.177 Y10.399
X-61.435 Y9.708
X-61.677 Y9.011
X-61.9 Y8.307
X-62.105 Y7.598
X-62.291 Y6.885
X-62.459 Y6.166
X-62.609 Y5.444
X-62.74 Y4.718
X-62.852 Y3.988
X-62.946 Y3.257
X-63.021 Y2.523
X-63.077 Y1.787
X-63.114 Y1.05
X-63.133 Y0.312
X-63.132 Y-0.425
X-63.113 Y-1.163
X-63.075 Y-1.9
X-63.018 Y-2.635
X-62.942 Y-3.369
X-62.848 Y-4.101
X-62.735 Y-4.83
X-62.603 Y-5.556
X-62.452 Y-6.278
X-62.284 Y-6.997
X-62.097 Y-7.71
X-61.891 Y-8.419
X-61.668 Y-9.122
X-61.427 Y-9.819
X-61.167 Y-10.51
X-60.89 Y-11.194
X-60.596 Y-11.871
X-60.285 Y-12.54
X-59.956 Y-13.2
X-59.611 Y-13.852
X-59.249 Y-14.495
X-58.871 Y-15.129
X-58.477 Y-15.753
X-58.067 Y-16.366
X-57.642 Y-16.969
X-57.201 Y-17.561
X-56.745 Y-18.141
X-56.275 Y-18.709
X-55.79 Y-19.266
X-55.291 Y-19.809
X-54.779 Y-20.34
X-54.253 Y-20.858
X-53.714 Y-21.362
X-53.163 Y-21.852
X-52.599 Y-22.328
X-52.023 Y-22.789
X-51.435 Y-23.235
X-50.836 Y-23.666
X-50.227 Y-24.081
X-49.606 Y-24.481
X-48.976 Y-24.865
X-48.337 Y-25.232
X-47.688 Y-25.583
X-47.03 Y-25.918
X-46.364 Y-26.235
X-45.69 Y-26.536
X-45.009 Y-26.819
X-44.321 Y-27.085
X-43.626 Y-27.333
X-42.925 Y-27.563
X-42.218 Y-27.776
X-41.506 Y-27.97
X-40.79 Y-28.146
X-40.069 Y-28.303
X-39.345 Y-28.443
X-38.617 Y-28.563
X-37.886 Y-28.665
X-37.153 Y-28.749
X-36.418 Y-28.814
X-35.681 Y-28.859
X-34.944 Y-28.886
X-34.206 Y-28.894
X-33.469 Y-28.883
X-32.731 Y-28.853
X-31.995 Y-28.805
X-31.26 Y-28.738
X-30.528 Y-28.652
X-29.797 Y-28.547
X-29.07 Y-28.424
X-28.346 Y-28.283
X-27.625 Y-28.123
X-26.909 Y-27.945
X-26.198 Y-27.749
X-25.492 Y-27.535
X-24.792 Y-27.303
X-24.097 Y-27.053
X-23.41 Y-26.786
X-22.729 Y-26.501
X-22.056 Y-26.2
X-21.39 Y-25.881
X-20.733 Y-25.546
X-20.084 Y-25.194
X-19.445 Y-24.825
X-18.815 Y-24.441
X-18.196 Y-24.041
X-17.586 Y-23.625
X-16.987 Y-23.194
X-16.399 Y-22.748
X-15.823 Y-22.287
X-15.258 Y-21.812
X-14.706 Y-21.323
X-14.166 Y-20.821
X-13.639 Y-20.305
X-13.124 Y-19.776
X-12.624 Y-19.234
X-12.137 Y-18.679
X-11.664 Y-18.113
X-11.205 Y-17.535
X-10.761 Y-16.946
X-10.332 Y-16.346
X-9.918 Y-15.735
X-9.52 Y-15.114
X-9.137 Y-14.483
X-8.77 Y-13.843
X-8.419 Y-13.194
X-8.084 Y-12.537
X-7.767 Y-11.871
X-7.466 Y-11.197
X-7.182 Y-10.516
X-6.915 Y-9.828
X-6.665 Y-9.134
X-6.433 Y-8.433
X-6.219 Y-7.727
X-6.022 Y-7.016
X-5.843 Y-6.301
X-5.682 Y-5.581
X-5.539 Y-4.857
X-5.414 Y-4.13
X-5.308 Y-3.399
X-5.219 Y-2.667
X-5.15 Y-1.932
X-5.098 Y-1.196
X-5.065 Y-0.459
X-5.051 Y0.278
X-5.055 Y1.016
X-5.078 Y1.754
X-5.119 Y2.49
X-5.178 Y3.226
X-5.256 Y3.959
X-5.352 Y4.691
X-5.467 Y5.42
X-5.601 Y6.145
X-5.752 Y6.868
X-5.922 Y7.586
X-6.109 Y8.299
X-6.314 Y9.008
X-6.537 Y9.711
X-6.778 Y10.409
X-7.036 Y11.1
X-7.311 Y11.784
X-7.603 Y12.462
X-7.913 Y13.132
X-8.238 Y13.794
X-8.581 Y14.447
X-8.94 Y15.092
X-9.314 Y15.728
X-9.705 Y16.354
X-10.111 Y16.97
X-10.533 Y17.575
X-10.969 Y18.17
X-11.42 Y18.754
X-11.886 Y19.326
X-12.366 Y19.886
X-12.86 Y20.434
X-13.368 Y20.97
X-13.889 Y21.492
X-14.422 Y22.002
X-14.969 Y22.497
X-15.527 Y22.979
X-16.098 Y23.447
X-16.68 Y23.901
X-17.273 Y24.339
X-17.877 Y24.763
X-18.492 Y25.172
X-19.116 Y25.565
X-19.75 Y25.942
X-20.393 Y26.303
X-21.045 Y26.649
X-21.706 Y26.977
X-22.374 Y27.289
X-23.051 Y27.585
X-23.734 Y27.863
X-24.424 Y28.124
X-25.12 Y28.368
X-25.822 Y28.595
X-26.53 Y28.804
X-27.243 Y28.995
X-27.96 Y29.168
X-28.681 Y29.323
X-29.406 Y29.459
X-30.134 Y29.578
X-30.865 Y29.679
X-31.599 Y29.761
X-32.334 Y29.825
X-33.07 Y29.871
X-33.807 Y29.898
X-34.545 Y29.908
X-35.283 Y29.898
X-36.02 Y29.871
X-36.757 Y29.825
X-37.492 Y29.761
X-38.225 Y29.678
X-38.956 Y29.578
X-39.684 Y29.459
X-40.409 Y29.322
X-41.13 Y29.167
X-41.848 Y28.995
X-42.561 Y28.805
X-43.269 Y28.597
X-43.971 Y28.372
X-44.668 Y28.129
X-45.358 Y27.869
X-46.042 Y27.592
X-46.719 Y27.298
X-47.388 Y26.988
X-48.05 Y26.661
X-48.703 Y26.318
X-49.347 Y25.958
X-49.983 Y25.583
X-50.609 Y25.193
X-51.225 Y24.787
X-51.831 Y24.366
X-52.426 Y23.93
X-53.01 Y23.48
X-53.584 Y23.015
X-54.145 Y22.536
X-54.694 Y22.044
X-55.231 Y21.538
X-55.756 Y21.019
X-56.267 Y20.487
X-56.765 Y19.943
X-57.25 Y19.386
X-57.721 Y18.818
X-58.178 Y18.239
X-58.62 Y17.648
X-59.047 Y17.047
X-59.459 Y16.435
X-59.857 Y15.813
X-60.239 Y15.182
X-60.605 Y14.541
X-60.955 Y13.892
X-61.289 Y13.234
X-61.607 Y12.569
X-61.909 Y11.895
X-62.194 Y11.215
X-62.462 Y10.527
X-62.714 Y9.834
X-62.948 Y9.134
X-63.165 Y8.429
X-63.364 Y7.718
X-63.546 Y7.003
X-63.71 Y6.284
X-63.856 Y5.561
X-63.985 Y4.834
X-64.096 Y4.105
X-64.189 Y3.373
X-64.264 Y2.639
X-64.321 Y1.903
X-64.359 Y1.167
X-64.38 Y0.429
X-64.382 Y-0.309
X-64.366 Y-1.046
X-64.332 Y-1.783
X-64.28 Y-2.519
X-64.21 Y-3.254
X-64.122 Y-3.987
X-64.016 Y-4.717
X-63.893 Y-5.444
X-63.751 Y-6.168
X-63.592 Y-6.889
X-63.416 Y-7.605
X-63.221 Y-8.317
X-63.01 Y-9.024
X-62.781 Y-9.725
X-62.535 Y-10.421
X-62.272 Y-11.11
X-61.992 Y-11.793
X-61.695 Y-12.468
X-61.382 Y-13.136
X-61.053 Y-13.797
X-60.708 Y-14.449
X-60.347 Y-15.092
X-59.97 Y-15.726
X-59.577 Y-16.351
X-59.169 Y-16.966
X-58.746 Y-17.571
X-58.309 Y-18.165
X-57.857 Y-18.748
X-57.391 Y-19.32
X-56.912 Y-19.881
X-56.418 Y-20.429
X-55.912 Y-20.966
X-55.392 Y-21.49
X-54.86 Y-22.001
X-54.315 Y-22.499
X-53.759 Y-22.983
X-53.191 Y-23.454
X-52.611 Y-23.91
X-52.02 Y-24.352
X-51.419 Y-24.78
X-50.807 Y-25.192
X-50.186 Y-25.59
X-49.555 Y-25.972
X-48.915 Y-26.339
X-48.266 Y-26.69
X-47.608 Y-27.025
X-46.943 Y-27.344
X-46.27 Y-27.646
X-45.589 Y-27.931
X-44.902 Y-28.2
X-44.209 Y-28.452
X-43.509 Y-28.687
X-42.804 Y-28.904
X-42.094 Y-29.105
X-41.379 Y-29.288
X-40.66 Y-29.453
X-39.938 Y-29.601
X-39.211 Y-29.731
X-38.482 Y-29.843
X-37.75 Y-29.938
X-37.017 Y-30.015
X-36.281 Y-30.073
X-35.544 Y-30.114
X-34.807 Y-30.136
X-34.069 Y-30.141
X-33.331 Y-30.127
X-32.594 Y-30.096
X-31.858 Y-30.046
X-31.123 Y-29.979
X-30.391 Y-29.893
X-29.66 Y-29.79
X-28.932 Y-29.669
X-28.208 Y-29.529
X-27.487 Y-29.373
X-26.77 Y-29.198
X-26.057 Y-29.007
X-25.35 Y-28.798
X-24.647 Y-28.571
X-23.951 Y-28.328
X-23.26 Y-28.068
X-22.576 Y-27.792
X-21.899 Y-27.499
X-21.229 Y-27.189
X-20.567 Y-26.864
X-19.913 Y-26.522
X-19.268 Y-26.165
X-18.631 Y-25.792
X-18.004 Y-25.404
X-17.386 Y-25.
X-16.778 Y-24.582
X-16.18 Y-24.149
X-15.593 Y-23.702
X-15.017 Y-23.241
X-14.453 Y-22.767
X-13.899 Y-22.278
X-13.358 Y-21.777
X-12.83 Y-21.262
X-12.314 Y-20.735
X-11.81 Y-20.195
X-11.32 Y-19.644
X-10.843 Y-19.081
X-10.38 Y-18.506
X-9.931 Y-17.921
X-9.496 Y-17.325
X-9.075 Y-16.719
X-8.669 Y-16.103
X-8.278 Y-15.477
X-7.902 Y-14.843
X-7.542 Y-14.199
X-7.196 Y-13.547
X-6.867 Y-12.887
X-6.554 Y-12.219
X-6.257 Y-11.543
X-5.976 Y-10.861
X-5.711 Y-10.172
X-5.463 Y-9.477
X-5.232 Y-8.777
X-5.018 Y-8.071
X-4.821 Y-7.36
X-4.641 Y-6.644
X-4.478 Y-5.924
X-4.333 Y-5.201
X-4.205 Y-4.474
X-4.095 Y-3.745
X-4.002 Y-3.013
X-3.927 Y-2.279
X-3.87 Y-1.543
X-3.83 Y-0.807
X-3.808 Y-0.069
X-3.803 Y0.669
X-3.817 Y1.406
X-3.848 Y2.144
X-3.897 Y2.88
X-3.963 Y3.615
X-4.047 Y4.348
X-4.149 Y5.078
X-4.268 Y5.806
X-4.405 Y6.531
X-4.56 Y7.253
X-4.731 Y7.97
X-4.92 Y8.684
X-5.126 Y9.392
X-5.349 Y10.096
X-5.589 Y10.793
X-5.845 Y11.485
X-6.119 Y12.17
X-6.409 Y12.849
X-6.715 Y13.52
X-7.037 Y14.184
X-7.375 Y14.84
X-7.729 Y15.487
X-8.098 Y16.126
X-8.483 Y16.756
X-8.882 Y17.376
X-9.296 Y17.987
X-9.725 Y18.587
X-10.168 Y19.177
X-10.625 Y19.756
X-11.096 Y20.324
X-11.58 Y20.881
X-12.078 Y21.425
X-12.589 Y21.958
X-13.112 Y22.478
X-13.648 Y22.985
X-14.196 Y23.48
X-14.755 Y23.961
X-15.326 Y24.429
X-15.907 Y24.882
X-16.5 Y25.322
X-17.103 Y25.747
X-17.716 Y26.157
X-18.339 Y26.553
X-18.971 Y26.933
X-19.612 Y27.298
X-20.262 Y27.648
X-20.92 Y27.982
X-21.585 Y28.3
X-22.259 Y28.603
X-22.939 Y28.889
X-23.625 Y29.158
X-24.318 Y29.411
X-25.017 Y29.648
X-25.722 Y29.868
X-26.431 Y30.07
X-27.145 Y30.256
X-27.864 Y30.425
X-28.586 Y30.576
X-29.311 Y30.71
X-30.04 Y30.826
X-30.771 Y30.925
X-31.504 Y31.007
X-31.56 Y31.011
X-31.603 Y31.012
X-36.277
X-37.014 Y30.976
X-37.751 Y30.947
X-38.486 Y30.881
X-39.218 Y30.789
X-39.947 Y30.674
X-40.673 Y30.54
X-41.394 Y30.387
X-42.112 Y30.216
X-42.826 Y30.027
X-43.534 Y29.822
X-44.238 Y29.599
X-44.935 Y29.36
X-45.627 Y29.104
X-46.313 Y28.831
X-46.992 Y28.542
X-47.664 Y28.238
X-48.329 Y27.917
X-48.985 Y27.581
X-49.634 Y27.23
X-50.274 Y26.863
X-50.905 Y26.481
X-51.527 Y26.084
X-52.14 Y25.673
X-52.743 Y25.247
X-53.335 Y24.807
X-53.917 Y24.353
X-54.488 Y23.886
X-55.047 Y23.405
X-55.595 Y22.911
X-56.131 Y22.404
X-56.656 Y21.885
X-57.167 Y21.353
X-57.666 Y20.81
X-58.152 Y20.255
X-58.624 Y19.688
X-59.083 Y19.11
X-59.528 Y18.521
X-59.959 Y17.922
X-60.375 Y17.313
X-60.777 Y16.695
X-61.165 Y16.067
X-61.537 Y15.43
X-61.894 Y14.784
X-62.236 Y14.13
X-62.563 Y13.469
X-62.874 Y12.8
X-63.169 Y12.123
X-63.448 Y11.44
X-63.71 Y10.751
X-63.957 Y10.056
X-64.187 Y9.354
X-64.401 Y8.648
X-64.597 Y7.937
X-64.777 Y7.222
X-64.94 Y6.502
X-65.086 Y5.779
X-65.215 Y5.052
X-65.327 Y4.323
X-65.422 Y3.591
X-65.499 Y2.858
X-65.558 Y2.122
X-65.6 Y1.386
X-65.624 Y0.648
X-65.632 Y-0.09
X-65.621 Y-0.827
X-65.594 Y-1.565
X-65.549 Y-2.301
X-65.487 Y-3.036
X-65.407 Y-3.77
X-65.311 Y-4.501
X-65.197 Y-5.23
X-65.066 Y-5.956
X-64.918 Y-6.679
X-64.754 Y-7.399
X-64.572 Y-8.114
X-64.374 Y-8.824
X-64.159 Y-9.53
X-63.927 Y-10.231
X-63.679 Y-10.926
X-63.415 Y-11.614
X-63.135 Y-12.297
X-62.838 Y-12.973
X-62.526 Y-13.641
X-62.198 Y-14.302
X-61.855 Y-14.955
X-61.496 Y-15.6
X-61.121 Y-16.235
X-60.732 Y-16.862
X-60.329 Y-17.48
X-59.91 Y-18.088
X-59.478 Y-18.686
X-59.032 Y-19.273
X-58.572 Y-19.85
X-58.099 Y-20.416
X-57.612 Y-20.971
X-57.113 Y-21.514
X-56.601 Y-22.046
X-56.077 Y-22.565
X-55.541 Y-23.072
X-54.993 Y-23.566
X-54.433 Y-24.047
X-53.863 Y-24.515
X-53.281 Y-24.969
X-52.69 Y-25.409
X-52.088 Y-25.836
X-51.476 Y-26.248
X-50.854 Y-26.646
X-50.224 Y-27.029
X-49.584 Y-27.397
X-48.936 Y-27.749
X-48.28 Y-28.086
X-47.616 Y-28.408
X-46.944 Y-28.714
X-46.266 Y-29.004
X-45.58 Y-29.277
X-44.889 Y-29.535
X-44.192 Y-29.776
X-43.489 Y-30.001
X-42.781 Y-30.21
X-42.069 Y-30.401
X-41.352 Y-30.577
X-40.632 Y-30.735
X-39.907 Y-30.876
X-39.18 Y-31.
X-39.116 Y-31.009
X-39.08 Y-31.012
X-39.044 Y-31.013
X-30.748
X-30.011 Y-30.976
X-29.275 Y-30.927
X-28.543 Y-30.832
X-27.816 Y-30.705
X-27.094 Y-30.554
X-26.377 Y-30.382
X-25.664 Y-30.191
X-24.956 Y-29.982
X-24.254 Y-29.757
X-23.557 Y-29.514
X-22.866 Y-29.256
X-22.181 Y-28.981
X-21.503 Y-28.69
X-20.832 Y-28.383
X-20.168 Y-28.061
X-19.512 Y-27.723
X-18.864 Y-27.371
X-18.225 Y-27.003
X-17.594 Y-26.62
X-16.972 Y-26.223
X-16.359 Y-25.812
X-15.757 Y-25.386
X-15.164 Y-24.947
X-14.581 Y-24.494
X-14.01 Y-24.028
X-13.449 Y-23.548
X-12.899 Y-23.056
X-12.362 Y-22.551
X-11.836 Y-22.033
X-11.322 Y-21.504
X-10.82 Y-20.963
X-10.331 Y-20.41
X-9.855 Y-19.846
X-9.392 Y-19.272
X-8.943 Y-18.687
X-8.507 Y-18.091
X-8.085 Y-17.486
X-7.677 Y-16.871
X-7.284 Y-16.247
X-6.905 Y-15.614
X-6.541 Y-14.972
X-6.192 Y-14.322
X-5.858 Y-13.664
X-5.539 Y-12.999
X-5.235 Y-12.327
X-4.947 Y-11.647
X-4.675 Y-10.962
X-4.419 Y-10.27
X-4.178 Y-9.572
X-3.954 Y-8.869
X-3.746 Y-8.161
X-3.554 Y-7.449
X-3.379 Y-6.732
X-3.221 Y-6.012
X-3.201 Y-5.913
X-3.194 Y-5.866
X-3.189 Y-5.818
X-3.187 Y-5.77
Y5.443
X-3.224 Y6.18
X-3.291 Y6.915
X-3.41 Y7.643
X-3.565 Y8.364
X-3.745 Y9.08
X-3.947 Y9.789
X-4.168 Y10.493
X-4.406 Y11.192
X-4.661 Y11.884
X-4.932 Y12.57
X-5.22 Y13.249
X-5.524 Y13.922
X-5.843 Y14.587
X-6.177 Y15.245
X-6.526 Y15.895
X-6.891 Y16.536
X-7.27 Y17.169
X-7.663 Y17.793
X-8.071 Y18.408
X-8.493 Y19.014
X-8.929 Y19.609
X-9.378 Y20.194
X-9.841 Y20.769
X-10.317 Y21.333
X-10.805 Y21.885
X-11.307 Y22.427
X-11.82 Y22.956
X-12.346 Y23.474
X-12.884 Y23.979
X-13.433 Y24.472
X-13.993 Y24.952
X-14.564 Y25.419
X-15.146 Y25.873
X-15.738 Y26.313
X-16.34 Y26.739
X-16.953 Y27.151
X-17.574 Y27.549
X-18.205 Y27.932
X-18.844 Y28.3
X-19.492 Y28.654
X-20.147 Y28.993
X-20.81 Y29.316
X-21.481 Y29.624
X-22.158 Y29.917
X-22.842 Y30.194
X-23.532 Y30.455
X-24.227 Y30.701
X-24.929 Y30.93
X-25.097 Y30.981
X-25.167 Y30.998
X-25.239 Y31.009
X-25.311 Y31.012
X-31.603
G3 X-31.78 Y30.439 I0.011 J-0.317
G1 X-31.723 Y30.397 Z-2.992
X-31.669 Y30.358 Z-2.969
X-31.62 Y30.322 Z-2.931
X-31.58 Y30.292 Z-2.88
X-31.549 Y30.27 Z-2.82
X-31.53 Y30.256 Z-2.753
X-31.524 Y30.251 Z-2.682
G0 Z5.
X-3.571 Y4.416
Z-2.365
G1 Z-2.682 F1016.
X-3.567 Y4.423 Z-2.753
X-3.555 Y4.443 Z-2.82
X-3.536 Y4.476 Z-2.88
X-3.51 Y4.519 Z-2.931
X-3.479 Y4.571 Z-2.969
X-3.445 Y4.629 Z-2.992
X-3.409 Y4.689 Z-3.
G3 X-3.187 Y5.443 I-1.36 J0.809
G1 Y10.132
X-3.214 Y10.66
X-3.279 Y11.157
X-3.424 Y11.833
X-3.635 Y12.54
X-3.887 Y13.234
X-4.166 Y13.917
X-4.466 Y14.591
X-4.785 Y15.256
X-5.119 Y15.914
X-5.469 Y16.563
X-5.834 Y17.205
X-6.213 Y17.838
X-6.607 Y18.462
X-7.014 Y19.077
X-7.435 Y19.683
X-7.869 Y20.28
X-8.316 Y20.866
X-8.777 Y21.443
X-9.25 Y22.009
X-9.735 Y22.565
X-10.233 Y23.109
X-10.743 Y23.643
X-11.264 Y24.165
X-11.797 Y24.675
X-12.341 Y25.174
X-12.896 Y25.66
X-13.461 Y26.134
X-14.037 Y26.595
X-14.623 Y27.043
X-15.219 Y27.478
X-15.825 Y27.9
X-16.44 Y28.308
X-17.063 Y28.702
X-17.696 Y29.082
X-18.336 Y29.448
X-18.985 Y29.8
X-19.641 Y30.137
X-20.304 Y30.46
X-20.975 Y30.768
X-21.399 Y30.952
X-21.494 Y30.985
X-21.592 Y31.006
X-21.693 Y31.012
X-25.311
G3 X-25.488 Y30.439 I0.011 J-0.317
G1 X-25.431 Y30.397 Z-2.992
X-25.377 Y30.358 Z-2.969
X-25.328 Y30.322 Z-2.931
X-25.288 Y30.292 Z-2.88
X-25.257 Y30.27 Z-2.82
X-25.238 Y30.256 Z-2.753
X-25.232 Y30.251 Z-2.682
G0 Z5.
X-3.571 Y9.106
Z-2.365
G1 Z-2.682 F1016.
X-3.567 Y9.113 Z-2.753
X-3.555 Y9.133 Z-2.82
X-3.536 Y9.165 Z-2.88
X-3.51 Y9.208 Z-2.931
X-3.479 Y9.26 Z-2.969
X-3.445 Y9.318 Z-2.992
X-3.409 Y9.379 Z-3.
G3 X-3.187 Y10.132 I-1.36 J0.809
G1 Y13.482
X-3.204 Y13.812
X-3.251 Y14.174
X-3.35 Y14.637
X-3.536 Y15.256
X-3.804 Y15.943
X-4.114 Y16.613
X-4.452 Y17.269
X-4.811 Y17.913
X-5.188 Y18.548
X-5.58 Y19.173
X-5.986 Y19.788
X-6.406 Y20.395
X-6.84 Y20.992
X-7.286 Y21.58
X-7.745 Y22.157
X-8.216 Y22.725
X-8.7 Y23.282
X-9.195 Y23.829
X-9.702 Y24.366
X-10.22 Y24.891
X-10.749 Y25.405
X-11.289 Y25.908
X-11.839 Y26.399
X-12.4 Y26.878
X-12.971 Y27.345
X-13.552 Y27.8
X-14.143 Y28.242
X-14.743 Y28.672
X-15.352 Y29.088
X-15.97 Y29.491
X-16.596 Y29.881
X-17.231 Y30.258
X-17.873 Y30.621
X-18.439 Y30.924
X-18.55 Y30.973
X-18.668 Y31.003
X-18.789 Y31.012
X-21.693
G3 X-21.87 Y30.439 I0.011 J-0.317
G1 X-21.813 Y30.397 Z-2.992
X-21.759 Y30.358 Z-2.969
X-21.71 Y30.322 Z-2.931
X-21.67 Y30.292 Z-2.88
X-21.639 Y30.27 Z-2.82
X-21.62 Y30.256 Z-2.753
X-21.614 Y30.251 Z-2.682
G0 Z5.
X-3.571 Y12.455
Z-2.365
G1 Z-2.682 F1016.
X-3.567 Y12.462 Z-2.753
X-3.555 Y12.482 Z-2.82
X-3.536 Y12.515 Z-2.88
X-3.51 Y12.558 Z-2.931
X-3.479 Y12.61 Z-2.969
X-3.445 Y12.667 Z-2.992
X-3.409 Y12.728 Z-3.
G3 X-3.187 Y13.482 I-1.36 J0.809
G1 Y16.161
X-3.205 Y16.506
X-3.243 Y16.8
X-3.324 Y17.175
X-3.462 Y17.639
X-3.703 Y18.258
X-4.025 Y18.921
X-4.387 Y19.565
X-4.774 Y20.193
X-5.181 Y20.808
X-5.604 Y21.413
X-6.041 Y22.007
X-6.492 Y22.591
X-6.955 Y23.165
X-7.43 Y23.73
X-7.917 Y24.284
X-8.416 Y24.828
X-8.925 Y25.362
X-9.446 Y25.885
X-9.977 Y26.397
X-10.518 Y26.898
X-11.07 Y27.388
X-11.631 Y27.867
X-12.203 Y28.333
X-12.784 Y28.788
X-13.374 Y29.231
X-13.973 Y29.661
X-14.581 Y30.079
X-15.198 Y30.484
X-15.823 Y30.876
X-15.875 Y30.907
X-15.995 Y30.965
X-16.124 Y31.001
X-16.256 Y31.012
X-18.789
G3 X-18.966 Y30.439 I0.011 J-0.317
G1 X-18.909 Y30.397 Z-2.992
X-18.855 Y30.358 Z-2.969
X-18.806 Y30.322 Z-2.931
X-18.766 Y30.292 Z-2.88
X-18.735 Y30.27 Z-2.82
X-18.717 Y30.256 Z-2.753
X-18.71 Y30.251 Z-2.682
G0 Z5.
X-3.571 Y15.135
Z-2.365
G1 Z-2.682 F1016.
X-3.567 Y15.142 Z-2.753
X-3.555 Y15.162 Z-2.82
X-3.536 Y15.194 Z-2.88
X-3.51 Y15.238 Z-2.931
X-3.479 Y15.289 Z-2.969
X-3.445 Y15.347 Z-2.992
X-3.409 Y15.408 Z-3.
G3 X-3.187 Y16.161 I-1.36 J0.809
G1 Y18.673
X-3.199 Y18.897
X-3.232 Y19.154
X-3.302 Y19.479
X-3.416 Y19.859
X-3.609 Y20.355
X-3.928 Y21.013
X-4.303 Y21.649
X-4.71 Y22.264
X-5.14 Y22.864
X-5.587 Y23.451
X-6.049 Y24.026
X-6.523 Y24.591
X-7.01 Y25.146
X-7.508 Y25.69
X-8.017 Y26.224
X-8.537 Y26.748
X-9.067 Y27.261
X-9.608 Y27.763
X-10.158 Y28.255
X-10.718 Y28.735
X-11.287 Y29.204
X-11.866 Y29.662
X-12.454 Y30.108
X-13.051 Y30.542
X-13.535 Y30.879
X-13.666 Y30.952
X-13.81 Y30.997
X-13.959 Y31.012
X-16.256
G3 X-16.433 Y30.439 I0.011 J-0.317
G1 X-16.376 Y30.397 Z-2.992
X-16.322 Y30.358 Z-2.969
X-16.273 Y30.322 Z-2.931
X-16.233 Y30.292 Z-2.88
X-16.202 Y30.27 Z-2.82
X-16.183 Y30.256 Z-2.753
X-16.177 Y30.251 Z-2.682
G0 Z5.
X-3.571 Y17.647
Z-2.365
G1 Z-2.682 F1016.
X-3.567 Y17.654 Z-2.753
X-3.555 Y17.674 Z-2.82
X-3.536 Y17.706 Z-2.88
X-3.51 Y17.75 Z-2.931
X-3.479 Y17.801 Z-2.969
X-3.445 Y17.859 Z-2.992
X-3.409 Y17.92 Z-3.
G3 X-3.187 Y18.673 I-1.36 J0.809
G1 Y20.851
X-3.2 Y21.106
X-3.231 Y21.342
X-3.293 Y21.63
X-3.392 Y21.961
X-3.557 Y22.385
X-3.819 Y22.926
X-4.194 Y23.561
X-4.612 Y24.17
X-5.057 Y24.758
X-5.523 Y25.33
X-6.004 Y25.89
X-6.498 Y26.438
X-7.003 Y26.975
X-7.52 Y27.502
X-8.047 Y28.018
X-8.584 Y28.524
X-9.131 Y29.019
X-9.688 Y29.503
X-10.254 Y29.977
X-10.828 Y30.439
X-11.369 Y30.858
X-11.508 Y30.942
X-11.661 Y30.995
X-11.823 Y31.012
X-13.959
G3 X-14.165 Y30.464 I0.011 J-0.317
G1 X-14.137 Y30.437
X-3.765 Y20.67
X-3.722 Y20.63
G3 X-3.187 Y20.851 I0.218 J0.231
G1 Y23.028
X-3.195 Y23.178
X-3.226 Y23.405
X-3.284 Y23.666
X-3.378 Y23.975
X-3.529 Y24.354
X-3.763 Y24.83
X-4.128 Y25.44
X-4.556 Y26.041
X-5.016 Y26.618
X-5.497 Y27.176
X-5.995 Y27.721
X-6.507 Y28.253
X-7.03 Y28.773
X-7.563 Y29.283
X-8.107 Y29.782
X-8.66 Y30.27
X-9.222 Y30.748
X-9.34 Y30.845
X-9.482 Y30.936
X-9.641 Y30.993
X-9.809 Y31.012
X-11.823
G3 X-12.049 Y30.472 I0. J-0.317
G1 X-12.021 Y30.444
X-3.908 Y22.214
G3 X-3.409 Y22.274 I0.226 J0.223
X-3.187 Y23.028 I-1.36 J0.809
G1 Y24.87
X-3.201 Y25.133
X-3.229 Y25.348
X-3.279 Y25.584
X-3.363 Y25.864
X-3.496 Y26.204
X-3.693 Y26.611
X-3.995 Y27.124
X-4.419 Y27.728
X-4.885 Y28.301
X-5.376 Y28.851
X-5.885 Y29.385
X-6.409 Y29.905
X-6.945 Y30.412
X-7.393 Y30.82
X-7.542 Y30.925
X-7.711 Y30.99
X-7.892 Y31.012
G3 X-8.134 Y30.504 I0.011 J-0.317
G1 X-8.078 Y30.43
X-3.761 Y24.693
X-3.758 Y24.69
G3 X-3.187 Y24.87 I0.254 J0.191
G1 Y26.88
X-3.195 Y27.029
X-3.224 Y27.229
X-3.275 Y27.457
X-3.364 Y27.74
X-3.489 Y28.05
X-3.687 Y28.445
X-3.971 Y28.914
X-4.402 Y29.513
X-4.879 Y30.076
X-5.383 Y30.615
X-5.566 Y30.797
X-5.719 Y30.914
X-5.897 Y30.987
X-6.088 Y31.012
G3 X-6.34 Y30.517 I0.011 J-0.317
G1 X-6.279 Y30.427
X-3.768 Y26.713
G3 X-3.187 Y26.88 I0.263 J0.178
G1 Y28.554
X-3.201 Y28.821
X-3.226 Y29.01
X-3.271 Y29.22
X-3.348 Y29.477
X-3.46 Y29.766
X-3.628 Y30.113
X-3.868 Y30.521
X-3.993 Y30.698
X-4.111 Y30.829
X-4.257 Y30.929
X-4.423 Y30.991
X-4.599 Y31.012
G3 X-4.871 Y30.551 I0.011 J-0.317
G1 X-4.804 Y30.419
X-3.788 Y28.422
G3 X-3.187 Y28.554 I0.283 J0.144
G1 Y30.321
X-3.195 Y30.471
X-3.246 Y30.643
X-3.343 Y30.795
X-3.479 Y30.912
X-3.642 Y30.987
X-3.82 Y31.012
G3 X-4.053 Y30.491 I0.011 J-0.317
G1 X-4.004 Y30.433
X-3.761 Y30.144
X-3.748 Y30.128
G3 X-3.187 Y30.321 I0.243 J0.204
G1 X-3.188 Y30.69
X-3.193 Y30.732
X-3.202 Y30.77
X-3.217 Y30.809
X-3.239 Y30.848
X-3.277 Y30.899
X-3.297 Y30.92
X-3.316 Y30.939
X-3.356 Y30.967
X-3.395 Y30.987
X-3.435 Y31.001
X-3.477 Y31.01
X-3.519 Y31.012
X-9.809
G3 X-9.986 Y30.439 I0.011 J-0.317
G1 X-9.929 Y30.397 Z-2.992
X-9.875 Y30.358 Z-2.969
X-9.826 Y30.322 Z-2.931
X-9.786 Y30.292 Z-2.88
X-9.755 Y30.27 Z-2.82
X-9.736 Y30.256 Z-2.753
X-9.73 Y30.251 Z-2.682
G0 Z5.
X-31.774 Y-30.629
Z-2.365
G1 Z-2.682 F1016.
X-31.767 Y-30.633 Z-2.753
X-31.747 Y-30.645 Z-2.82
X-31.715 Y-30.664 Z-2.88
X-31.671 Y-30.69 Z-2.931
X-31.62 Y-30.721 Z-2.969
X-31.562 Y-30.755 Z-2.992
X-31.501 Y-30.791 Z-3.
G3 X-30.748 Y-31.013 I0.809 J1.36
G1 X-25.386
X-24.864 Y-30.986
X-24.317 Y-30.915
X-23.595 Y-30.76
X-22.888 Y-30.551
X-22.191 Y-30.307
X-21.505 Y-30.038
X-20.826 Y-29.748
X-20.155 Y-29.441
X-19.492 Y-29.117
X-18.837 Y-28.778
X-18.189 Y-28.424
X-17.55 Y-28.056
X-16.92 Y-27.673
X-16.298 Y-27.276
X-15.685 Y-26.866
X-15.081 Y-26.441
X-14.487 Y-26.003
X-13.903 Y-25.552
X-13.33 Y-25.088
X-12.767 Y-24.611
X-12.214 Y-24.122
X-11.673 Y-23.621
X-11.143 Y-23.107
X-10.625 Y-22.582
X-10.118 Y-22.046
X-9.624 Y-21.498
X-9.141 Y-20.94
X-8.671 Y-20.371
X-8.214 Y-19.792
X-7.77 Y-19.203
X-7.34 Y-18.604
X-6.922 Y-17.995
X-6.518 Y-17.378
X-6.128 Y-16.752
X-5.753 Y-16.117
X-5.391 Y-15.474
X-5.043 Y-14.823
X-4.71 Y-14.164
X-4.392 Y-13.499
X-4.089 Y-12.826
X-3.8 Y-12.147
X-3.527 Y-11.462
X-3.269 Y-10.77
X-3.229 Y-10.653
X-3.206 Y-10.574
X-3.192 Y-10.493
X-3.187 Y-10.41
Y-5.77
G3 X-3.761 Y-5.594 I-0.317 J-0.011
G1 X-3.803 Y-5.651 Z-2.992
X-3.842 Y-5.705 Z-2.969
X-3.878 Y-5.753 Z-2.931
X-3.908 Y-5.794 Z-2.88
X-3.93 Y-5.824 Z-2.82
X-3.944 Y-5.843 Z-2.753
X-3.949 Y-5.85 Z-2.682
G0 Z5.
X-26.412 Y-30.629
Z-2.365
G1 Z-2.682 F1016.
X-26.405 Y-30.633 Z-2.753
X-26.385 Y-30.645 Z-2.82
X-26.353 Y-30.664 Z-2.88
X-26.309 Y-30.69 Z-2.931
X-26.258 Y-30.721 Z-2.969
X-26.2 Y-30.755 Z-2.992
X-26.139 Y-30.791 Z-3.
G3 X-25.386 Y-31.013 I0.809 J1.36
G1 X-22.034
X-21.55 Y-30.988
X-21.166 Y-30.938
X-20.679 Y-30.834
X-20.016 Y-30.635
X-19.329 Y-30.368
X-18.658 Y-30.061
X-17.999 Y-29.729
X-17.351 Y-29.376
X-16.713 Y-29.006
X-16.083 Y-28.621
X-15.463 Y-28.222
X-14.852 Y-27.809
X-14.25 Y-27.382
X-13.657 Y-26.942
X-13.074 Y-26.49
X-12.501 Y-26.025
X-11.938 Y-25.548
X-11.386 Y-25.06
X-10.844 Y-24.559
X-10.313 Y-24.046
X-9.793 Y-23.522
X-9.285 Y-22.988
X-8.788 Y-22.442
X-8.303 Y-21.886
X-7.831 Y-21.32
X-7.37 Y-20.743
X-6.922 Y-20.157
X-6.486 Y-19.562
X-6.063 Y-18.957
X-5.654 Y-18.343
X-5.257 Y-17.721
X-4.874 Y-17.09
X-4.505 Y-16.452
X-4.149 Y-15.805
X-3.807 Y-15.152
X-3.479 Y-14.491
X-3.258 Y-14.02
X-3.219 Y-13.918
X-3.195 Y-13.813
X-3.187 Y-13.705
Y-10.41
G3 X-3.761 Y-10.233 I-0.317 J-0.011
G1 X-3.803 Y-10.29 Z-2.992
X-3.842 Y-10.344 Z-2.969
X-3.878 Y-10.393 Z-2.931
X-3.908 Y-10.434 Z-2.88
X-3.93 Y-10.464 Z-2.82
X-3.944 Y-10.483 Z-2.753
X-3.949 Y-10.489 Z-2.682
G0 Z5.
X-23.061 Y-30.629
Z-2.365
G1 Z-2.682 F1016.
X-23.054 Y-30.633 Z-2.753
X-23.034 Y-30.645 Z-2.82
X-23.001 Y-30.664 Z-2.88
X-22.958 Y-30.69 Z-2.931
X-22.906 Y-30.721 Z-2.969
X-22.849 Y-30.755 Z-2.992
X-22.788 Y-30.791 Z-3.
G3 X-22.034 Y-31.013 I0.809 J1.36
G1 X-19.186
X-18.791 Y-30.993
X-18.488 Y-30.953
X-18.098 Y-30.87
X-17.612 Y-30.724
X-16.956 Y-30.469
X-16.292 Y-30.147
X-15.647 Y-29.788
X-15.017 Y-29.406
X-14.398 Y-29.004
X-13.79 Y-28.586
X-13.192 Y-28.154
X-12.604 Y-27.709
X-12.025 Y-27.251
X-11.456 Y-26.781
X-10.897 Y-26.299
X-10.348 Y-25.806
X-9.81 Y-25.301
X-9.283 Y-24.785
X-8.766 Y-24.259
X-8.26 Y-23.722
X-7.766 Y-23.174
X-7.283 Y-22.616
X-6.811 Y-22.049
X-6.351 Y-21.472
X-5.904 Y-20.885
X-5.468 Y-20.29
X-5.045 Y-19.685
X-4.634 Y-19.072
X-4.237 Y-18.451
X-3.852 Y-17.821
X-3.481 Y-17.184
X-3.281 Y-16.824
X-3.229 Y-16.71
X-3.198 Y-16.588
X-3.187 Y-16.464
Y-13.705
G3 X-3.761 Y-13.528 I-0.317 J-0.011
G1 X-3.803 Y-13.585 Z-2.992
X-3.842 Y-13.639 Z-2.969
X-3.878 Y-13.687 Z-2.931
X-3.908 Y-13.728 Z-2.88
X-3.93 Y-13.758 Z-2.82
X-3.944 Y-13.777 Z-2.753
X-3.949 Y-13.784 Z-2.682
G0 Z5.
X-20.212 Y-30.629
Z-2.365
G1 Z-2.682 F1016.
X-20.206 Y-30.633 Z-2.753
X-20.185 Y-30.645 Z-2.82
X-20.153 Y-30.664 Z-2.88
X-20.11 Y-30.69 Z-2.931
X-20.058 Y-30.721 Z-2.969
X-20. Y-30.755 Z-2.992
X-19.939 Y-30.791 Z-3.
G3 X-19.186 Y-31.013 I0.809 J1.36
G1 X-16.672
X-16.347 Y-30.996
X-16.084 Y-30.962
X-15.751 Y-30.891
X-15.359 Y-30.773
X-14.843 Y-30.572
X-14.18 Y-30.25
X-13.543 Y-29.878
X-12.925 Y-29.475
X-12.322 Y-29.049
X-11.732 Y-28.606
X-11.153 Y-28.149
X-10.584 Y-27.68
X-10.025 Y-27.198
X-9.477 Y-26.704
X-8.938 Y-26.2
X-8.41 Y-25.684
X-7.893 Y-25.158
X-7.386 Y-24.622
X-6.891 Y-24.075
X-6.406 Y-23.519
X-5.933 Y-22.953
X-5.47 Y-22.378
X-5.02 Y-21.794
X-4.581 Y-21.2
X-4.154 Y-20.599
X-3.74 Y-19.988
X-3.337 Y-19.37
X-3.299 Y-19.309
X-3.238 Y-19.186
X-3.2 Y-19.054
X-3.187 Y-18.918
Y-16.464
G3 X-3.761 Y-16.287 I-0.317 J-0.011
G1 X-3.803 Y-16.344 Z-2.992
X-3.842 Y-16.398 Z-2.969
X-3.878 Y-16.447 Z-2.931
X-3.908 Y-16.487 Z-2.88
X-3.93 Y-16.518 Z-2.82
X-3.944 Y-16.537 Z-2.753
X-3.949 Y-16.543 Z-2.682
G0 Z5.
X-17.699 Y-30.629
Z-2.365
G1 Z-2.682 F1016.
X-17.692 Y-30.633 Z-2.753
X-17.672 Y-30.645 Z-2.82
X-17.639 Y-30.664 Z-2.88
X-17.596 Y-30.69 Z-2.931
X-17.544 Y-30.721 Z-2.969
X-17.487 Y-30.755 Z-2.992
X-17.426 Y-30.791 Z-3.
G3 X-16.672 Y-31.013 I0.809 J1.36
G1 X-14.327
X-14.116 Y-31.002
X-13.877 Y-30.971
X-13.582 Y-30.907
X-13.242 Y-30.806
X-12.805 Y-30.636
X-12.243 Y-30.363
X-11.607 Y-29.989
X-10.998 Y-29.573
X-10.407 Y-29.131
X-9.831 Y-28.669
X-9.268 Y-28.192
X-8.717 Y-27.702
X-8.176 Y-27.201
X-7.645 Y-26.688
X-7.125 Y-26.165
X-6.615 Y-25.631
X-6.116 Y-25.088
X-5.628 Y-24.535
X-5.151 Y-23.972
X-4.684 Y-23.401
X-4.228 Y-22.82
X-3.784 Y-22.231
X-3.351 Y-21.633
X-3.32 Y-21.588
X-3.247 Y-21.457
X-3.203 Y-21.314
X-3.187 Y-21.165
Y-18.918
G3 X-3.761 Y-18.741 I-0.317 J-0.011
G1 X-3.803 Y-18.798 Z-2.992
X-3.842 Y-18.852 Z-2.969
X-3.878 Y-18.9 Z-2.931
X-3.908 Y-18.941 Z-2.88
X-3.93 Y-18.972 Z-2.82
X-3.944 Y-18.99 Z-2.753
X-3.949 Y-18.997 Z-2.682
G0 Z5.
X-15.353 Y-30.629
Z-2.365
G1 Z-2.682 F1016.
X-15.346 Y-30.633 Z-2.753
X-15.326 Y-30.645 Z-2.82
X-15.294 Y-30.664 Z-2.88
X-15.25 Y-30.69 Z-2.931
X-15.199 Y-30.721 Z-2.969
X-15.141 Y-30.755 Z-2.992
X-15.08 Y-30.791 Z-3.
G3 X-14.327 Y-31.013 I0.809 J1.36
G1 X-12.148
X-11.998 Y-31.005
X-11.764 Y-30.971
X-11.495 Y-30.91
X-11.173 Y-30.808
X-10.778 Y-30.649
X-10.276 Y-30.396
X-9.645 Y-30.013
X-9.046 Y-29.583
X-8.469 Y-29.123
X-7.909 Y-28.643
X-7.363 Y-28.147
X-6.829 Y-27.637
X-6.306 Y-27.117
X-5.794 Y-26.586
X-5.293 Y-26.044
X-4.802 Y-25.494
X-4.322 Y-24.934
X-3.852 Y-24.365
X-3.393 Y-23.787
X-3.34 Y-23.718
X-3.257 Y-23.58
X-3.205 Y-23.428
X-3.187 Y-23.268
Y-21.165
G3 X-3.731 Y-20.942 I-0.318 J0.
G1 X-3.756 Y-20.967
X-12.966 Y-30.295
G3 X-12.902 Y-30.791 I0.226 J-0.223
X-12.148 Y-31.013 I0.809 J1.36
G1 X-10.305
X-10.037 Y-30.999
X-9.824 Y-30.971
X-9.577 Y-30.918
X-9.297 Y-30.834
X-8.946 Y-30.698
X-8.534 Y-30.498
X-8.004 Y-30.186
X-7.4 Y-29.761
X-6.826 Y-29.298
X-6.273 Y-28.809
X-5.737 Y-28.302
X-5.215 Y-27.781
X-4.704 Y-27.249
X-4.205 Y-26.705
X-3.716 Y-26.152
X-3.364 Y-25.738
X-3.268 Y-25.594
X-3.208 Y-25.431
X-3.187 Y-25.258
Y-23.268
G3 X-3.727 Y-23.041 I-0.318 J0.
G1 X-3.756 Y-23.069
X-11.119 Y-30.292
G3 X-11.059 Y-30.791 I0.222 J-0.227
X-10.305 Y-31.013 I0.809 J1.36
G1 X-8.294
X-8.145 Y-31.005
X-7.941 Y-30.978
X-7.716 Y-30.929
X-7.438 Y-30.844
X-7.124 Y-30.721
X-6.732 Y-30.529
X-6.264 Y-30.251
X-5.662 Y-29.825
X-5.095 Y-29.353
X-4.552 Y-28.853
X-4.028 Y-28.334
X-3.519 Y-27.8
X-3.38 Y-27.648
X-3.275 Y-27.499
X-3.21 Y-27.33
X-3.187 Y-27.149
G3 X-3.694 Y-26.905 I-0.317 J-0.011
G1 X-3.77 Y-26.962
X-8.471 Y-30.439
X-8.472 Y-30.44
G3 X-8.294 Y-31.013 I0.189 J-0.255
G1 X-6.451
X-6.301 Y-31.005
X-6.115 Y-30.978
X-5.894 Y-30.929
X-5.623 Y-30.844
X-5.331 Y-30.727
X-4.961 Y-30.542
X-4.531 Y-30.282
X-3.97 Y-29.879
X-3.449 Y-29.437
X-3.308 Y-29.276
X-3.218 Y-29.083
X-3.187 Y-28.872
G3 X-3.672 Y-28.613 I-0.317 J-0.011
G1 X-3.776 Y-28.677
X-6.607 Y-30.425
G3 X-6.451 Y-31.013 I0.167 J-0.27
G1 X-4.776
X-4.556 Y-31.002
X-4.383 Y-30.979
X-4.174 Y-30.934
X-3.923 Y-30.859
X-3.702 Y-30.773
X-3.605 Y-30.726
X-3.433 Y-30.611
X-3.3 Y-30.453
X-3.216 Y-30.264
X-3.187 Y-30.059
G3 X-3.646 Y-29.786 I-0.317 J-0.011
G1 X-3.782 Y-29.853
X-4.906 Y-30.411
G3 X-4.776 Y-31.013 I0.141 J-0.284
G1 X-3.519 Y-31.012
X-3.477 Y-31.01
X-3.435 Y-31.001
X-3.395 Y-30.987
X-3.356 Y-30.967
X-3.316 Y-30.939
X-3.297 Y-30.92
X-3.277 Y-30.899
X-3.239 Y-30.848
X-3.217 Y-30.809
X-3.202 Y-30.77
X-3.193 Y-30.732
X-3.188 Y-30.69
X-3.187 Y-25.258
G3 X-3.761 Y-25.082 I-0.317 J-0.011
G1 X-3.803 Y-25.138 Z-2.992
X-3.842 Y-25.193 Z-2.969
X-3.878 Y-25.241 Z-2.931
X-3.908 Y-25.282 Z-2.88
X-3.93 Y-25.312 Z-2.82
X-3.944 Y-25.331 Z-2.753
X-3.949 Y-25.338 Z-2.682
G0 Z5.
X-35.251 Y30.629
Z-2.365
G1 Z-2.682 F1016.
X-35.258 Y30.633 Z-2.753
X-35.278 Y30.645 Z-2.82
X-35.31 Y30.664 Z-2.88
X-35.354 Y30.69 Z-2.931
X-35.405 Y30.721 Z-2.969
X-35.463 Y30.755 Z-2.992
X-35.524 Y30.791 Z-3.
G3 X-36.277 Y31.012 I-0.809 J-1.36
G1 X-42.477
X-43.204 Y30.976
X-43.799 Y30.898
X-44.52 Y30.744
X-45.23 Y30.54
X-45.929 Y30.305
X-46.619 Y30.044
X-47.302 Y29.764
X-47.977 Y29.466
X-48.644 Y29.152
X-49.304 Y28.822
X-49.956 Y28.477
X-50.6 Y28.117
X-51.236 Y27.742
X-51.863 Y27.353
X-52.481 Y26.95
X-53.089 Y26.533
X-53.688 Y26.102
X-54.277 Y25.658
X-54.856 Y25.2
X-55.424 Y24.729
X-55.981 Y24.246
X-56.528 Y23.75
X-57.062 Y23.242
X-57.586 Y22.721
X-58.097 Y22.189
X-58.596 Y21.646
X-59.082 Y21.091
X-59.555 Y20.525
X-60.015 Y19.948
X-60.462 Y19.361
X-60.895 Y18.763
X-61.314 Y18.156
X-61.72 Y17.54
X-62.111 Y16.915
X-62.489 Y16.28
X-62.851 Y15.638
X-63.2 Y14.987
X-63.533 Y14.329
X-63.851 Y13.664
X-64.155 Y12.991
X-64.443 Y12.312
X-64.715 Y11.626
X-64.972 Y10.935
X-65.213 Y10.237
X-65.439 Y9.535
X-65.648 Y8.827
X-65.842 Y8.115
X-66.019 Y7.399
X-66.18 Y6.679
X-66.325 Y5.956
X-66.453 Y5.229
X-66.565 Y4.5
X-66.66 Y3.768
X-66.738 Y3.034
X-66.799 Y2.299
X-66.843 Y1.563
X-66.87 Y0.825
X-66.881 Y0.088
X-66.875 Y-0.65
X-66.852 Y-1.388
X-66.813 Y-2.124
X-66.757 Y-2.86
X-66.685 Y-3.594
X-66.596 Y-4.327
X-66.49 Y-5.057
X-66.368 Y-5.785
X-66.23 Y-6.509
X-66.075 Y-7.231
X-65.904 Y-7.949
X-65.717 Y-8.662
X-65.514 Y-9.372
X-65.295 Y-10.076
X-65.06 Y-10.776
X-64.81 Y-11.47
X-64.543 Y-12.158
X-64.262 Y-12.84
X-63.965 Y-13.515
X-63.652 Y-14.183
X-63.325 Y-14.845
X-62.982 Y-15.498
X-62.625 Y-16.143
X-62.252 Y-16.78
X-61.866 Y-17.409
X-61.465 Y-18.028
X-61.05 Y-18.639
X-60.622 Y-19.239
X-60.18 Y-19.83
X-59.725 Y-20.411
X-59.257 Y-20.981
X-58.776 Y-21.541
X-58.283 Y-22.09
X-57.778 Y-22.627
X-57.26 Y-23.153
X-56.731 Y-23.667
X-56.191 Y-24.17
X-55.639 Y-24.66
X-55.076 Y-25.137
X-54.503 Y-25.601
X-53.919 Y-26.053
X-53.326 Y-26.491
X-52.722 Y-26.916
X-52.11 Y-27.327
X-51.488 Y-27.724
X-50.857 Y-28.106
X-50.218 Y-28.475
X-49.57 Y-28.828
X-48.915 Y-29.167
X-48.251 Y-29.49
X-47.581 Y-29.798
X-46.904 Y-30.091
X-46.22 Y-30.369
X-45.531 Y-30.631
X-44.835 Y-30.878
X-44.538 Y-30.975
X-44.463 Y-30.996
X-44.385 Y-31.008
X-44.307 Y-31.013
X-39.044
G3 X-38.867 Y-30.439 I-0.011 J0.317
G1 X-38.924 Y-30.397 Z-2.992
X-38.978 Y-30.358 Z-2.969
X-39.027 Y-30.322 Z-2.931
X-39.067 Y-30.292 Z-2.88
X-39.098 Y-30.27 Z-2.82
X-39.117 Y-30.256 Z-2.753
X-39.123 Y-30.251 Z-2.682
G0 Z5.
X-41.451 Y30.629
Z-2.365
G1 Z-2.682 F1016.
X-41.457 Y30.633 Z-2.753
X-41.478 Y30.645 Z-2.82
X-41.51 Y30.664 Z-2.88
X-41.553 Y30.69 Z-2.931
X-41.605 Y30.721 Z-2.969
X-41.663 Y30.755 Z-2.992
X-41.723 Y30.791 Z-3.
G3 X-42.477 Y31.012 I-0.809 J-1.36
G1 X-46.163
X-46.618 Y30.99
X-47.023 Y30.937
X-47.534 Y30.827
X-48.238 Y30.616
X-48.926 Y30.349
X-49.598 Y30.046
X-50.259 Y29.717
X-50.91 Y29.37
X-51.551 Y29.005
X-52.184 Y28.625
X-52.807 Y28.23
X-53.422 Y27.822
X-54.027 Y27.4
X-54.623 Y26.964
X-55.209 Y26.516
X-55.785 Y26.055
X-56.351 Y25.582
X-56.906 Y25.096
X-57.451 Y24.598
X-57.984 Y24.089
X-58.507 Y23.568
X-59.018 Y23.036
X-59.517 Y22.492
X-60.003 Y21.938
X-60.478 Y21.372
X-60.939 Y20.797
X-61.388 Y20.211
X-61.823 Y19.615
X-62.246 Y19.011
X-62.655 Y18.397
X-63.05 Y17.774
X-63.432 Y17.142
X-63.8 Y16.503
X-64.155 Y15.856
X-64.494 Y15.201
X-64.82 Y14.539
X-65.131 Y13.87
X-65.428 Y13.194
X-65.71 Y12.512
X-65.976 Y11.824
X-66.228 Y11.131
X-66.465 Y10.432
X-66.686 Y9.728
X-66.892 Y9.02
X-67.083 Y8.307
X-67.258 Y7.59
X-67.418 Y6.87
X-67.561 Y6.146
X-67.689 Y5.42
X-67.801 Y4.69
X-67.897 Y3.959
X-67.976 Y3.225
X-68.039 Y2.49
X-68.086 Y1.754
X-68.116 Y1.017
X-68.13 Y0.279
X-68.129 Y-0.459
X-68.111 Y-1.197
X-68.077 Y-1.934
X-68.027 Y-2.67
X-67.961 Y-3.405
X-67.879 Y-4.138
X-67.782 Y-4.869
X-67.668 Y-5.598
X-67.539 Y-6.325
X-67.394 Y-7.048
X-67.234 Y-7.768
X-67.057 Y-8.485
X-66.866 Y-9.197
X-66.659 Y-9.905
X-66.436 Y-10.609
X-66.198 Y-11.307
X-65.946 Y-12.
X-65.678 Y-12.688
X-65.395 Y-13.369
X-65.098 Y-14.045
X-64.786 Y-14.713
X-64.459 Y-15.375
X-64.117 Y-16.029
X-63.761 Y-16.675
X-63.391 Y-17.313
X-63.007 Y-17.943
X-62.609 Y-18.564
X-62.198 Y-19.177
X-61.773 Y-19.781
X-61.336 Y-20.375
X-60.886 Y-20.959
X-60.423 Y-21.534
X-59.948 Y-22.098
X-59.46 Y-22.652
X-58.961 Y-23.196
X-58.45 Y-23.728
X-57.928 Y-24.249
X-57.395 Y-24.759
X-56.851 Y-25.257
X-56.296 Y-25.743
X-55.73 Y-26.217
X-55.155 Y-26.679
X-54.569 Y-27.128
X-53.974 Y-27.564
X-53.37 Y-27.988
X-52.757 Y-28.398
X-52.134 Y-28.794
X-51.504 Y-29.177
X-50.865 Y-29.546
X-50.218 Y-29.901
X-49.563 Y-30.241
X-48.901 Y-30.566
X-48.232 Y-30.877
X-48.065 Y-30.95
X-47.969 Y-30.985
X-47.869 Y-31.005
X-47.768 Y-31.013
X-44.307
G3 X-44.13 Y-30.439 I-0.011 J0.317
G1 X-44.187 Y-30.397 Z-2.992
X-44.241 Y-30.358 Z-2.969
X-44.29 Y-30.322 Z-2.931
X-44.33 Y-30.292 Z-2.88
X-44.361 Y-30.27 Z-2.82
X-44.379 Y-30.256 Z-2.753
X-44.386 Y-30.251 Z-2.682
G0 Z5.
X-45.137 Y30.629
Z-2.365
G1 Z-2.682 F1016.
X-45.144 Y30.633 Z-2.753
X-45.164 Y30.645 Z-2.82
X-45.197 Y30.664 Z-2.88
X-45.24 Y30.69 Z-2.931
X-45.291 Y30.721 Z-2.969
X-45.349 Y30.755 Z-2.992
X-45.41 Y30.791 Z-3.
G3 X-46.163 Y31.012 I-0.809 J-1.36
G1 X-49.18
X-49.434 Y31.
X-49.744 Y30.959
X-50.146 Y30.873
X-50.651 Y30.722
X-51.337 Y30.455
X-52.001 Y30.133
X-52.647 Y29.777
X-53.279 Y29.397
X-53.9 Y28.998
X-54.511 Y28.584
X-55.111 Y28.155
X-55.702 Y27.714
X-56.283 Y27.259
X-56.855 Y26.792
X-57.416 Y26.313
X-57.967 Y25.822
X-58.507 Y25.32
X-59.037 Y24.807
X-59.556 Y24.282
X-60.064 Y23.747
X-60.56 Y23.201
X-61.044 Y22.644
X-61.516 Y22.077
X-61.976 Y21.5
X-62.424 Y20.914
X-62.859 Y20.318
X-63.281 Y19.713
X-63.691 Y19.099
X-64.087 Y18.477
X-64.47 Y17.846
X-64.84 Y17.208
X-65.196 Y16.562
X-65.539 Y15.908
X-65.867 Y15.247
X-66.182 Y14.58
X-66.483 Y13.906
X-66.77 Y13.227
X-67.042 Y12.541
X-67.3 Y11.85
X-67.543 Y11.153
X-67.772 Y10.451
X-67.985 Y9.745
X-68.185 Y9.035
X-68.369 Y8.32
X-68.538 Y7.602
X-68.692 Y6.881
X-68.831 Y6.156
X-68.954 Y5.429
X-69.062 Y4.699
X-69.154 Y3.967
X-69.231 Y3.233
X-69.292 Y2.498
X-69.338 Y1.761
X-69.367 Y1.024
X-69.382 Y0.286
X-69.38 Y-0.451
X-69.364 Y-1.189
X-69.331 Y-1.926
X-69.283 Y-2.662
X-69.22 Y-3.398
X-69.141 Y-4.131
X-69.046 Y-4.863
X-68.937 Y-5.593
X-68.812 Y-6.32
X-68.672 Y-7.044
X-68.517 Y-7.765
X-68.347 Y-8.483
X-68.162 Y-9.198
X-67.962 Y-9.908
X-67.748 Y-10.614
X-67.518 Y-11.315
X-67.274 Y-12.011
X-67.016 Y-12.702
X-66.743 Y-13.388
X-66.456 Y-14.067
X-66.154 Y-14.741
X-65.838 Y-15.408
X-65.509 Y-16.068
X-65.165 Y-16.721
X-64.807 Y-17.366
X-64.436 Y-18.003
X-64.051 Y-18.633
X-63.653 Y-19.254
X-63.242 Y-19.867
X-62.819 Y-20.471
X-62.382 Y-21.066
X-61.933 Y-21.652
X-61.472 Y-22.228
X-60.999 Y-22.794
X-60.515 Y-23.35
X-60.018 Y-23.896
X-59.511 Y-24.432
X-58.992 Y-24.957
X-58.463 Y-25.471
X-57.923 Y-25.973
X-57.373 Y-26.465
X-56.812 Y-26.944
X-56.242 Y-27.412
X-55.661 Y-27.868
X-55.072 Y-28.312
X-54.473 Y-28.743
X-53.866 Y-29.162
X-53.25 Y-29.568
X-52.625 Y-29.961
X-51.992 Y-30.34
X-51.352 Y-30.706
X-50.953 Y-30.923
X-50.841 Y-30.972
X-50.722 Y-31.002
X-50.6 Y-31.013
X-47.768
G3 X-47.591 Y-30.439 I-0.011 J0.317
G1 X-47.648 Y-30.397 Z-2.992
X-47.702 Y-30.358 Z-2.969
X-47.75 Y-30.322 Z-2.931
X-47.791 Y-30.292 Z-2.88
X-47.822 Y-30.27 Z-2.82
X-47.84 Y-30.256 Z-2.753
X-47.847 Y-30.251 Z-2.682
G0 Z5.
X-48.153 Y30.629
Z-2.365
G1 Z-2.682 F1016.
X-48.16 Y30.633 Z-2.753
X-48.18 Y30.645 Z-2.82
X-48.213 Y30.664 Z-2.88
X-48.256 Y30.69 Z-2.931
X-48.308 Y30.721 Z-2.969
X-48.365 Y30.755 Z-2.992
X-48.426 Y30.791 Z-3.
G3 X-49.18 Y31.012 I-0.809 J-1.36
G1 X-51.693
X-51.92 Y31.001
X-52.187 Y30.966
X-52.526 Y30.894
X-52.927 Y30.773
X-53.457 Y30.567
X-54.121 Y30.245
X-54.759 Y29.875
X-55.378 Y29.474
X-55.983 Y29.051
X-56.576 Y28.611
X-57.157 Y28.157
X-57.728 Y27.69
X-58.289 Y27.211
X-58.84 Y26.72
X-59.38 Y26.217
X-59.91 Y25.704
X-60.43 Y25.18
X-60.938 Y24.645
X-61.435 Y24.1
X-61.921 Y23.545
X-62.395 Y22.98
X-62.858 Y22.405
X-63.308 Y21.82
X-63.747 Y21.227
X-64.173 Y20.625
X-64.587 Y20.014
X-64.988 Y19.395
X-65.377 Y18.768
X-65.752 Y18.133
X-66.115 Y17.49
X-66.464 Y16.84
X-66.801 Y16.184
X-67.124 Y15.52
X-67.433 Y14.85
X-67.729 Y14.175
X-68.011 Y13.493
X-68.28 Y12.806
X-68.534 Y12.113
X-68.775 Y11.415
X-69.001 Y10.713
X-69.213 Y10.006
X-69.41 Y9.296
X-69.594 Y8.581
X-69.762 Y7.863
X-69.917 Y7.141
X-70.056 Y6.417
X-70.181 Y5.689
X-70.29 Y4.96
X-70.384 Y4.228
X-70.464 Y3.494
X-70.528 Y2.759
X-70.577 Y2.023
X-70.611 Y1.286
X-70.63 Y0.549
X-70.634 Y-0.189
X-70.623 Y-0.927
X-70.597 Y-1.664
X-70.556 Y-2.401
X-70.499 Y-3.137
X-70.429 Y-3.871
X-70.343 Y-4.604
X-70.242 Y-5.335
X-70.127 Y-6.064
X-69.997 Y-6.79
X-69.853 Y-7.513
X-69.694 Y-8.234
X-69.52 Y-8.951
X-69.332 Y-9.664
X-69.13 Y-10.374
X-68.913 Y-11.079
X-68.682 Y-11.78
X-68.437 Y-12.476
X-68.179 Y-13.167
X-67.906 Y-13.852
X-67.619 Y-14.532
X-67.319 Y-15.206
X-67.004 Y-15.874
X-66.676 Y-16.534
X-66.334 Y-17.188
X-65.979 Y-17.835
X-65.611 Y-18.475
X-65.23 Y-19.106
X-64.836 Y-19.73
X-64.43 Y-20.346
X-64.011 Y-20.953
X-63.58 Y-21.552
X-63.136 Y-22.142
X-62.681 Y-22.722
X-62.214 Y-23.294
X-61.736 Y-23.856
X-61.246 Y-24.408
X-60.746 Y-24.95
X-60.235 Y-25.482
X-59.713 Y-26.003
X-59.18 Y-26.514
X-58.638 Y-27.014
X-58.085 Y-27.503
X-57.523 Y-27.981
X-56.951 Y-28.447
X-56.37 Y-28.902
X-55.78 Y-29.345
X-55.182 Y-29.776
X-54.574 Y-30.195
X-53.958 Y-30.601
X-53.487 Y-30.898
X-53.364 Y-30.961
X-53.23 Y-31.
X-53.092 Y-31.013
X-50.6
G3 X-50.423 Y-30.439 I-0.011 J0.317
G1 X-50.48 Y-30.397 Z-2.992
X-50.534 Y-30.358 Z-2.969
X-50.583 Y-30.322 Z-2.931
X-50.623 Y-30.292 Z-2.88
X-50.654 Y-30.27 Z-2.82
X-50.673 Y-30.256 Z-2.753
X-50.679 Y-30.251 Z-2.682
G0 Z5.
X-50.667 Y30.629
Z-2.365
G1 Z-2.682 F1016.
X-50.673 Y30.633 Z-2.753
X-50.694 Y30.645 Z-2.82
X-50.726 Y30.664 Z-2.88
X-50.769 Y30.69 Z-2.931
X-50.821 Y30.721 Z-2.969
X-50.879 Y30.755 Z-2.992
X-50.939 Y30.791 Z-3.
G3 X-51.693 Y31.012 I-0.809 J-1.36
G1 X-53.871
X-54.19 Y30.997
X-54.432 Y30.965
X-54.729 Y30.901
X-55.075 Y30.798
X-55.518 Y30.625
X-56.091 Y30.347
X-56.727 Y29.973
X-57.337 Y29.558
X-57.929 Y29.118
X-58.506 Y28.658
X-59.071 Y28.183
X-59.624 Y27.695
X-60.167 Y27.195
X-60.699 Y26.684
X-61.22 Y26.162
X-61.731 Y25.63
X-62.231 Y25.087
X-62.72 Y24.535
X-63.198 Y23.973
X-63.665 Y23.401
X-64.12 Y22.82
X-64.563 Y22.231
X-64.995 Y21.632
X-65.415 Y21.026
X-65.823 Y20.411
X-66.218 Y19.788
X-66.602 Y19.158
X-66.972 Y18.52
X-67.331 Y17.875
X-67.676 Y17.223
X-68.009 Y16.564
X-68.329 Y15.9
X-68.636 Y15.229
X-68.929 Y14.552
X-69.209 Y13.869
X-69.476 Y13.181
X-69.73 Y12.488
X-69.97 Y11.791
X-70.196 Y11.088
X-70.409 Y10.382
X-70.607 Y9.671
X-70.792 Y8.957
X-70.962 Y8.239
X-71.118 Y7.518
X-71.26 Y6.794
X-71.388 Y6.067
X-71.501 Y5.338
X-71.599 Y4.607
X-71.683 Y3.874
X-71.753 Y3.139
X-71.808 Y2.404
X-71.848 Y1.667
X-71.874 Y0.929
X-71.885 Y0.192
X-71.882 Y-0.546
X-71.864 Y-1.284
X-71.832 Y-2.021
X-71.785 Y-2.757
X-71.724 Y-3.492
X-71.649 Y-4.226
X-71.559 Y-4.959
X-71.455 Y-5.689
X-71.337 Y-6.417
X-71.204 Y-7.143
X-71.058 Y-7.866
X-70.897 Y-8.587
X-70.723 Y-9.303
X-70.534 Y-10.017
X-70.332 Y-10.726
X-70.116 Y-11.432
X-69.886 Y-12.133
X-69.642 Y-12.829
X-69.385 Y-13.521
X-69.114 Y-14.207
X-68.83 Y-14.888
X-68.532 Y-15.563
X-68.221 Y-16.232
X-67.897 Y-16.895
X-67.559 Y-17.551
X-67.209 Y-18.2
X-66.846 Y-18.842
X-66.47 Y-19.477
X-66.082 Y-20.105
X-65.682 Y-20.725
X-65.269 Y-21.336
X-64.845 Y-21.94
X-64.408 Y-22.535
X-63.961 Y-23.121
X-63.501 Y-23.699
X-63.031 Y-24.267
X-62.55 Y-24.826
X-62.058 Y-25.376
X-61.555 Y-25.916
X-61.042 Y-26.446
X-60.518 Y-26.966
X-59.985 Y-27.476
X-59.442 Y-27.975
X-58.889 Y-28.464
X-58.327 Y-28.942
X-57.755 Y-29.409
X-57.175 Y-29.864
X-56.586 Y-30.308
X-55.988 Y-30.74
X-55.786 Y-30.88
X-55.655 Y-30.953
X-55.513 Y-30.997
X-55.364 Y-31.013
X-53.092
G3 X-52.915 Y-30.439 I-0.011 J0.317
G1 X-52.972 Y-30.397 Z-2.992
X-53.027 Y-30.358 Z-2.969
X-53.075 Y-30.322 Z-2.931
X-53.116 Y-30.292 Z-2.88
X-53.146 Y-30.27 Z-2.82
X-53.165 Y-30.256 Z-2.753
X-53.171 Y-30.251 Z-2.682
G0 Z5.
X-52.845 Y30.629
Z-2.365
G1 Z-2.682 F1016.
X-52.852 Y30.633 Z-2.753
X-52.872 Y30.645 Z-2.82
X-52.904 Y30.664 Z-2.88
X-52.948 Y30.69 Z-2.931
X-52.999 Y30.721 Z-2.969
X-53.057 Y30.755 Z-2.992
X-53.118 Y30.791 Z-3.
G3 X-53.871 Y31.012 I-0.809 J-1.36
G1 X-56.05
X-56.29 Y31.
X-56.518 Y30.971
X-56.785 Y30.913
X-57.097 Y30.82
X-57.486 Y30.669
X-57.972 Y30.432
X-58.605 Y30.06
X-59.209 Y29.636
X-59.789 Y29.181
X-60.353 Y28.704
X-60.902 Y28.212
X-61.439 Y27.706
X-61.965 Y27.188
X-62.479 Y26.659
X-62.983 Y26.12
X-63.476 Y25.572
X-63.959 Y25.013
X-64.43 Y24.446
X-64.89 Y23.869
X-65.34 Y23.284
X-65.778 Y22.69
X-66.204 Y22.088
X-66.619 Y21.478
X-67.022 Y20.86
X-67.414 Y20.235
X-67.793 Y19.602
X-68.161 Y18.962
X-68.516 Y18.316
X-68.859 Y17.662
X-69.189 Y17.003
X-69.507 Y16.337
X-69.812 Y15.665
X-70.105 Y14.988
X-70.385 Y14.305
X-70.651 Y13.617
X-70.905 Y12.924
X-71.146 Y12.227
X-71.373 Y11.525
X-71.587 Y10.819
X-71.787 Y10.109
X-71.974 Y9.395
X-72.147 Y8.678
X-72.306 Y7.957
X-72.452 Y7.234
X-72.584 Y6.508
X-72.701 Y5.78
X-72.805 Y5.049
X-72.895 Y4.317
X-72.97 Y3.583
X-73.032 Y2.848
X-73.079 Y2.111
X-73.113 Y1.374
X-73.132 Y0.637
X-73.137 Y-0.101
X-73.129 Y-0.839
X-73.106 Y-1.576
X-73.069 Y-2.313
X-73.019 Y-3.049
X-72.954 Y-3.784
X-72.876 Y-4.518
X-72.784 Y-5.25
X-72.677 Y-5.98
X-72.558 Y-6.708
X-72.424 Y-7.434
X-72.277 Y-8.157
X-72.116 Y-8.877
X-71.942 Y-9.594
X-71.755 Y-10.307
X-71.553 Y-11.017
X-71.338 Y-11.723
X-71.11 Y-12.425
X-70.869 Y-13.122
X-70.614 Y-13.814
X-70.346 Y-14.502
X-70.065 Y-15.184
X-69.771 Y-15.861
X-69.464 Y-16.532
X-69.145 Y-17.197
X-68.812 Y-17.856
X-68.468 Y-18.508
X-68.11 Y-19.153
X-67.741 Y-19.792
X-67.359 Y-20.423
X-66.966 Y-21.047
X-66.56 Y-21.664
X-66.143 Y-22.273
X-65.715 Y-22.873
X-65.275 Y-23.466
X-64.824 Y-24.05
X-64.362 Y-24.625
X-63.889 Y-25.192
X-63.406 Y-25.749
X-62.913 Y-26.297
X-62.409 Y-26.836
X-61.895 Y-27.366
X-61.371 Y-27.885
X-60.837 Y-28.395
X-60.294 Y-28.895
X-59.742 Y-29.384
X-59.181 Y-29.862
X-58.61 Y-30.33
X-58.031 Y-30.787
X-57.932 Y-30.862
X-57.795 Y-30.944
X-57.643 Y-30.995
X-57.484 Y-31.013
X-55.364
G3 X-55.187 Y-30.439 I-0.011 J0.317
G1 X-55.244 Y-30.397 Z-2.992
X-55.298 Y-30.358 Z-2.969
X-55.347 Y-30.322 Z-2.931
X-55.387 Y-30.292 Z-2.88
X-55.418 Y-30.27 Z-2.82
X-55.437 Y-30.256 Z-2.753
X-55.443 Y-30.251 Z-2.682
G0 Z5.
X-55.023 Y30.629
Z-2.365
G1 Z-2.682 F1016.
X-55.03 Y30.633 Z-2.753
X-55.05 Y30.645 Z-2.82
X-55.083 Y30.664 Z-2.88
X-55.126 Y30.69 Z-2.931
X-55.178 Y30.721 Z-2.969
X-55.235 Y30.755 Z-2.992
X-55.296 Y30.791 Z-3.
G3 X-56.05 Y31.012 I-0.809 J-1.36
G1 X-58.06
X-58.283 Y31.001
X-58.501 Y30.973
