(1001)
(T1  D=3.175 CR=0. - ZMIN=-24.499 - FLAT END MILL)
G0 G90 G94 G17
G21
G53 G0 Z0.

(ADAPTIVE4 117)
M5
M9
T1
S16500 M3
G4 P4.
G55
G0 X-41.217 Y-0.793
Z12.
Z5.
Z-2.5
G3 X-43.783 Y0.793 Z-2.665 I-1.283 J0.793 F1016.
X-41.217 Y-0.793 Z-2.831 I1.283 J-0.793
X-43.783 Y0.793 Z-2.996 I-1.283 J0.793
X-41.217 Y-0.793 Z-3.162 I1.283 J-0.793
X-43.783 Y0.793 Z-3.327 I-1.283 J0.793
X-41.217 Y-0.793 Z-3.493 I1.283 J-0.793
X-43.783 Y0.793 Z-3.658 I-1.283 J0.793
X-41.217 Y-0.793 Z-3.824 I1.283 J-0.793
X-43.783 Y0.793 Z-3.989 I-1.283 J0.793
X-41.217 Y-0.793 Z-4.155 I1.283 J-0.793
X-43.783 Y0.793 Z-4.32 I-1.283 J0.793
X-41.217 Y-0.793 Z-4.485 I1.283 J-0.793
X-43.783 Y0.793 Z-4.651 I-1.283 J0.793
X-41.217 Y-0.793 Z-4.816 I1.283 J-0.793
X-43.783 Y0.793 Z-4.982 I-1.283 J0.793
X-41.217 Y-0.793 Z-5.147 I1.283 J-0.793
X-43.783 Y0.793 Z-5.313 I-1.283 J0.793
X-41.217 Y-0.793 Z-5.478 I1.283 J-0.793
X-43.783 Y0.793 Z-5.644 I-1.283 J0.793
X-41.217 Y-0.793 Z-5.809 I1.283 J-0.793
X-43.783 Y0.793 Z-5.974 I-1.283 J0.793
X-41.217 Y-0.793 Z-6.14 I1.283 J-0.793
X-43.783 Y0.793 Z-6.305 I-1.283 J0.793
X-41.217 Y-0.793 Z-6.471 I1.283 J-0.793
X-40.992 Y0. Z-6.5 I-1.283 J0.793
X-44.008 I-1.508 J0.
X-40.992 I1.508 J0.
G1 X-40.973 Y0.738
X-40.951 Y0.827
X-40.935 Y0.976
X-40.948 Y1.126
X-40.983 Y1.272
X-41.038 Y1.411
X-41.11 Y1.543
X-41.196 Y1.666
X-41.294 Y1.78
X-41.402 Y1.883
X-41.52 Y1.976
X-41.646 Y2.058
X-41.778 Y2.129
X-41.916 Y2.189
X-42.063 Y2.24
X-42.217 Y2.279
X-42.377 Y2.306
X-42.542 Y2.321
X-42.711 Y2.323
X-42.882 Y2.311
X-43.054 Y2.284
X-43.225 Y2.244
X-43.395 Y2.189
X-43.561 Y2.121
X-43.723 Y2.038
X-43.878 Y1.942
X-44.027 Y1.833
X-44.167 Y1.711
X-44.298 Y1.578
X-44.418 Y1.434
X-44.527 Y1.281
X-44.623 Y1.118
X-44.707 Y0.948
X-44.776 Y0.771
X-44.832 Y0.589
X-44.872 Y0.402
X-44.898 Y0.212
X-44.908 Y0.021
X-44.903 Y-0.171
X-44.882 Y-0.362
X-44.847 Y-0.551
X-44.796 Y-0.737
X-44.73 Y-0.918
X-44.65 Y-1.094
X-44.556 Y-1.262
X-44.448 Y-1.423
X-44.328 Y-1.575
X-44.197 Y-1.716
X-44.054 Y-1.847
X-43.901 Y-1.965
X-43.739 Y-2.072
X-43.569 Y-2.164
X-43.392 Y-2.243
X-43.209 Y-2.308
X-43.022 Y-2.357
X-42.831 Y-2.392
X-42.639 Y-2.411
X-42.445 Y-2.414
X-42.251 Y-2.402
X-42.059 Y-2.374
X-41.87 Y-2.331
X-41.685 Y-2.273
X-41.506 Y-2.201
X-41.332 Y-2.114
X-41.166 Y-2.013
X-41.009 Y-1.9
X-40.861 Y-1.774
X-40.724 Y-1.637
X-40.599 Y-1.489
X-40.485 Y-1.332
X-40.381 Y-1.159
X-40.27 Y-0.937
X-40.123 Y-0.572
X-40.016 Y-0.229
X-39.952 Y0.054
X-39.915 Y0.309
X-39.9 Y0.546
X-39.904 Y0.77
X-39.926 Y0.983
X-39.963 Y1.19
X-40.017 Y1.392
X-40.086 Y1.589
X-40.172 Y1.779
X-40.272 Y1.962
X-40.386 Y2.137
X-40.516 Y2.304
X-40.66 Y2.461
X-40.818 Y2.608
X-40.99 Y2.744
X-41.174 Y2.867
X-41.371 Y2.976
X-41.579 Y3.071
X-41.796 Y3.15
X-42.023 Y3.212
X-42.257 Y3.256
X-42.497 Y3.281
X-42.741 Y3.288
X-42.987 Y3.274
X-43.234 Y3.241
X-43.48 Y3.187
X-43.723 Y3.113
X-43.96 Y3.019
X-44.191 Y2.906
X-44.414 Y2.773
X-44.627 Y2.622
X-44.828 Y2.454
X-45.016 Y2.269
X-45.189 Y2.069
X-45.346 Y1.854
X-45.486 Y1.627
X-45.608 Y1.388
X-45.71 Y1.14
X-45.793 Y0.883
X-45.855 Y0.62
X-45.895 Y0.353
X-45.914 Y0.082
X-45.912 Y-0.19
X-45.887 Y-0.461
X-45.841 Y-0.73
X-45.773 Y-0.994
X-45.684 Y-1.253
X-45.574 Y-1.503
X-45.445 Y-1.744
X-45.296 Y-1.975
X-45.13 Y-2.192
X-44.946 Y-2.396
X-44.747 Y-2.585
X-44.533 Y-2.757
X-44.306 Y-2.911
X-44.067 Y-3.046
X-43.818 Y-3.162
X-43.56 Y-3.258
X-43.296 Y-3.333
X-43.026 Y-3.386
X-42.753 Y-3.417
X-42.478 Y-3.427
X-42.203 Y-3.414
X-41.93 Y-3.379
X-41.661 Y-3.323
X-41.397 Y-3.245
X-41.14 Y-3.146
X-40.892 Y-3.026
X-40.654 Y-2.888
X-40.429 Y-2.73
X-40.215 Y-2.554
X-40.009 Y-2.355
X-39.795 Y-2.111
X-39.593 Y-1.84
X-39.406 Y-1.543
X-39.242 Y-1.227
X-39.104 Y-0.902
X-38.996 Y-0.575
X-38.917 Y-0.252
X-38.866 Y0.068
X-38.841 Y0.385
X-38.842 Y0.697
X-38.867 Y1.005
X-38.917 Y1.306
X-38.99 Y1.6
X-39.085 Y1.886
X-39.203 Y2.162
X-39.343 Y2.427
X-39.504 Y2.681
X-39.685 Y2.922
X-39.885 Y3.148
X-40.105 Y3.359
X-40.342 Y3.553
X-40.596 Y3.728
X-40.866 Y3.884
X-41.149 Y4.019
X-41.445 Y4.132
X-41.752 Y4.221
X-42.068 Y4.286
X-42.391 Y4.326
X-42.718 Y4.34
X-43.048 Y4.327
X-43.377 Y4.288
X-43.705 Y4.222
X-44.029 Y4.129
X-44.346 Y4.01
X-44.654 Y3.865
X-44.952 Y3.695
X-45.236 Y3.5
X-45.505 Y3.282
X-45.757 Y3.042
X-45.989 Y2.782
X-46.201 Y2.503
X-46.391 Y2.206
X-46.556 Y1.895
X-46.696 Y1.57
X-46.811 Y1.234
X-46.898 Y0.889
X-46.957 Y0.538
X-46.988 Y0.182
X-46.99 Y-0.176
X-46.963 Y-0.533
X-46.908 Y-0.887
X-46.825 Y-1.236
X-46.713 Y-1.578
X-46.575 Y-1.91
X-46.41 Y-2.23
X-46.22 Y-2.536
X-46.005 Y-2.826
X-45.768 Y-3.098
X-45.51 Y-3.35
X-45.233 Y-3.58
X-44.937 Y-3.788
X-44.626 Y-3.972
X-44.301 Y-4.129
X-43.964 Y-4.261
X-43.618 Y-4.365
X-43.264 Y-4.441
X-42.906 Y-4.488
X-42.545 Y-4.506
X-42.183 Y-4.495
X-41.824 Y-4.455
X-41.468 Y-4.387
X-41.12 Y-4.29
X-40.78 Y-4.166
X-40.451 Y-4.014
X-40.133 Y-3.835
X-39.82 Y-3.625
X-39.517 Y-3.383
X-39.225 Y-3.11
X-38.948 Y-2.805
X-38.693 Y-2.474
X-38.463 Y-2.12
X-38.261 Y-1.749
X-38.092 Y-1.365
X-37.954 Y-0.971
X-37.85 Y-0.572
X-37.779 Y-0.169
X-37.74 Y0.235
X-37.734 Y0.637
X-37.761 Y1.036
X-37.818 Y1.428
X-37.907 Y1.812
X-38.026 Y2.187
X-38.174 Y2.55
X-38.351 Y2.9
X-38.555 Y3.235
X-38.785 Y3.552
X-39.042 Y3.851
X-39.322 Y4.129
X-39.625 Y4.385
X-39.949 Y4.617
X-40.293 Y4.824
X-40.654 Y5.003
X-41.031 Y5.154
X-41.421 Y5.274
X-41.822 Y5.364
X-42.232 Y5.421
X-42.647 Y5.445
X-43.065 Y5.436
X-43.483 Y5.393
X-43.899 Y5.317
X-44.309 Y5.206
X-44.712 Y5.063
X-45.103 Y4.886
X-45.481 Y4.678
X-45.842 Y4.44
X-46.184 Y4.171
X-46.505 Y3.876
X-46.802 Y3.554
X-47.074 Y3.208
X-47.317 Y2.841
X-47.531 Y2.454
X-47.713 Y2.05
X-47.863 Y1.632
X-47.979 Y1.203
X-48.06 Y0.765
X-48.106 Y0.32
X-48.116 Y-0.127
X-48.09 Y-0.574
X-48.029 Y-1.018
X-47.931 Y-1.456
X-47.799 Y-1.886
X-47.633 Y-2.304
X-47.433 Y-2.707
X-47.202 Y-3.094
X-46.94 Y-3.46
X-46.649 Y-3.805
X-46.332 Y-4.125
X-45.989 Y-4.42
X-45.624 Y-4.685
X-45.239 Y-4.921
X-44.836 Y-5.125
X-44.418 Y-5.296
X-43.987 Y-5.433
X-43.547 Y-5.535
X-43.1 Y-5.601
X-42.649 Y-5.632
X-42.196 Y-5.626
X-41.746 Y-5.583
X-41.301 Y-5.505
X-40.862 Y-5.391
X-40.432 Y-5.241
X-40.012 Y-5.056
X-39.602 Y-4.835
X-39.207 Y-4.578
X-38.826 Y-4.285
X-38.462 Y-3.955
X-38.122 Y-3.593
X-37.808 Y-3.2
X-37.526 Y-2.781
X-37.277 Y-2.339
X-37.065 Y-1.88
X-36.891 Y-1.406
X-36.756 Y-0.922
X-36.661 Y-0.432
X-36.606 Y0.062
X-36.59 Y0.556
X-36.615 Y1.047
X-36.678 Y1.533
X-36.78 Y2.01
X-36.919 Y2.476
X-37.095 Y2.928
X-37.306 Y3.364
X-37.552 Y3.783
X-37.831 Y4.18
X-38.141 Y4.554
X-38.482 Y4.904
X-38.85 Y5.225
X-39.245 Y5.518
X-39.663 Y5.778
X-40.103 Y6.006
X-40.562 Y6.198
X-41.037 Y6.353
X-41.526 Y6.471
X-42.024 Y6.549
X-42.53 Y6.587
X-43.039 Y6.584
X-43.55 Y6.541
X-44.057 Y6.456
X-44.558 Y6.33
X-45.049 Y6.163
X-45.527 Y5.957
X-45.989 Y5.713
X-46.432 Y5.431
X-46.851 Y5.113
X-47.246 Y4.761
X-47.611 Y4.378
X-47.946 Y3.966
X-48.247 Y3.527
X-48.513 Y3.064
X-48.742 Y2.58
X-48.931 Y2.078
X-49.079 Y1.562
X-49.186 Y1.035
X-49.25 Y0.5
X-49.271 Y-0.039
X-49.249 Y-0.579
X-49.183 Y-1.116
X-49.075 Y-1.646
X-48.924 Y-2.166
X-48.732 Y-2.673
X-48.499 Y-3.164
X-48.228 Y-3.634
X-47.919 Y-4.081
X-47.576 Y-4.503
X-47.2 Y-4.895
X-46.793 Y-5.256
X-46.358 Y-5.584
X-45.899 Y-5.875
X-45.417 Y-6.129
X-44.916 Y-6.344
X-44.4 Y-6.517
X-43.871 Y-6.649
X-43.334 Y-6.738
X-42.791 Y-6.783
X-42.246 Y-6.785
X-41.702 Y-6.743
X-41.163 Y-6.657
X-40.63 Y-6.528
X-40.106 Y-6.355
X-39.594 Y-6.14
X-39.096 Y-5.881
X-38.615 Y-5.579
X-38.153 Y-5.236
X-37.715 Y-4.852
X-37.306 Y-4.431
X-36.93 Y-3.975
X-36.589 Y-3.487
X-36.289 Y-2.973
X-36.03 Y-2.437
X-35.816 Y-1.882
X-35.647 Y-1.312
X-35.524 Y-0.733
X-35.449 Y-0.148
X-35.421 Y0.44
X-35.441 Y1.025
X-35.507 Y1.606
X-35.619 Y2.177
X-35.776 Y2.737
X-35.978 Y3.281
X-36.222 Y3.807
X-36.508 Y4.312
X-36.833 Y4.793
X-37.197 Y5.246
X-37.596 Y5.67
X-38.029 Y6.061
X-38.494 Y6.417
X-38.987 Y6.736
X-39.506 Y7.015
X-40.048 Y7.252
X-40.609 Y7.446
X-41.186 Y7.595
X-41.776 Y7.697
X-42.374 Y7.752
X-42.977 Y7.759
X-43.581 Y7.717
X-44.182 Y7.627
X-44.777 Y7.488
X-45.36 Y7.301
X-45.928 Y7.067
X-46.477 Y6.787
X-47.004 Y6.464
X-47.505 Y6.097
X-47.976 Y5.691
X-48.414 Y5.247
X-48.816 Y4.768
X-49.179 Y4.258
X-49.5 Y3.718
X-49.778 Y3.154
X-50.01 Y2.568
X-50.194 Y1.964
X-50.33 Y1.347
X-50.416 Y0.719
X-50.451 Y0.086
X-50.435 Y-0.548
X-50.369 Y-1.18
X-50.251 Y-1.805
X-50.084 Y-2.419
X-49.868 Y-3.018
X-49.605 Y-3.598
X-49.295 Y-4.156
X-48.942 Y-4.687
X-48.546 Y-5.188
X-48.112 Y-5.656
X-47.642 Y-6.088
X-47.138 Y-6.481
X-46.604 Y-6.832
X-46.043 Y-7.14
X-45.46 Y-7.401
X-44.857 Y-7.615
X-44.239 Y-7.78
X-43.609 Y-7.894
X-42.972 Y-7.958
X-42.332 Y-7.971
X-41.692 Y-7.932
X-41.056 Y-7.841
X-40.426 Y-7.699
X-39.807 Y-7.507
X-39.2 Y-7.263
X-38.611 Y-6.969
X-38.042 Y-6.626
X-37.498 Y-6.235
X-36.984 Y-5.798
X-36.503 Y-5.319
X-36.059 Y-4.799
X-35.657 Y-4.243
X-35.3 Y-3.655
X-34.99 Y-3.039
X-34.731 Y-2.4
X-34.525 Y-1.743
X-34.372 Y-1.074
X-34.273 Y-0.395
X-34.23 Y0.287
X-34.241 Y0.969
X-34.307 Y1.646
X-34.426 Y2.315
X-34.599 Y2.97
X-34.824 Y3.609
X-35.099 Y4.228
X-35.422 Y4.822
X-35.793 Y5.389
X-36.208 Y5.924
X-36.665 Y6.426
X-37.162 Y6.89
X-37.696 Y7.313
X-38.264 Y7.693
X-38.862 Y8.027
X-39.486 Y8.314
X-40.134 Y8.549
X-40.801 Y8.733
X-41.483 Y8.863
X-42.175 Y8.938
X-42.873 Y8.957
X-43.573 Y8.921
X-44.27 Y8.827
X-44.96 Y8.678
X-45.637 Y8.473
X-46.298 Y8.214
X-46.938 Y7.901
X-47.552 Y7.537
X-48.137 Y7.124
X-48.688 Y6.665
X-49.201 Y6.161
X-49.674 Y5.616
X-50.102 Y5.034
X-50.483 Y4.419
X-50.814 Y3.774
X-51.092 Y3.103
X-51.316 Y2.411
X-51.484 Y1.702
X-51.595 Y0.982
X-51.647 Y0.253
X-51.641 Y-0.477
X-51.576 Y-1.206
X-51.453 Y-1.928
X-51.273 Y-2.637
X-51.035 Y-3.331
X-50.743 Y-4.004
X-50.397 Y-4.651
X-50. Y-5.269
X-49.555 Y-5.853
X-49.064 Y-6.4
X-48.531 Y-6.906
X-47.959 Y-7.368
X-47.351 Y-7.782
X-46.712 Y-8.147
X-46.045 Y-8.458
X-45.356 Y-8.716
X-44.648 Y-8.917
X-43.926 Y-9.061
X-43.194 Y-9.146
X-42.458 Y-9.173
X-41.721 Y-9.14
X-40.988 Y-9.048
X-40.266 Y-8.898
X-39.558 Y-8.691
X-38.868 Y-8.428
X-38.202 Y-8.112
X-37.562 Y-7.745
X-36.953 Y-7.328
X-36.378 Y-6.866
X-35.84 Y-6.362
X-35.341 Y-5.817
X-34.886 Y-5.237
X-34.476 Y-4.624
X-34.113 Y-3.981
X-33.799 Y-3.313
X-33.536 Y-2.624
X-33.326 Y-1.917
X-33.17 Y-1.196
X-33.069 Y-0.465
X-33.024 Y0.272
X-33.035 Y1.009
X-33.103 Y1.744
X-33.228 Y2.471
X-33.407 Y3.187
X-33.641 Y3.887
X-33.928 Y4.567
X-34.266 Y5.222
X-34.652 Y5.851
X-35.086 Y6.448
X-35.564 Y7.01
X-36.084 Y7.534
X-36.641 Y8.017
X-37.234 Y8.456
X-37.858 Y8.849
X-38.511 Y9.194
X-39.187 Y9.489
X-39.884 Y9.732
X-40.596 Y9.923
X-41.322 Y10.059
X-42.055 Y10.139
X-42.792 Y10.164
X-43.529 Y10.134
X-44.262 Y10.048
X-44.987 Y9.909
X-45.699 Y9.718
X-46.396 Y9.474
X-47.073 Y9.181
X-47.727 Y8.839
X-48.354 Y8.451
X-48.952 Y8.019
X-49.517 Y7.544
X-50.044 Y7.028
X-50.532 Y6.474
X-50.978 Y5.887
X-51.381 Y5.269
X-51.739 Y4.623
X-52.05 Y3.954
X-52.312 Y3.264
X-52.525 Y2.558
X-52.687 Y1.838
X-52.797 Y1.109
X-52.852 Y0.373
X-52.853 Y-0.365
X-52.802 Y-1.101
X-52.699 Y-1.831
X-52.544 Y-2.553
X-52.339 Y-3.262
X-52.084 Y-3.954
X-51.782 Y-4.627
X-51.432 Y-5.277
X-51.034 Y-5.898
X-50.593 Y-6.49
X-50.111 Y-7.048
X-49.591 Y-7.571
X-49.035 Y-8.056
X-48.446 Y-8.501
X-47.828 Y-8.904
X-47.183 Y-9.262
X-46.514 Y-9.573
X-45.824 Y-9.833
X-45.116 Y-10.043
X-44.396 Y-10.203
X-43.666 Y-10.311
X-42.931 Y-10.368
X-42.193 Y-10.374
X-41.456 Y-10.328
X-40.725 Y-10.23
X-40.003 Y-10.079
X-39.293 Y-9.876
X-38.6 Y-9.624
X-37.926 Y-9.324
X-37.274 Y-8.978
X-36.648 Y-8.589
X-36.049 Y-8.158
X-35.48 Y-7.687
X-34.945 Y-7.18
X-34.447 Y-6.635
X-33.987 Y-6.058
X-33.568 Y-5.451
X-33.19 Y-4.817
X-32.855 Y-4.16
X-32.564 Y-3.482
X-32.318 Y-2.786
X-32.119 Y-2.076
X-31.967 Y-1.354
X-31.867 Y-0.623
X-31.817 Y0.113
X-31.818 Y0.851
X-31.869 Y1.587
X-31.97 Y2.318
X-32.119 Y3.041
X-32.316 Y3.752
X-32.561 Y4.448
X-32.852 Y5.126
X-33.19 Y5.781
X-33.573 Y6.412
X-33.998 Y7.015
X-34.462 Y7.589
X-34.964 Y8.129
X-35.501 Y8.635
X-36.071 Y9.105
X-36.67 Y9.535
X-37.297 Y9.924
X-37.949 Y10.269
X-38.624 Y10.568
X-39.317 Y10.821
X-40.025 Y11.028
X-40.745 Y11.187
X-41.475 Y11.297
X-42.21 Y11.359
X-42.948 Y11.373
X-43.685 Y11.337
X-44.418 Y11.252
X-45.143 Y11.117
X-45.858 Y10.934
X-46.559 Y10.706
X-47.245 Y10.432
X-47.911 Y10.115
X-48.556 Y9.756
X-49.176 Y9.357
X-49.77 Y8.919
X-50.332 Y8.442
X-50.861 Y7.928
X-51.355 Y7.379
X-51.812 Y6.8
X-52.231 Y6.193
X-52.611 Y5.56
X-52.95 Y4.905
X-53.247 Y4.229
X-53.501 Y3.537
X-53.71 Y2.829
X-53.872 Y2.109
X-53.986 Y1.38
X-54.051 Y0.645
X-54.07 Y-0.092
X-54.041 Y-0.829
X-53.966 Y-1.563
X-53.845 Y-2.291
X-53.678 Y-3.01
X-53.468 Y-3.717
X-53.212 Y-4.409
X-52.911 Y-5.083
X-52.567 Y-5.735
X-52.181 Y-6.364
X-51.755 Y-6.967
X-51.293 Y-7.542
X-50.795 Y-8.086
X-50.264 Y-8.599
X-49.702 Y-9.077
X-49.112 Y-9.519
X-48.494 Y-9.922
X-47.851 Y-10.284
X-47.185 Y-10.603
X-46.501 Y-10.878
X-45.8 Y-11.11
X-45.087 Y-11.297
X-44.362 Y-11.438
X-43.631 Y-11.535
X-42.895 Y-11.585
X-42.157 Y-11.589
X-41.421 Y-11.545
X-40.689 Y-11.453
X-39.964 Y-11.314
X-39.25 Y-11.13
X-38.548 Y-10.9
X-37.862 Y-10.628
X-37.195 Y-10.314
X-36.547 Y-9.96
X-35.923 Y-9.568
X-35.324 Y-9.136
X-34.754 Y-8.669
X-34.213 Y-8.166
X-33.705 Y-7.631
X-33.231 Y-7.066
X-32.792 Y-6.473
X-32.389 Y-5.855
X-32.023 Y-5.214
X-31.696 Y-4.553
X-31.409 Y-3.873
X-31.163 Y-3.177
X-30.961 Y-2.468
X-30.804 Y-1.747
X-30.69 Y-1.018
X-30.622 Y-0.283
X-30.599 Y0.454
X-30.62 Y1.192
X-30.686 Y1.927
X-30.795 Y2.656
X-30.948 Y3.378
X-31.146 Y4.089
X-31.387 Y4.786
X-31.672 Y5.467
X-31.998 Y6.129
X-32.364 Y6.769
X-32.768 Y7.387
X-33.209 Y7.978
X-33.684 Y8.542
X-34.193 Y9.077
X-34.732 Y9.581
X-35.301 Y10.05
X-35.899 Y10.483
X-36.522 Y10.878
X-37.167 Y11.235
X-37.834 Y11.552
X-38.518 Y11.828
X-39.217 Y12.063
X-39.93 Y12.255
X-40.652 Y12.406
X-41.382 Y12.513
X-42.117 Y12.575
X-42.855 Y12.592
X-43.592 Y12.564
X-44.326 Y12.491
X-45.055 Y12.374
X-45.775 Y12.215
X-46.485 Y12.014
X-47.182 Y11.771
X-47.864 Y11.489
X-48.528 Y11.169
X-49.173 Y10.809
X-49.794 Y10.412
X-50.391 Y9.978
X-50.961 Y9.509
X-51.502 Y9.007
X-52.012 Y8.474
X-52.49 Y7.912
X-52.934 Y7.324
X-53.345 Y6.71
X-53.72 Y6.075
X-54.057 Y5.419
X-54.355 Y4.744
X-54.614 Y4.053
X-54.831 Y3.348
X-55.007 Y2.631
X-55.14 Y1.905
X-55.23 Y1.173
X-55.278 Y0.437
X-55.284 Y-0.301
X-55.247 Y-1.038
X-55.169 Y-1.772
X-55.048 Y-2.499
X-54.885 Y-3.219
X-54.681 Y-3.928
X-54.436 Y-4.624
X-54.15 Y-5.304
X-53.826 Y-5.967
X-53.463 Y-6.609
X-53.064 Y-7.23
X-52.631 Y-7.827
X-52.164 Y-8.399
X-51.666 Y-8.943
X-51.136 Y-9.456
X-50.578 Y-9.938
X-49.992 Y-10.388
X-49.382 Y-10.802
X-48.748 Y-11.181
X-48.094 Y-11.522
X-47.421 Y-11.824
X-46.732 Y-12.088
X-46.029 Y-12.312
X-45.315 Y-12.496
X-44.591 Y-12.638
X-43.86 Y-12.738
X-43.124 Y-12.796
X-42.387 Y-12.811
X-41.649 Y-12.783
X-40.915 Y-12.713
X-40.186 Y-12.6
X-39.464 Y-12.447
X-38.752 Y-12.252
X-38.053 Y-12.018
X-37.367 Y-11.745
X-36.699 Y-11.432
X-36.049 Y-11.083
X-35.42 Y-10.697
X-34.814 Y-10.277
X-34.232 Y-9.823
X-33.677 Y-9.337
X-33.149 Y-8.821
X-32.651 Y-8.277
X-32.183 Y-7.706
X-31.747 Y-7.111
X-31.345 Y-6.493
X-30.978 Y-5.853
X-30.646 Y-5.194
X-30.351 Y-4.517
X-30.094 Y-3.826
X-29.875 Y-3.121
X-29.695 Y-2.406
X-29.555 Y-1.681
X-29.456 Y-0.95
X-29.396 Y-0.215
X-29.377 Y0.523
X-29.399 Y1.26
X-29.463 Y1.995
X-29.567 Y2.726
X-29.712 Y3.449
X-29.896 Y4.164
X-30.12 Y4.867
X-30.383 Y5.556
X-30.684 Y6.23
X-31.022 Y6.886
X-31.395 Y7.522
X-31.802 Y8.137
X-32.243 Y8.729
X-32.717 Y9.294
X-33.221 Y9.833
X-33.754 Y10.343
X-34.315 Y10.823
X-34.901 Y11.271
X-35.511 Y11.686
X-36.143 Y12.067
X-36.795 Y12.412
X-37.465 Y12.722
X-38.15 Y12.995
X-38.85 Y13.229
X-39.561 Y13.424
X-40.282 Y13.58
X-41.011 Y13.696
X-41.745 Y13.772
X-42.482 Y13.808
X-43.22 Y13.803
X-43.956 Y13.757
X-44.689 Y13.672
X-45.416 Y13.548
X-46.136 Y13.385
X-46.846 Y13.183
X-47.543 Y12.943
X-48.227 Y12.666
X-48.895 Y12.353
X-49.546 Y12.005
X-50.176 Y11.622
X-50.785 Y11.206
X-51.371 Y10.757
X-51.932 Y10.278
X-52.467 Y9.769
X-52.973 Y9.233
X-53.451 Y8.67
X-53.897 Y8.083
X-54.311 Y7.472
X-54.692 Y6.84
X-55.04 Y6.189
X-55.352 Y5.521
X-55.629 Y4.837
X-55.869 Y4.14
X-56.072 Y3.43
X-56.237 Y2.711
X-56.364 Y1.984
X-56.452 Y1.252
X-56.5 Y0.515
X-56.509 Y-0.222
X-56.479 Y-0.96
X-56.411 Y-1.694
X-56.304 Y-2.424
X-56.159 Y-3.148
X-55.975 Y-3.862
X-55.755 Y-4.566
X-55.498 Y-5.258
X-55.205 Y-5.935
X-54.877 Y-6.596
X-54.514 Y-7.238
X-54.117 Y-7.86
X-53.687 Y-8.46
X-53.227 Y-9.037
X-52.737 Y-9.589
X-52.219 Y-10.114
X-51.674 Y-10.611
X-51.104 Y-11.08
X-50.51 Y-11.517
X-49.894 Y-11.923
X-49.258 Y-12.297
X-48.603 Y-12.636
X-47.93 Y-12.939
X-47.242 Y-13.206
X-46.541 Y-13.437
X-45.829 Y-13.631
X-45.108 Y-13.787
X-44.38 Y-13.905
X-43.646 Y-13.984
X-42.91 Y-14.026
X-42.172 Y-14.029
X-41.435 Y-13.993
X-40.701 Y-13.919
X-39.972 Y-13.807
X-39.25 Y-13.655
X-38.537 Y-13.465
X-37.834 Y-13.239
X-37.145 Y-12.977
X-36.47 Y-12.68
X-35.811 Y-12.348
X-35.17 Y-11.982
X-34.548 Y-11.585
X-33.947 Y-11.156
X-33.37 Y-10.697
X-32.816 Y-10.21
X-32.288 Y-9.694
X-31.788 Y-9.152
X-31.315 Y-8.585
X-30.872 Y-7.995
X-30.46 Y-7.384
X-30.078 Y-6.752
X-29.729 Y-6.102
X-29.412 Y-5.436
X-29.13 Y-4.754
X-28.881 Y-4.06
X-28.668 Y-3.353
X-28.491 Y-2.637
X-28.351 Y-1.913
X-28.248 Y-1.182
X-28.183 Y-0.447
X-28.155 Y0.29
X-28.164 Y1.028
X-28.211 Y1.764
X-28.294 Y2.497
X-28.415 Y3.225
X-28.573 Y3.946
X-28.766 Y4.658
X-28.996 Y5.359
X-29.26 Y6.048
X-29.56 Y6.722
X-29.895 Y7.38
X-30.262 Y8.019
X-30.662 Y8.64
X-31.092 Y9.239
X-31.552 Y9.816
X-32.041 Y10.369
X-32.557 Y10.896
X-33.098 Y11.397
X-33.664 Y11.87
X-34.254 Y12.314
X-34.864 Y12.728
X-35.496 Y13.11
X-36.146 Y13.459
X-36.813 Y13.774
X-37.495 Y14.056
X-38.19 Y14.303
X-38.897 Y14.515
X-39.613 Y14.692
X-40.337 Y14.832
X-41.068 Y14.936
X-41.803 Y15.004
X-42.54 Y15.034
X-43.278 Y15.028
X-44.014 Y14.984
X-44.747 Y14.903
X-45.476 Y14.785
X-46.197 Y14.631
X-46.911 Y14.442
X-47.614 Y14.219
X-48.305 Y13.96
X-48.983 Y13.669
X-49.645 Y13.345
X-50.292 Y12.989
X-50.919 Y12.601
X-51.528 Y12.183
X-52.114 Y11.735
X-52.677 Y11.258
X-53.215 Y10.754
X-53.729 Y10.224
X-54.215 Y9.669
X-54.674 Y9.092
X-55.104 Y8.492
X-55.505 Y7.873
X-55.875 Y7.234
X-56.214 Y6.579
X-56.521 Y5.908
X-56.795 Y5.223
X-57.035 Y4.525
X-57.24 Y3.817
X-57.41 Y3.099
X-57.544 Y2.373
X-57.643 Y1.642
X-57.706 Y0.907
X-57.734 Y0.17
X-57.726 Y-0.568
X-57.682 Y-1.305
X-57.602 Y-2.038
X-57.488 Y-2.767
X-57.339 Y-3.49
X-57.155 Y-4.204
X-56.936 Y-4.909
X-56.682 Y-5.602
X-56.396 Y-6.281
X-56.076 Y-6.946
X-55.724 Y-7.595
X-55.342 Y-8.226
X-54.929 Y-8.837
X-54.487 Y-9.428
X-54.018 Y-9.998
X-53.522 Y-10.544
X-53. Y-11.065
X-52.453 Y-11.561
X-51.883 Y-12.03
X-51.291 Y-12.469
X-50.678 Y-12.88
X-50.046 Y-13.26
X-49.396 Y-13.61
X-48.73 Y-13.927
X-48.049 Y-14.212
X-47.356 Y-14.463
X-46.651 Y-14.681
X-45.936 Y-14.865
X-45.214 Y-15.014
X-44.485 Y-15.129
X-43.751 Y-15.209
X-43.015 Y-15.252
X-42.277 Y-15.259
X-41.54 Y-15.23
X-40.805 Y-15.166
X-40.073 Y-15.067
X-39.348 Y-14.932
X-38.63 Y-14.762
X-37.921 Y-14.559
X-37.222 Y-14.322
X-36.535 Y-14.052
X-35.862 Y-13.75
X-35.204 Y-13.417
X-34.563 Y-13.052
X-33.94 Y-12.657
X-33.336 Y-12.232
X-32.753 Y-11.78
X-32.192 Y-11.301
X-31.654 Y-10.796
X-31.141 Y-10.266
X-30.653 Y-9.712
X-30.191 Y-9.137
X-29.756 Y-8.541
X-29.349 Y-7.925
X-28.971 Y-7.292
X-28.623 Y-6.641
X-28.306 Y-5.975
X-28.02 Y-5.295
X-27.767 Y-4.602
X-27.546 Y-3.898
X-27.358 Y-3.185
X-27.203 Y-2.463
X-27.083 Y-1.735
X-26.997 Y-1.002
X-26.944 Y-0.267
X-26.926 Y0.471
X-26.943 Y1.209
X-26.993 Y1.945
X-27.078 Y2.678
X-27.198 Y3.406
X-27.352 Y4.127
X-27.54 Y4.841
X-27.761 Y5.545
X-28.014 Y6.238
X-28.3 Y6.918
X-28.618 Y7.584
X-28.967 Y8.234
X-29.345 Y8.867
X-29.752 Y9.482
X-30.188 Y10.078
X-30.651 Y10.653
X-31.14 Y11.205
X-31.654 Y11.734
X-32.193 Y12.238
X-32.755 Y12.716
X-33.339 Y13.167
X-33.943 Y13.591
X-34.566 Y13.986
X-35.207 Y14.351
X-35.864 Y14.687
X-36.536 Y14.992
X-37.221 Y15.265
X-37.919 Y15.507
X-38.626 Y15.716
X-39.343 Y15.892
X-40.067 Y16.034
X-40.796 Y16.142
X-41.531 Y16.216
X-42.267 Y16.256
X-43.005 Y16.262
X-43.742 Y16.233
X-44.478 Y16.171
X-45.209 Y16.075
X-45.935 Y15.946
X-46.655 Y15.784
X-47.367 Y15.589
X-48.069 Y15.362
X-48.76 Y15.104
X-49.439 Y14.814
X-50.103 Y14.493
X-50.752 Y14.142
X-51.385 Y13.762
X-51.999 Y13.354
X-52.594 Y12.918
X-53.169 Y12.455
X-53.722 Y11.967
X-54.252 Y11.454
X-54.758 Y10.917
X-55.24 Y10.358
X-55.696 Y9.778
X-56.126 Y9.179
X-56.528 Y8.56
X-56.901 Y7.923
X-57.245 Y7.27
X-57.559 Y6.603
X-57.843 Y5.922
X-58.096 Y5.229
X-58.318 Y4.525
X-58.507 Y3.812
X-58.664 Y3.091
X-58.788 Y2.364
X-58.88 Y1.632
X-58.939 Y0.896
X-58.965 Y0.159
X-58.957 Y-0.579
X-58.916 Y-1.316
X-58.842 Y-2.05
X-58.735 Y-2.78
X-58.595 Y-3.504
X-58.423 Y-4.222
X-58.22 Y-4.931
X-57.984 Y-5.63
X-57.717 Y-6.318
X-57.42 Y-6.993
X-57.093 Y-7.655
X-56.737 Y-8.301
X-56.352 Y-8.93
X-55.939 Y-9.542
X-55.499 Y-10.134
X-55.032 Y-10.705
X-54.541 Y-11.256
X-54.025 Y-11.784
X-53.487 Y-12.288
X-52.926 Y-12.768
X-52.345 Y-13.222
X-51.743 Y-13.649
X-51.124 Y-14.05
X-50.487 Y-14.422
X-49.834 Y-14.765
X-49.166 Y-15.079
X-48.485 Y-15.363
X-47.792 Y-15.616
X-47.088 Y-15.836
X-46.375 Y-16.026
X-45.654 Y-16.183
X-44.927 Y-16.308
X-44.195 Y-16.4
X-43.459 Y-16.46
X-42.722 Y-16.487
X-41.984 Y-16.48
X-41.247 Y-16.441
X-40.513 Y-16.37
X-39.783 Y-16.265
X-39.057 Y-16.129
X-38.339 Y-15.959
X-37.63 Y-15.758
X-36.929 Y-15.525
X-36.24 Y-15.262
X-35.563 Y-14.968
X-34.9 Y-14.645
X-34.251 Y-14.293
X-33.619 Y-13.913
X-33.004 Y-13.506
X-32.407 Y-13.072
X-31.83 Y-12.613
X-31.273 Y-12.128
X-30.738 Y-11.621
X-30.225 Y-11.09
X-29.736 Y-10.538
X-29.272 Y-9.964
X-28.833 Y-9.371
X-28.421 Y-8.759
X-28.034 Y-8.131
X-27.675 Y-7.486
X-27.345 Y-6.826
X-27.043 Y-6.153
X-26.77 Y-5.468
X-26.527 Y-4.771
X-26.315 Y-4.064
X-26.132 Y-3.349
X-25.981 Y-2.627
X-25.861 Y-1.899
X-25.774 Y-1.167
X-25.719 Y-0.431
X-25.696 Y0.307
X-25.704 Y1.044
X-25.745 Y1.781
X-25.817 Y2.515
X-25.922 Y3.246
X-26.058 Y3.971
X-26.225 Y4.69
X-26.423 Y5.4
X-26.652 Y6.102
X-26.911 Y6.793
X-27.199 Y7.472
X-27.517 Y8.137
X-27.864 Y8.788
X-28.24 Y9.424
X-28.642 Y10.042
X-29.071 Y10.642
X-29.526 Y11.224
X-30.005 Y11.785
X-30.508 Y12.324
X-31.034 Y12.842
X-31.581 Y13.336
X-32.15 Y13.807
X-32.738 Y14.252
X-33.345 Y14.672
X-33.969 Y15.065
X-34.61 Y15.43
X-35.267 Y15.767
X-35.937 Y16.075
X-36.62 Y16.354
X-37.314 Y16.604
X-38.019 Y16.823
X-38.732 Y17.012
X-39.453 Y17.171
X-40.179 Y17.297
X-40.911 Y17.393
X-41.646 Y17.457
X-42.383 Y17.49
X-43.121 Y17.491
X-43.858 Y17.461
X-44.593 Y17.399
X-45.325 Y17.305
X-46.052 Y17.179
X-46.773 Y17.023
X-47.487 Y16.837
X-48.193 Y16.62
X-48.888 Y16.374
X-49.573 Y16.099
X-50.245 Y15.795
X-50.904 Y15.463
X-51.548 Y15.104
X-52.177 Y14.717
X-52.789 Y14.305
X-53.382 Y13.867
X-53.957 Y13.404
X-54.511 Y12.917
X-55.044 Y12.406
X-55.554 Y11.874
X-56.042 Y11.32
X-56.506 Y10.747
X-56.946 Y10.154
X-57.361 Y9.544
X-57.749 Y8.917
X-58.111 Y8.274
X-58.446 Y7.616
X-58.753 Y6.945
X-59.032 Y6.262
X-59.283 Y5.568
X-59.503 Y4.864
X-59.694 Y4.152
X-59.854 Y3.431
X-59.983 Y2.705
X-60.082 Y1.974
X-60.151 Y1.239
X-60.189 Y0.502
X-60.196 Y-0.235
X-60.172 Y-0.973
X-60.117 Y-1.709
X-60.032 Y-2.442
X-59.917 Y-3.17
X-59.771 Y-3.894
X-59.596 Y-4.61
X-59.391 Y-5.319
X-59.156 Y-6.018
X-58.891 Y-6.707
X-58.598 Y-7.384
X-58.277 Y-8.048
X-57.928 Y-8.699
X-57.553 Y-9.334
X-57.152 Y-9.953
X-56.725 Y-10.555
X-56.273 Y-11.138
X-55.797 Y-11.702
X-55.299 Y-12.246
X-54.779 Y-12.769
X-54.237 Y-13.27
X-53.675 Y-13.749
X-53.094 Y-14.203
X-52.493 Y-14.632
X-51.875 Y-15.035
X-51.241 Y-15.412
X-50.592 Y-15.763
X-49.929 Y-16.086
X-49.253 Y-16.381
X-48.565 Y-16.648
X-47.866 Y-16.886
X-47.159 Y-17.095
X-46.443 Y-17.274
X-45.721 Y-17.424
X-44.993 Y-17.544
X-44.26 Y-17.633
X-43.525 Y-17.692
X-42.788 Y-17.72
X-42.05 Y-17.716
X-41.313 Y-17.682
X-40.578 Y-17.618
X-39.846 Y-17.523
X-39.119 Y-17.397
X-38.398 Y-17.242
X-37.683 Y-17.057
X-36.977 Y-16.842
X-36.281 Y-16.599
X-35.595 Y-16.328
X-34.92 Y-16.028
X-34.259 Y-15.702
X-33.611 Y-15.349
X-32.978 Y-14.969
X-32.362 Y-14.563
X-31.763 Y-14.132
X-31.182 Y-13.678
X-30.62 Y-13.199
X-30.078 Y-12.699
X-29.557 Y-12.177
X-29.057 Y-11.635
X-28.579 Y-11.072
X-28.125 Y-10.491
X-27.694 Y-9.892
X-27.288 Y-9.276
X-26.906 Y-8.644
X-26.55 Y-7.998
X-26.221 Y-7.338
X-25.918 Y-6.665
X-25.643 Y-5.98
X-25.397 Y-5.285
X-25.178 Y-4.58
X-24.988 Y-3.867
X-24.827 Y-3.147
X-24.695 Y-2.421
X-24.592 Y-1.691
X-24.519 Y-0.957
X-24.476 Y-0.22
X-24.463 Y0.518
X-24.479 Y1.255
X-24.524 Y1.992
X-24.6 Y2.726
X-24.705 Y3.456
X-24.84 Y4.181
X-25.004 Y4.9
X-25.198 Y5.612
X-25.421 Y6.316
X-25.671 Y7.01
X-25.95 Y7.693
X-26.256 Y8.364
X-26.589 Y9.023
X-26.949 Y9.667
X-27.334 Y10.296
X-27.744 Y10.91
X-28.178 Y11.506
X-28.636 Y12.084
X-29.117 Y12.644
X-29.62 Y13.184
X-30.145 Y13.702
X-30.691 Y14.199
X-31.257 Y14.673
X-31.841 Y15.124
X-32.442 Y15.551
X-33.06 Y15.953
X-33.694 Y16.331
X-34.343 Y16.682
X-35.005 Y17.007
X-35.68 Y17.305
X-36.367 Y17.576
X-37.063 Y17.82
X-37.769 Y18.035
X-38.482 Y18.222
X-39.203 Y18.38
X-39.93 Y18.509
X-40.661 Y18.608
X-41.395 Y18.677
X-42.132 Y18.717
X-42.87 Y18.728
X-43.607 Y18.709
X-44.344 Y18.661
X-45.077 Y18.583
X-45.807 Y18.476
X-46.533 Y18.34
X-47.252 Y18.176
X-47.964 Y17.983
X-48.668 Y17.763
X-49.363 Y17.515
X-50.048 Y17.24
X-50.721 Y16.937
X-51.381 Y16.608
X-52.028 Y16.253
X-52.66 Y15.873
X-53.277 Y15.468
X-53.877 Y15.039
X-54.46 Y14.587
X-55.025 Y14.112
X-55.57 Y13.614
X-56.095 Y13.096
X-56.599 Y12.558
X-57.082 Y12.
X-57.543 Y11.424
X-57.981 Y10.83
X-58.396 Y10.22
X-58.785 Y9.593
X-59.15 Y8.952
X-59.489 Y8.296
X-59.802 Y7.628
X-60.089 Y6.948
X-60.349 Y6.258
X-60.582 Y5.558
X-60.788 Y4.849
X-60.965 Y4.133
X-61.114 Y3.41
X-61.234 Y2.683
X-61.326 Y1.951
X-61.39 Y1.216
X-61.425 Y0.479
X-61.432 Y-0.259
X-61.409 Y-0.997
X-61.356 Y-1.733
X-61.275 Y-2.466
X-61.166 Y-3.196
X-61.028 Y-3.921
X-60.863 Y-4.64
X-60.669 Y-5.352
X-60.448 Y-6.055
X-60.199 Y-6.75
X-59.924 Y-7.434
X-59.622 Y-8.108
X-59.294 Y-8.769
X-58.94 Y-9.416
X-58.562 Y-10.05
X-58.16 Y-10.668
X-57.733 Y-11.27
X-57.283 Y-11.855
X-56.81 Y-12.421
X-56.316 Y-12.969
X-55.801 Y-13.497
X-55.266 Y-14.005
X-54.711 Y-14.492
X-54.138 Y-14.957
X-53.547 Y-15.399
X-52.94 Y-15.817
X-52.316 Y-16.212
X-51.678 Y-16.582
X-51.026 Y-16.927
X-50.361 Y-17.246
X-49.684 Y-17.54
X-48.996 Y-17.807
X-48.298 Y-18.046
X-47.591 Y-18.258
X-46.877 Y-18.442
X-46.156 Y-18.598
X-45.429 Y-18.726
X-44.698 Y-18.827
X-43.964 Y-18.898
X-43.227 Y-18.941
X-42.49 Y-18.955
X-41.752 Y-18.941
X-41.016 Y-18.898
X-40.281 Y-18.826
X-39.55 Y-18.726
X-38.823 Y-18.598
X-38.102 Y-18.443
X-37.388 Y-18.258
X-36.681 Y-18.046
X-35.983 Y-17.807
X-35.295 Y-17.541
X-34.618 Y-17.249
X-33.952 Y-16.931
X-33.298 Y-16.588
X-32.659 Y-16.221
X-32.034 Y-15.828
X-31.424 Y-15.413
X-30.831 Y-14.974
X-30.255 Y-14.513
X-29.697 Y-14.031
X-29.157 Y-13.528
X-28.637 Y-13.004
X-28.137 Y-12.462
X-27.658 Y-11.9
X-27.201 Y-11.321
X-26.767 Y-10.724
X-26.355 Y-10.112
X-25.967 Y-9.485
X-25.602 Y-8.844
X-25.261 Y-8.189
X-24.946 Y-7.522
X-24.656 Y-6.844
X-24.392 Y-6.155
X-24.154 Y-5.456
X-23.942 Y-4.749
X-23.757 Y-4.035
X-23.6 Y-3.314
X-23.469 Y-2.588
X-23.366 Y-1.858
X-23.291 Y-1.124
X-23.245 Y-0.387
X-23.227 Y0.35
X-23.236 Y1.088
X-23.273 Y1.825
X-23.338 Y2.56
X-23.43 Y3.292
X-23.551 Y4.02
X-23.699 Y4.743
X-23.874 Y5.459
X-24.076 Y6.169
X-24.305 Y6.87
X-24.561 Y7.562
X-24.842 Y8.245
X-25.149 Y8.916
X-25.481 Y9.574
X-25.839 Y10.22
X-26.221 Y10.851
X-26.626 Y11.467
X-27.055 Y12.068
X-27.506 Y12.652
X-27.978 Y13.219
X-28.472 Y13.767
X-28.986 Y14.296
X-29.519 Y14.806
X-30.072 Y15.295
X-30.643 Y15.762
X-31.23 Y16.208
X-31.835 Y16.632
X-32.454 Y17.032
X-33.088 Y17.409
X-33.737 Y17.762
X-34.398 Y18.089
X-35.071 Y18.391
X-35.755 Y18.667
X-36.449 Y18.918
X-37.152 Y19.142
X-37.863 Y19.34
X-38.581 Y19.511
X-39.304 Y19.655
X-40.033 Y19.772
X-40.765 Y19.861
X-41.5 Y19.922
X-42.237 Y19.956
X-42.975 Y19.963
X-43.713 Y19.942
X-44.449 Y19.894
X-45.183 Y19.817
X-45.913 Y19.712
X-46.639 Y19.581
X-47.36 Y19.422
X-48.074 Y19.237
X-48.781 Y19.026
X-49.48 Y18.789
X-50.169 Y18.526
X-50.848 Y18.238
X-51.516 Y17.924
X-52.172 Y17.586
X-52.815 Y17.225
X-53.444 Y16.839
X-54.059 Y16.431
X-54.658 Y16.
X-55.24 Y15.548
X-55.805 Y15.073
X-56.352 Y14.578
X-56.88 Y14.062
X-57.389 Y13.528
X-57.878 Y12.975
X-58.346 Y12.405
X-58.793 Y11.818
X-59.218 Y11.215
X-59.62 Y10.596
X-59.999 Y9.963
X-60.355 Y9.317
X-60.687 Y8.658
X-60.995 Y7.988
X-61.278 Y7.306
X-61.536 Y6.615
X-61.768 Y5.915
X-61.974 Y5.206
X-62.153 Y4.49
X-62.305 Y3.768
X-62.431 Y3.041
X-62.531 Y2.31
X-62.603 Y1.576
X-62.649 Y0.84
X-62.668 Y0.102
X-62.659 Y-0.636
X-62.624 Y-1.373
X-62.561 Y-2.108
X-62.472 Y-2.84
X-62.356 Y-3.569
X-62.214 Y-4.293
X-62.045 Y-5.011
X-61.85 Y-5.723
X-61.63 Y-6.427
X-61.383 Y-7.122
X-61.11 Y-7.808
X-60.812 Y-8.483
X-60.49 Y-9.146
X-60.144 Y-9.798
X-59.775 Y-10.437
X-59.382 Y-11.062
X-58.967 Y-11.672
X-58.53 Y-12.266
X-58.071 Y-12.844
X-57.592 Y-13.404
X-57.092 Y-13.947
X-56.573 Y-14.472
X-56.036 Y-14.977
X-55.48 Y-15.463
X-54.907 Y-15.927
X-54.317 Y-16.37
X-53.711 Y-16.791
X-53.09 Y-17.189
X-52.455 Y-17.565
X-51.806 Y-17.917
X-51.145 Y-18.245
X-50.473 Y-18.549
X-49.79 Y-18.828
X-49.097 Y-19.082
X-48.396 Y-19.31
X-47.686 Y-19.513
X-46.97 Y-19.689
X-46.248 Y-19.84
X-45.52 Y-19.964
X-44.789 Y-20.062
X-44.055 Y-20.133
X-43.318 Y-20.177
X-42.58 Y-20.193
X-41.843 Y-20.183
X-41.106 Y-20.145
X-40.371 Y-20.081
X-39.639 Y-19.99
X-38.91 Y-19.872
X-38.187 Y-19.729
X-37.469 Y-19.559
X-36.757 Y-19.363
X-36.054 Y-19.141
X-35.358 Y-18.894
X-34.673 Y-18.622
X-33.997 Y-18.325
X-33.332 Y-18.005
X-32.679 Y-17.661
X-32.04 Y-17.294
X-31.414 Y-16.903
X-30.803 Y-16.49
X-30.207 Y-16.055
X-29.627 Y-15.599
X-29.063 Y-15.123
X-28.517 Y-14.627
X-27.989 Y-14.111
X-27.479 Y-13.578
X-26.989 Y-13.026
X-26.519 Y-12.457
X-26.07 Y-11.872
X-25.641 Y-11.272
X-25.234 Y-10.656
X-24.849 Y-10.027
X-24.486 Y-9.384
X-24.146 Y-8.73
X-23.83 Y-8.063
X-23.539 Y-7.385
X-23.271 Y-6.697
X-23.029 Y-6.001
X-22.811 Y-5.296
X-22.618 Y-4.584
X-22.45 Y-3.865
X-22.308 Y-3.141
X-22.192 Y-2.412
X-22.102 Y-1.68
X-22.038 Y-0.945
X-22.001 Y-0.208
X-21.989 Y0.529
X-22.004 Y1.267
X-22.045 Y2.004
X-22.111 Y2.739
X-22.204 Y3.471
X-22.324 Y4.199
X-22.469 Y4.922
X-22.641 Y5.64
X-22.838 Y6.35
X-23.06 Y7.054
X-23.307 Y7.749
X-23.579 Y8.435
X-23.875 Y9.111
X-24.194 Y9.776
X-24.538 Y10.429
X-24.904 Y11.07
X-25.294 Y11.696
X-25.705 Y12.309
X-26.137 Y12.907
X-26.59 Y13.489
X-27.064 Y14.055
X-27.557 Y14.603
X-28.07 Y15.134
X-28.602 Y15.645
X-29.152 Y16.137
X-29.719 Y16.609
X-30.302 Y17.061
X-30.901 Y17.492
X-31.514 Y17.902
X-32.142 Y18.29
X-32.783 Y18.655
X-33.437 Y18.997
X-34.103 Y19.315
X-34.779 Y19.61
X-35.466 Y19.88
X-36.161 Y20.127
X-36.865 Y20.349
X-37.576 Y20.546
X-38.293 Y20.717
X-39.017 Y20.863
X-39.745 Y20.982
X-40.477 Y21.076
X-41.211 Y21.143
X-41.948 Y21.185
X-42.686 Y21.201
X-43.423 Y21.191
X-44.16 Y21.156
X-44.895 Y21.094
X-45.628 Y21.006
X-46.357 Y20.892
X-47.082 Y20.753
X-47.801 Y20.589
X-48.514 Y20.4
X-49.22 Y20.186
X-49.919 Y19.948
X-50.608 Y19.686
X-51.288 Y19.399
X-51.957 Y19.088
X-52.615 Y18.754
X-53.261 Y18.398
X-53.894 Y18.019
X-54.514 Y17.618
X-55.119 Y17.197
X-55.71 Y16.754
X-56.284 Y16.291
X-56.842 Y15.808
X-57.382 Y15.305
X-57.905 Y14.785
X-58.409 Y14.246
X-58.895 Y13.691
X-59.361 Y13.119
X-59.807 Y12.531
X-60.232 Y11.928
X-60.636 Y11.311
X-61.017 Y10.679
X-61.377 Y10.035
X-61.714 Y9.379
X-62.029 Y8.711
X-62.32 Y8.033
X-62.588 Y7.346
X-62.831 Y6.649
X-63.051 Y5.945
X-63.246 Y5.233
X-63.415 Y4.515
X-63.56 Y3.792
X-63.68 Y3.064
X-63.775 Y2.332
X-63.844 Y1.598
X-63.889 Y0.861
X-63.908 Y0.123
X-63.9 Y-0.614
X-63.867 Y-1.351
X-63.809 Y-2.087
X-63.725 Y-2.82
X-63.616 Y-3.55
X-63.482 Y-4.275
X-63.324 Y-4.996
X-63.14 Y-5.711
X-62.933 Y-6.418
X-62.7 Y-7.119
X-62.444 Y-7.81
X-62.163 Y-8.493
X-61.86 Y-9.165
X-61.533 Y-9.827
X-61.184 Y-10.477
X-60.813 Y-11.115
X-60.421 Y-11.74
X-60.006 Y-12.35
X-59.571 Y-12.946
X-59.115 Y-13.526
X-58.639 Y-14.09
X-58.145 Y-14.637
X-57.632 Y-15.167
X-57.101 Y-15.68
X-56.553 Y-16.174
X-55.988 Y-16.648
X-55.407 Y-17.103
X-54.81 Y-17.538
X-54.199 Y-17.951
X-53.575 Y-18.344
X-52.937 Y-18.714
X-52.286 Y-19.063
X-51.625 Y-19.389
X-50.952 Y-19.693
X-50.269 Y-19.972
X-49.577 Y-20.228
X-48.877 Y-20.459
X-48.168 Y-20.666
X-47.454 Y-20.849
X-46.733 Y-21.007
X-46.007 Y-21.14
X-45.277 Y-21.249
X-44.544 Y-21.333
X-43.809 Y-21.391
X-43.072 Y-21.423
X-42.334 Y-21.43
X-41.596 Y-21.412
X-40.86 Y-21.369
X-40.125 Y-21.3
X-39.393 Y-21.207
X-38.665 Y-21.088
X-37.941 Y-20.945
X-37.223 Y-20.776
X-36.511 Y-20.583
X-35.806 Y-20.365
X-35.109 Y-20.123
X-34.421 Y-19.858
X-33.741 Y-19.569
X-33.072 Y-19.258
X-32.414 Y-18.925
X-31.768 Y-18.569
X-31.134 Y-18.191
X-30.514 Y-17.792
X-29.907 Y-17.372
X-29.315 Y-16.932
X-28.738 Y-16.472
X-28.176 Y-15.993
X-27.631 Y-15.496
X-27.103 Y-14.981
X-26.593 Y-14.448
X-26.102 Y-13.897
X-25.629 Y-13.331
X-25.176 Y-12.748
X-24.743 Y-12.151
X-24.329 Y-11.54
X-23.937 Y-10.916
X-23.565 Y-10.278
X-23.214 Y-9.629
X-22.886 Y-8.968
X-22.58 Y-8.297
X-22.297 Y-7.616
X-22.036 Y-6.925
X-21.799 Y-6.227
X-21.586 Y-5.52
X-21.396 Y-4.808
X-21.23 Y-4.089
X-21.088 Y-3.365
X-20.97 Y-2.636
X-20.878 Y-1.904
X-20.811 Y-1.169
X-20.768 Y-0.433
X-20.75 Y0.305
X-20.757 Y1.043
X-20.788 Y1.78
X-20.844 Y2.515
X-20.925 Y3.249
X-21.03 Y3.979
X-21.16 Y4.705
X-21.314 Y5.427
X-21.493 Y6.143
X-21.695 Y6.852
X-21.921 Y7.555
X-22.171 Y8.249
X-22.443 Y8.935
X-22.738 Y9.611
X-23.057 Y10.276
X-23.398 Y10.93
X-23.761 Y11.573
X-24.146 Y12.202
X-24.551 Y12.819
X-24.976 Y13.422
X-25.422 Y14.01
X-25.886 Y14.583
X-26.37 Y15.14
X-26.872 Y15.681
X-27.393 Y16.204
X-27.93 Y16.709
X-28.484 Y17.196
X-29.055 Y17.665
X-29.64 Y18.114
X-30.24 Y18.543
X-30.854 Y18.952
X-31.481 Y19.341
X-32.122 Y19.707
X-32.774 Y20.052
X-33.438 Y20.374
X-34.112 Y20.674
X-34.795 Y20.952
X-35.488 Y21.206
X-36.188 Y21.438
X-36.896 Y21.646
X-37.611 Y21.831
X-38.331 Y21.991
X-39.056 Y22.127
X-39.785 Y22.239
X-40.518 Y22.326
X-41.253 Y22.389
X-41.99 Y22.428
X-42.727 Y22.442
X-43.465 Y22.432
X-44.202 Y22.397
X-44.938 Y22.337
X-45.671 Y22.252
X-46.4 Y22.143
X-47.126 Y22.01
X-47.847 Y21.853
X-48.562 Y21.673
X-49.271 Y21.469
X-49.974 Y21.242
X-50.668 Y20.992
X-51.353 Y20.719
X-52.029 Y20.424
X-52.695 Y20.106
X-53.35 Y19.767
X-53.994 Y19.406
X-54.626 Y19.024
X-55.244 Y18.623
X-55.849 Y18.2
X-56.44 Y17.758
X-57.016 Y17.297
X-57.575 Y16.816
X-58.119 Y16.317
X-58.646 Y15.801
X-59.156 Y15.267
X-59.648 Y14.717
X-60.122 Y14.152
X-60.577 Y13.571
X-61.013 Y12.976
X-61.429 Y12.367
X-61.825 Y11.744
X-62.2 Y11.109
X-62.554 Y10.462
X-62.887 Y9.803
X-63.198 Y9.134
X-63.488 Y8.456
X-63.755 Y7.768
X-64. Y7.072
X-64.221 Y6.368
X-64.418 Y5.657
X-64.592 Y4.94
X-64.742 Y4.218
X-64.869 Y3.491
X-64.973 Y2.76
X-65.052 Y2.027
X-65.108 Y1.291
X-65.139 Y0.554
X-65.147 Y-0.184
X-65.13 Y-0.922
X-65.089 Y-1.658
X-65.024 Y-2.393
X-64.935 Y-3.126
X-64.823 Y-3.855
X-64.687 Y-4.58
X-64.527 Y-5.3
X-64.345 Y-6.015
X-64.138 Y-6.724
X-63.908 Y-7.425
X-63.655 Y-8.118
X-63.38 Y-8.802
X-63.083 Y-9.478
X-62.763 Y-10.143
X-62.423 Y-10.797
X-62.062 Y-11.441
X-61.68 Y-12.072
X-61.277 Y-12.69
X-60.854 Y-13.295
X-60.412 Y-13.885
X-59.951 Y-14.461
X-59.471 Y-15.022
X-58.973 Y-15.567
X-58.459 Y-16.095
X-57.927 Y-16.607
X-57.379 Y-17.101
X-56.815 Y-17.576
X-56.235 Y-18.033
X-55.641 Y-18.47
X-55.033 Y-18.888
X-54.412 Y-19.286
X-53.778 Y-19.663
X-53.132 Y-20.02
X-52.475 Y-20.356
X-51.807 Y-20.67
X-51.13 Y-20.962
X-50.443 Y-21.232
X-49.748 Y-21.479
X-49.045 Y-21.704
X-48.335 Y-21.905
X-47.619 Y-22.084
X-46.898 Y-22.239
X-46.172 Y-22.371
X-45.442 Y-22.48
X-44.709 Y-22.564
X-43.974 Y-22.624
X-43.237 Y-22.66
X-42.499 Y-22.672
X-41.762 Y-22.66
X-41.025 Y-22.624
X-40.289 Y-22.564
X-39.556 Y-22.48
X-38.826 Y-22.373
X-38.1 Y-22.243
X-37.379 Y-22.089
X-36.663 Y-21.911
X-35.953 Y-21.71
X-35.25 Y-21.486
X-34.554 Y-21.24
X-33.867 Y-20.972
X-33.188 Y-20.682
X-32.519 Y-20.37
X-31.861 Y-20.037
X-31.214 Y-19.683
X-30.579 Y-19.308
X-29.956 Y-18.912
X-29.346 Y-18.496
X-28.75 Y-18.062
X-28.168 Y-17.608
X-27.601 Y-17.137
X-27.048 Y-16.647
X-26.512 Y-16.141
X-25.992 Y-15.617
X-25.49 Y-15.077
X-25.004 Y-14.521
X-24.537 Y-13.95
X-24.088 Y-13.365
X-23.658 Y-12.765
X-23.247 Y-12.153
X-22.855 Y-11.527
X-22.483 Y-10.89
X-22.132 Y-10.241
X-21.802 Y-9.581
X-21.493 Y-8.911
X-21.206 Y-8.232
X-20.94 Y-7.543
X-20.697 Y-6.847
X-20.475 Y-6.143
X-20.276 Y-5.433
X-20.099 Y-4.717
X-19.944 Y-3.995
X-19.813 Y-3.269
X-19.706 Y-2.539
X-19.622 Y-1.806
X-19.561 Y-1.071
X-19.523 Y-0.334
X-19.509 Y0.404
X-19.518 Y1.142
X-19.55 Y1.879
X-19.605 Y2.614
X-19.685 Y3.348
X-19.788 Y4.078
X-19.914 Y4.805
X-20.064 Y5.528
X-20.237 Y6.245
X-20.432 Y6.957
X-20.649 Y7.662
X-20.889 Y8.359
X-21.151 Y9.049
X-21.434 Y9.73
X-21.74 Y10.402
X-22.066 Y11.064
X-22.414 Y11.714
X-22.782 Y12.354
X-23.171 Y12.981
X-23.578 Y13.596
X-24.005 Y14.198
X-24.451 Y14.786
X-24.915 Y15.359
X-25.398 Y15.917
X-25.898 Y16.459
X-26.416 Y16.985
X-26.95 Y17.494
X-27.5 Y17.986
X-28.065 Y18.461
X-28.644 Y18.917
X-29.238 Y19.355
X-29.845 Y19.774
X-30.466 Y20.174
X-31.099 Y20.553
X-31.743 Y20.912
X-32.399 Y21.251
X-33.065 Y21.568
X-33.741 Y21.864
X-34.425 Y22.139
X-35.118 Y22.393
X-35.819 Y22.624
X-36.526 Y22.833
X-37.24 Y23.019
X-37.96 Y23.183
X-38.684 Y23.323
X-39.413 Y23.44
X-40.144 Y23.534
X-40.879 Y23.605
X-41.615 Y23.653
X-42.352 Y23.678
X-43.09 Y23.68
X-43.828 Y23.659
X-44.564 Y23.614
X-45.299 Y23.546
X-46.031 Y23.455
X-46.76 Y23.34
X-47.485 Y23.204
X-48.205 Y23.044
X-48.92 Y22.863
X-49.63 Y22.659
X-50.332 Y22.433
X-51.027 Y22.185
X-51.713 Y21.915
X-52.391 Y21.623
X-53.059 Y21.311
X-53.718 Y20.977
X-54.365 Y20.624
X-55.002 Y20.251
X-55.626 Y19.858
X-56.238 Y19.446
X-56.837 Y19.014
X-57.422 Y18.565
X-57.992 Y18.097
X-58.548 Y17.611
X-59.088 Y17.108
X-59.612 Y16.589
X-60.12 Y16.054
X-60.611 Y15.503
X-61.085 Y14.938
X-61.541 Y14.358
X-61.978 Y13.764
X-62.397 Y13.156
X-62.796 Y12.535
X-63.176 Y11.903
X-63.536 Y11.259
X-63.876 Y10.604
X-64.196 Y9.939
X-64.495 Y9.265
X-64.773 Y8.582
X-65.03 Y7.89
X-65.265 Y7.191
X-65.478 Y6.484
X-65.669 Y5.771
X-65.838 Y5.053
X-65.985 Y4.33
X-66.109 Y3.603
X-66.211 Y2.872
X-66.29 Y2.139
X-66.347 Y1.403
X-66.38 Y0.666
X-66.39 Y-0.072
X-66.377 Y-0.81
X-66.341 Y-1.547
X-66.283 Y-2.282
X-66.202 Y-3.015
X-66.098 Y-3.746
X-65.973 Y-4.473
X-65.825 Y-5.196
X-65.654 Y-5.914
X-65.462 Y-6.626
X-65.247 Y-7.332
X-65.01 Y-8.031
X-64.752 Y-8.722
X-64.473 Y-9.405
X-64.173 Y-10.079
X-63.852 Y-10.743
X-63.512 Y-11.398
X-63.151 Y-12.041
X-62.77 Y-12.673
X-62.369 Y-13.293
X-61.95 Y-13.9
X-61.511 Y-14.493
X-61.055 Y-15.073
X-60.581 Y-15.638
X-60.09 Y-16.189
X-59.582 Y-16.725
X-59.059 Y-17.244
X-58.519 Y-17.748
X-57.964 Y-18.234
X-57.395 Y-18.703
X-56.811 Y-19.153
X-56.213 Y-19.586
X-55.602 Y-20.
X-54.979 Y-20.395
X-54.344 Y-20.771
X-53.698 Y-21.127
X-53.041 Y-21.463
X-52.374 Y-21.778
X-51.697 Y-22.073
X-51.012 Y-22.346
X-50.318 Y-22.597
X-49.617 Y-22.827
X-48.91 Y-23.036
X-48.196 Y-23.223
X-47.477 Y-23.387
X-46.753 Y-23.53
X-46.025 Y-23.651
X-45.294 Y-23.749
X-44.56 Y-23.824
X-43.824 Y-23.876
X-43.086 Y-23.906
X-42.349 Y-23.913
X-41.611 Y-23.897
X-40.874 Y-23.859
X-40.139 Y-23.798
X-39.406 Y-23.715
X-38.676 Y-23.609
X-37.949 Y-23.48
X-37.227 Y-23.329
X-36.51 Y-23.155
X-35.798 Y-22.96
X-35.093 Y-22.743
X-34.395 Y-22.504
X-33.704 Y-22.245
X-33.022 Y-21.964
X-32.348 Y-21.663
X-31.684 Y-21.342
X-31.03 Y-21.
X-30.387 Y-20.639
X-29.755 Y-20.258
X-29.135 Y-19.858
X-28.528 Y-19.439
X-27.933 Y-19.002
X-27.352 Y-18.547
X-26.785 Y-18.075
X-26.232 Y-17.587
X-25.695 Y-17.081
X-25.173 Y-16.559
X-24.668 Y-16.022
X-24.179 Y-15.469
X-23.707 Y-14.902
X-23.253 Y-14.321
X-22.815 Y-13.726
X-22.396 Y-13.119
X-21.995 Y-12.5
X-21.613 Y-11.869
X-21.25 Y-11.226
X-20.907 Y-10.573
X-20.584 Y-9.91
X-20.28 Y-9.237
X-19.998 Y-8.556
X-19.735 Y-7.866
X-19.494 Y-7.169
X-19.273 Y-6.465
X-19.074 Y-5.755
X-18.896 Y-5.039
X-18.74 Y-4.317
X-18.607 Y-3.592
X-18.495 Y-2.862
X-18.406 Y-2.13
X-18.338 Y-1.395
X-18.293 Y-0.659
X-18.27 Y0.079
X-18.269 Y0.816
X-18.29 Y1.554
X-18.333 Y2.29
X-18.399 Y3.025
X-18.486 Y3.758
X-18.596 Y4.487
X-18.729 Y5.213
X-18.883 Y5.935
X-19.058 Y6.652
X-19.255 Y7.363
X-19.474 Y8.067
X-19.713 Y8.765
X-19.974 Y9.455
X-20.255 Y10.137
X-20.558 Y10.81
X-20.881 Y11.474
X-21.223 Y12.127
X-21.585 Y12.77
X-21.967 Y13.402
X-22.367 Y14.022
X-22.785 Y14.629
X-23.222 Y15.224
X-23.676 Y15.806
X-24.148 Y16.373
X-24.636 Y16.926
X-25.141 Y17.463
X-25.663 Y17.986
X-26.199 Y18.492
X-26.751 Y18.982
X-27.317 Y19.455
X-27.897 Y19.911
X-28.49 Y20.35
X-29.097 Y20.77
X-29.716 Y21.172
X-30.347 Y21.554
X-30.989 Y21.917
X-31.642 Y22.261
X-32.305 Y22.585
X-32.977 Y22.889
X-33.658 Y23.173
X-34.347 Y23.436
X-35.044 Y23.679
X-35.748 Y23.901
X-36.458 Y24.101
X-37.174 Y24.28
X-37.894 Y24.437
X-38.62 Y24.572
X-39.349 Y24.686
X-40.081 Y24.778
X-40.815 Y24.848
X-41.552 Y24.896
X-42.289 Y24.922
X-43.027 Y24.925
X-43.764 Y24.906
X-44.501 Y24.865
X-45.236 Y24.802
X-45.969 Y24.717
X-46.699 Y24.61
X-47.426 Y24.482
X-48.148 Y24.332
X-48.866 Y24.161
X-49.578 Y23.969
X-50.284 Y23.756
X-50.984 Y23.522
X-51.676 Y23.266
X-52.361 Y22.991
X-53.037 Y22.695
X-53.704 Y22.379
X-54.361 Y22.044
X-55.008 Y21.689
X-55.644 Y21.316
X-56.269 Y20.924
X-56.882 Y20.513
X-57.482 Y20.084
X-58.07 Y19.637
X-58.643 Y19.173
X-59.203 Y18.692
X-59.748 Y18.195
X-60.278 Y17.682
X-60.793 Y17.154
X-61.292 Y16.61
X-61.775 Y16.053
X-62.241 Y15.481
X-62.69 Y14.895
X-63.122 Y14.297
X-63.535 Y13.686
X-63.931 Y13.063
X-64.308 Y12.429
X-64.666 Y11.783
X-65.005 Y11.128
X-65.325 Y10.463
X-65.625 Y9.789
X-65.904 Y9.106
X-66.164 Y8.416
X-66.402 Y7.718
X-66.62 Y7.013
X-66.817 Y6.301
X-66.993 Y5.585
X-67.147 Y4.864
X-67.281 Y4.138
X-67.393 Y3.409
X-67.484 Y2.677
X-67.554 Y1.942
X-67.601 Y1.206
X-67.627 Y0.468
X-67.631 Y-0.269
X-67.613 Y-1.007
X-67.574 Y-1.744
X-67.513 Y-2.479
X-67.431 Y-3.212
X-67.327 Y-3.943
X-67.202 Y-4.67
X-67.056 Y-5.393
X-66.887 Y-6.112
X-66.698 Y-6.825
X-66.488 Y-7.532
X-66.257 Y-8.233
X-66.005 Y-8.926
X-65.734 Y-9.612
X-65.442 Y-10.29
X-65.131 Y-10.959
X-64.801 Y-11.619
X-64.451 Y-12.268
X-64.082 Y-12.907
X-63.695 Y-13.535
X-63.289 Y-14.151
X-62.865 Y-14.755
X-62.423 Y-15.346
X-61.965 Y-15.925
X-61.49 Y-16.489
X-60.999 Y-17.039
X-60.491 Y-17.575
X-59.969 Y-18.096
X-59.431 Y-18.601
X-58.878 Y-19.09
X-58.311 Y-19.562
X-57.73 Y-20.017
X-57.137 Y-20.455
X-56.53 Y-20.875
X-55.912 Y-21.278
X-55.282 Y-21.663
X-54.642 Y-22.029
X-53.991 Y-22.376
X-53.33 Y-22.703
X-52.659 Y-23.011
X-51.98 Y-23.3
X-51.292 Y-23.568
X-50.597 Y-23.815
X-49.896 Y-24.043
X-49.187 Y-24.25
X-48.473 Y-24.436
X-47.754 Y-24.601
X-47.031 Y-24.745
X-46.303 Y-24.867
X-45.572 Y-24.968
X-44.839 Y-25.048
X-44.103 Y-25.105
X-43.366 Y-25.141
X-42.629 Y-25.156
X-41.891 Y-25.149
X-41.153 Y-25.12
X-40.417 Y-25.071
X-39.683 Y-24.999
X-38.951 Y-24.907
X-38.222 Y-24.793
X-37.497 Y-24.657
X-36.776 Y-24.5
X-36.06 Y-24.322
X-35.349 Y-24.124
X-34.645 Y-23.905
X-33.947 Y-23.665
X-33.256 Y-23.406
X-32.573 Y-23.126
X-31.899 Y-22.827
X-31.234 Y-22.508
X-30.578 Y-22.17
X-29.932 Y-21.812
X-29.297 Y-21.437
X-28.674 Y-21.042
X-28.062 Y-20.631
X-27.462 Y-20.201
X-26.874 Y-19.755
X-26.3 Y-19.292
X-25.739 Y-18.813
X-25.192 Y-18.317
X-24.66 Y-17.806
X-24.142 Y-17.28
X-23.641 Y-16.739
X-23.155 Y-16.184
X-22.685 Y-15.615
X-22.231 Y-15.033
X-21.794 Y-14.439
X-21.375 Y-13.832
X-20.973 Y-13.213
X-20.589 Y-12.583
X-20.223 Y-11.942
X-19.876 Y-11.291
X-19.548 Y-10.63
X-19.239 Y-9.96
X-18.95 Y-9.282
X-18.679 Y-8.595
X-18.429 Y-7.901
X-18.198 Y-7.2
X-17.987 Y-6.493
X-17.797 Y-5.78
X-17.627 Y-5.062
X-17.478 Y-4.34
X-17.35 Y-3.613
X-17.243 Y-2.883
X-17.157 Y-2.15
X-17.092 Y-1.415
X-17.048 Y-0.679
X-17.025 Y0.059
X-17.023 Y0.796
X-17.043 Y1.534
X-17.083 Y2.271
X-17.146 Y3.006
X-17.229 Y3.739
X-17.334 Y4.469
X-17.459 Y5.196
X-17.605 Y5.92
X-17.772 Y6.638
X-17.96 Y7.352
X-18.167 Y8.06
X-18.395 Y8.762
X-18.643 Y9.457
X-18.911 Y10.144
X-19.199 Y10.823
X-19.506 Y11.494
X-19.832 Y12.156
X-20.178 Y12.808
X-20.542 Y13.45
X-20.924 Y14.081
X-21.323 Y14.701
X-21.741 Y15.309
X-22.176 Y15.905
X-22.628 Y16.488
X-23.097 Y17.058
X-23.582 Y17.614
X-24.082 Y18.156
X-24.599 Y18.683
X-25.13 Y19.196
X-25.675 Y19.693
X-26.234 Y20.174
X-26.807 Y20.639
X-27.393 Y21.088
X-27.991 Y21.519
X-28.602 Y21.933
X-29.224 Y22.33
X-29.858 Y22.708
X-30.502 Y23.068
X-31.156 Y23.409
X-31.819 Y23.732
X-32.492 Y24.035
X-33.172 Y24.32
X-33.861 Y24.585
X-34.557 Y24.829
X-35.26 Y25.054
X-35.969 Y25.258
X-36.684 Y25.442
X-37.403 Y25.605
X-38.127 Y25.748
X-38.855 Y25.87
X-39.585 Y25.971
X-40.319 Y26.052
X-41.054 Y26.112
X-41.791 Y26.151
X-42.529 Y26.168
X-43.266 Y26.165
X-44.004 Y26.14
X-44.74 Y26.095
X-45.475 Y26.028
X-46.208 Y25.941
X-46.937 Y25.833
X-47.664 Y25.704
X-48.387 Y25.555
X-49.105 Y25.386
X-49.818 Y25.196
X-50.525 Y24.985
X-51.226 Y24.755
X-51.92 Y24.505
X-52.607 Y24.235
X-53.286 Y23.946
X-53.956 Y23.639
X-54.618 Y23.312
X-55.27 Y22.967
X-55.912 Y22.604
X-56.544 Y22.223
X-57.164 Y21.824
X-57.773 Y21.407
X-58.37 Y20.973
X-58.955 Y20.523
X-59.526 Y20.056
X-60.084 Y19.574
X-60.629 Y19.076
X-61.159 Y18.562
X-61.674 Y18.035
X-62.175 Y17.492
X-62.659 Y16.936
X-63.128 Y16.366
X-63.58 Y15.783
X-64.016 Y15.188
X-64.435 Y14.581
X-64.837 Y13.962
X-65.221 Y13.332
X-65.587 Y12.691
X-65.936 Y12.041
X-66.266 Y11.381
X-66.578 Y10.712
X-66.87 Y10.035
X-67.144 Y9.35
X-67.397 Y8.657
X-67.632 Y7.957
X-67.846 Y7.251
X-68.041 Y6.54
X-68.215 Y5.823
X-68.37 Y5.101
X-68.504 Y4.376
X-68.618 Y3.647
X-68.711 Y2.915
X-68.784 Y2.181
X-68.835 Y1.445
X-68.866 Y0.708
X-68.876 Y-0.03
X-68.866 Y-0.768
X-68.835 Y-1.505
X-68.783 Y-2.241
X-68.712 Y-2.975
X-68.619 Y-3.707
X-68.507 Y-4.436
X-68.374 Y-5.162
X-68.22 Y-5.884
X-68.046 Y-6.601
X-67.853 Y-7.313
X-67.639 Y-8.019
X-67.405 Y-8.719
X-67.153 Y-9.412
X-66.881 Y-10.098
X-66.59 Y-10.776
X-66.28 Y-11.446
X-65.951 Y-12.106
X-65.604 Y-12.757
X-65.238 Y-13.398
X-64.855 Y-14.028
X-64.454 Y-14.648
X-64.036 Y-15.256
X-63.602 Y-15.852
X-63.15 Y-16.436
X-62.683 Y-17.007
X-62.2 Y-17.565
X-61.702 Y-18.109
X-61.189 Y-18.639
X-60.661 Y-19.155
X-60.119 Y-19.655
X-59.563 Y-20.14
X-58.994 Y-20.609
X-58.411 Y-21.062
X-57.817 Y-21.499
X-57.21 Y-21.919
X-56.592 Y-22.322
X-55.963 Y-22.708
X-55.323 Y-23.075
X-54.673 Y-23.425
X-54.014 Y-23.756
X-53.346 Y-24.068
X-52.669 Y-24.362
X-51.984 Y-24.636
X-51.292 Y-24.891
X-50.592 Y-25.127
X-49.887 Y-25.344
X-49.176 Y-25.541
X-48.46 Y-25.718
X-47.739 Y-25.875
X-47.014 Y-26.011
X-46.285 Y-26.127
X-45.554 Y-26.223
X-44.82 Y-26.299
X-44.084 Y-26.353
X-43.347 Y-26.387
X-42.609 Y-26.401
X-41.871 Y-26.395
X-41.134 Y-26.367
X-40.398 Y-26.319
X-39.663 Y-26.25
X-38.931 Y-26.161
X-38.201 Y-26.051
X-37.475 Y-25.921
X-36.753 Y-25.771
X-36.035 Y-25.601
X-35.322 Y-25.41
X-34.614 Y-25.201
X-33.913 Y-24.972
X-33.218 Y-24.723
X-32.531 Y-24.456
X-31.851 Y-24.169
X-31.179 Y-23.864
X-30.516 Y-23.54
X-29.863 Y-23.198
X-29.219 Y-22.838
X-28.585 Y-22.46
X-27.962 Y-22.065
X-27.35 Y-21.653
X-26.749 Y-21.224
X-26.161 Y-20.779
X-25.585 Y-20.318
X-25.022 Y-19.841
X-24.472 Y-19.348
X-23.937 Y-18.841
X-23.415 Y-18.319
X-22.908 Y-17.783
X-22.416 Y-17.233
X-21.939 Y-16.671
X-21.478 Y-16.095
X-21.032 Y-15.507
X-20.602 Y-14.907
X-20.189 Y-14.296
X-19.793 Y-13.673
X-19.415 Y-13.04
X-19.053 Y-12.397
X-18.71 Y-11.744
X-18.384 Y-11.082
X-18.077 Y-10.411
X-17.788 Y-9.732
X-17.517 Y-9.046
X-17.266 Y-8.352
X-17.033 Y-7.652
X-16.82 Y-6.945
X-16.627 Y-6.233
X-16.453 Y-5.516
X-16.299 Y-4.795
X-16.164 Y-4.069
X-16.05 Y-3.34
X-15.956 Y-2.609
X-15.881 Y-1.875
X-15.827 Y-1.139
X-15.792 Y-0.402
X-15.778 Y0.336
X-15.784 Y1.074
X-15.81 Y1.811
X-15.856 Y2.547
X-15.923 Y3.282
X-16.01 Y4.015
X-16.117 Y4.745
X-16.244 Y5.472
X-16.39 Y6.195
X-16.556 Y6.914
X-16.743 Y7.628
X-16.948 Y8.336
X-17.174 Y9.039
X-17.418 Y9.735
X-17.682 Y10.424
X-17.964 Y11.106
X-18.265 Y11.779
X-18.584 Y12.444
X-18.922 Y13.101
X-19.277 Y13.747
X-19.65 Y14.384
X-20.039 Y15.01
X-20.446 Y15.626
X-20.87 Y16.23
X-21.31 Y16.822
X-21.766 Y17.402
X-22.238 Y17.969
X-22.725 Y18.523
X-23.227 Y19.064
X-23.744 Y19.591
X-24.275 Y20.103
X-24.82 Y20.6
X-25.378 Y21.083
X-25.949 Y21.55
X-26.533 Y22.001
X-27.129 Y22.436
X-27.737 Y22.854
X-28.356 Y23.255
X-28.986 Y23.64
X-29.626 Y24.007
X-30.276 Y24.357
X-30.935 Y24.688
X-31.602 Y25.002
X-32.279 Y25.298
X-32.962 Y25.575
X-33.654 Y25.833
X-34.352 Y26.072
X-35.056 Y26.292
X-35.766 Y26.493
X-36.481 Y26.674
X-37.201 Y26.835
X-37.925 Y26.978
X-38.653 Y27.1
X-39.383 Y27.202
X-40.116 Y27.285
X-40.852 Y27.347
X-41.588 Y27.389
X-42.326 Y27.411
X-43.063 Y27.413
X-43.801 Y27.395
X-44.538 Y27.357
X-45.273 Y27.299
X-46.007 Y27.221
X-46.738 Y27.123
X-47.467 Y27.006
X-48.192 Y26.869
X-48.913 Y26.712
X-49.629 Y26.536
X-50.341 Y26.341
X-51.047 Y26.126
X-51.747 Y25.892
X-52.44 Y25.64
X-53.126 Y25.369
X-53.805 Y25.079
X-54.475 Y24.772
X-55.138 Y24.446
X-55.791 Y24.103
X-56.434 Y23.742
X-57.068 Y23.364
X-57.691 Y22.968
X-58.303 Y22.556
X-58.903 Y22.128
X-59.492 Y21.684
X-60.069 Y21.224
X-60.633 Y20.748
X-61.184 Y20.258
X-61.722 Y19.753
X-62.247 Y19.233
X-62.757 Y18.7
X-63.252 Y18.153
X-63.732 Y17.594
X-64.198 Y17.021
X-64.647 Y16.436
X-65.081 Y15.839
X-65.499 Y15.231
X-65.9 Y14.612
X-66.285 Y13.982
X-66.652 Y13.342
X-67.002 Y12.693
X-67.335 Y12.034
X-67.649 Y11.367
X-67.946 Y10.691
X-68.224 Y10.008
X-68.484 Y9.317
X-68.725 Y8.62
X-68.948 Y7.917
X-69.151 Y7.207
X-69.336 Y6.493
X-69.501 Y5.774
X-69.648 Y5.051
X-69.774 Y4.324
X-69.882 Y3.594
X-69.969 Y2.862
X-70.037 Y2.127
X-70.085 Y1.391
X-70.114 Y0.653
X-70.122 Y-0.084
X-70.111 Y-0.822
X-70.081 Y-1.559
X-70.03 Y-2.295
X-69.96 Y-3.03
X-69.87 Y-3.762
X-69.761 Y-4.492
X-69.632 Y-5.218
X-69.484 Y-5.941
X-69.316 Y-6.66
X-69.129 Y-7.373
X-68.923 Y-8.082
X-68.699 Y-8.785
X-68.455 Y-9.481
X-68.194 Y-10.171
X-67.914 Y-10.854
X-67.615 Y-11.529
X-67.299 Y-12.195
X-66.966 Y-12.853
X-66.614 Y-13.502
X-66.246 Y-14.141
X-65.86 Y-14.77
X-65.458 Y-15.389
X-65.039 Y-15.996
X-64.605 Y-16.593
X-64.154 Y-17.177
X-63.688 Y-17.749
X-63.207 Y-18.309
X-62.711 Y-18.855
X-62.201 Y-19.388
X-61.677 Y-19.907
X-61.139 Y-20.412
X-60.587 Y-20.902
X-60.023 Y-21.377
X-59.446 Y-21.838
X-58.858 Y-22.282
X-58.257 Y-22.711
X-57.646 Y-23.124
X-57.024 Y-23.52
X-56.391 Y-23.9
X-55.748 Y-24.262
X-55.096 Y-24.607
X-54.435 Y-24.935
X-53.765 Y-25.245
X-53.088 Y-25.537
X-52.402 Y-25.81
X-51.71 Y-26.066
X-51.011 Y-26.302
X-50.307 Y-26.52
X-49.596 Y-26.719
X-48.881 Y-26.899
X-48.16 Y-27.06
X-47.436 Y-27.201
X-46.709 Y-27.323
X-45.978 Y-27.426
X-45.245 Y-27.509
X-44.51 Y-27.573
X-43.773 Y-27.617
X-43.036 Y-27.641
X-42.298 Y-27.646
X-41.56 Y-27.631
X-40.823 Y-27.597
X-40.088 Y-27.542
X-39.353 Y-27.469
X-38.622 Y-27.375
X-37.892 Y-27.263
X-37.167 Y-27.13
X-36.444 Y-26.979
X-35.727 Y-26.809
X-35.013 Y-26.619
X-34.306 Y-26.411
X-33.604 Y-26.184
X-32.908 Y-25.938
X-32.219 Y-25.674
X-31.537 Y-25.391
X-30.863 Y-25.091
X-30.198 Y-24.773
X-29.541 Y-24.438
X-28.893 Y-24.085
X-28.254 Y-23.715
X-27.625 Y-23.329
X-27.007 Y-22.926
X-26.4 Y-22.508
X-25.803 Y-22.073
X-25.219 Y-21.623
X-24.646 Y-21.157
X-24.086 Y-20.677
X-23.539 Y-20.182
X-23.005 Y-19.673
X-22.485 Y-19.15
X-21.978 Y-18.614
X-21.486 Y-18.064
X-21.008 Y-17.502
X-20.545 Y-16.927
X-20.097 Y-16.341
X-19.665 Y-15.743
X-19.249 Y-15.134
X-18.849 Y-14.514
X-18.465 Y-13.884
X-18.098 Y-13.244
X-17.747 Y-12.595
X-17.414 Y-11.936
X-17.098 Y-11.27
X-16.799 Y-10.595
X-16.518 Y-9.913
X-16.255 Y-9.224
X-16.01 Y-8.528
X-15.783 Y-7.826
X-15.575 Y-7.118
X-15.385 Y-6.405
X-15.214 Y-5.687
X-15.062 Y-4.965
X-14.929 Y-4.239
X-14.815 Y-3.51
X-14.72 Y-2.779
X-14.644 Y-2.045
X-14.587 Y-1.309
X-14.55 Y-0.572
X-14.532 Y0.165
X-14.534 Y0.903
X-14.555 Y1.641
X-14.595 Y2.377
X-14.654 Y3.113
X-14.733 Y3.846
X-14.831 Y4.578
X-14.948 Y5.306
X-15.084 Y6.031
X-15.239 Y6.753
X-15.412 Y7.47
X-15.605 Y8.182
X-15.816 Y8.889
X-16.045 Y9.59
X-16.293 Y10.285
X-16.559 Y10.973
X-16.843 Y11.654
X-17.145 Y12.328
X-17.464 Y12.993
X-17.801 Y13.649
X-18.155 Y14.297
X-18.525 Y14.935
X-18.913 Y15.563
X-19.316 Y16.18
X-19.736 Y16.787
X-20.171 Y17.383
X-20.622 Y17.967
X-21.088 Y18.539
X-21.569 Y19.099
X-22.064 Y19.645
X-22.574 Y20.179
X-23.097 Y20.7
X-23.633 Y21.206
X-24.183 Y21.699
X-24.745 Y22.176
X-25.319 Y22.639
X-25.906 Y23.087
X-26.504 Y23.519
X-27.113 Y23.935
X-27.733 Y24.336
X-28.363 Y24.72
X-29.002 Y25.087
X-29.652 Y25.438
X-30.31 Y25.771
X-30.977 Y26.087
X-31.651 Y26.386
X-32.334 Y26.667
X-33.023 Y26.93
X-33.719 Y27.175
X-34.421 Y27.401
X-35.129 Y27.61
X-35.842 Y27.799
X-36.56 Y27.97
X-37.281 Y28.123
X-38.007 Y28.257
X-38.736 Y28.371
X-39.467 Y28.467
X-40.201 Y28.544
X-40.937 Y28.601
X-41.674 Y28.64
X-42.411 Y28.659
X-43.149
X-43.887 Y28.639
X-44.623 Y28.601
X-45.359 Y28.544
X-46.093 Y28.467
X-46.824 Y28.371
X-47.553 Y28.256
X-48.279 Y28.123
X-49.001 Y27.971
X-49.719 Y27.8
X-50.432 Y27.61
X-51.14 Y27.402
X-51.842 Y27.176
X-52.538 Y26.932
X-53.228 Y26.671
X-53.911 Y26.391
X-54.586 Y26.094
X-55.254 Y25.78
X-55.913 Y25.448
X-56.563 Y25.1
X-57.205 Y24.735
X-57.836 Y24.354
X-58.458 Y23.956
X-59.069 Y23.542
X-59.669 Y23.113
X-60.258 Y22.669
X-60.835 Y22.209
X-61.4 Y21.735
X-61.952 Y21.246
X-62.492 Y20.743
X-63.019 Y20.226
X-63.532 Y19.696
X-64.031 Y19.153
X-64.517 Y18.597
X-64.987 Y18.029
X-65.443 Y17.449
X-65.884 Y16.857
X-66.31 Y16.255
X-66.72 Y15.641
X-67.115 Y15.018
X-67.493 Y14.384
X-67.855 Y13.741
X-68.2 Y13.089
X-68.528 Y12.428
X-68.84 Y11.759
X-69.134 Y11.083
X-69.41 Y10.399
X-69.669 Y9.708
X-69.91 Y9.011
X-70.133 Y8.307
X-70.338 Y7.598
X-70.525 Y6.885
X-70.693 Y6.166
X-70.842 Y5.444
X-70.973 Y4.718
X-71.086 Y3.988
X-71.179 Y3.257
X-71.254 Y2.523
X-71.31 Y1.787
X-71.348 Y1.05
X-71.366 Y0.312
Y-0.425
X-71.346 Y-1.163
X-71.308 Y-1.9
X-71.251 Y-2.635
X-71.176 Y-3.369
X-71.081 Y-4.101
X-70.968 Y-4.83
X-70.836 Y-5.556
X-70.686 Y-6.278
X-70.517 Y-6.997
X-70.33 Y-7.71
X-70.125 Y-8.419
X-69.902 Y-9.122
X-69.66 Y-9.819
X-69.401 Y-10.51
X-69.124 Y-11.194
X-68.83 Y-11.871
X-68.518 Y-12.54
X-68.19 Y-13.2
X-67.844 Y-13.852
X-67.483 Y-14.495
X-67.104 Y-15.129
X-66.71 Y-15.753
X-66.3 Y-16.366
X-65.875 Y-16.969
X-65.434 Y-17.561
X-64.979 Y-18.141
X-64.508 Y-18.709
X-64.024 Y-19.266
X-63.525 Y-19.809
X-63.013 Y-20.34
X-62.487 Y-20.858
X-61.948 Y-21.362
X-61.396 Y-21.852
X-60.832 Y-22.328
X-60.256 Y-22.789
X-59.669 Y-23.235
X-59.07 Y-23.666
X-58.46 Y-24.081
X-57.84 Y-24.481
X-57.21 Y-24.865
X-56.57 Y-25.232
X-55.921 Y-25.583
X-55.263 Y-25.918
X-54.597 Y-26.235
X-53.924 Y-26.536
X-53.242 Y-26.819
X-52.554 Y-27.085
X-51.859 Y-27.333
X-51.158 Y-27.563
X-50.452 Y-27.776
X-49.74 Y-27.97
X-49.023 Y-28.146
X-48.303 Y-28.303
X-47.578 Y-28.443
X-46.85 Y-28.563
X-46.119 Y-28.665
X-45.386 Y-28.749
X-44.651 Y-28.814
X-43.915 Y-28.859
X-43.178 Y-28.886
X-42.44 Y-28.894
X-41.702 Y-28.883
X-40.965 Y-28.853
X-40.229 Y-28.805
X-39.494 Y-28.738
X-38.761 Y-28.652
X-38.031 Y-28.547
X-37.303 Y-28.424
X-36.579 Y-28.283
X-35.859 Y-28.123
X-35.143 Y-27.945
X-34.432 Y-27.749
X-33.725 Y-27.535
X-33.025 Y-27.303
X-32.331 Y-27.053
X-31.643 Y-26.786
X-30.962 Y-26.501
X-30.289 Y-26.2
X-29.624 Y-25.881
X-28.966 Y-25.546
X-28.318 Y-25.194
X-27.679 Y-24.825
X-27.049 Y-24.441
X-26.429 Y-24.041
X-25.82 Y-23.625
X-25.221 Y-23.194
X-24.633 Y-22.748
X-24.056 Y-22.287
X-23.492 Y-21.812
X-22.939 Y-21.323
X-22.399 Y-20.821
X-21.872 Y-20.305
X-21.358 Y-19.776
X-20.857 Y-19.234
X-20.37 Y-18.679
X-19.897 Y-18.113
X-19.439 Y-17.535
X-18.995 Y-16.946
X-18.565 Y-16.346
X-18.152 Y-15.735
X-17.753 Y-15.114
X-17.37 Y-14.483
X-17.003 Y-13.843
X-16.652 Y-13.194
X-16.318 Y-12.537
X-16. Y-11.871
X-15.699 Y-11.197
X-15.415 Y-10.516
X-15.148 Y-9.828
X-14.899 Y-9.134
X-14.667 Y-8.433
X-14.452 Y-7.727
X-14.255 Y-7.016
X-14.076 Y-6.301
X-13.915 Y-5.581
X-13.773 Y-4.857
X-13.648 Y-4.13
X-13.541 Y-3.399
X-13.453 Y-2.667
X-13.383 Y-1.932
X-13.332 Y-1.196
X-13.299 Y-0.459
X-13.284 Y0.278
X-13.289 Y1.016
X-13.311 Y1.754
X-13.352 Y2.49
X-13.412 Y3.226
X-13.489 Y3.959
X-13.586 Y4.691
X-13.701 Y5.42
X-13.834 Y6.145
X-13.986 Y6.868
X-14.155 Y7.586
X-14.342 Y8.299
X-14.548 Y9.008
X-14.771 Y9.711
X-15.011 Y10.409
X-15.269 Y11.1
X-15.545 Y11.784
X-15.837 Y12.462
X-16.146 Y13.132
X-16.472 Y13.794
X-16.814 Y14.447
X-17.173 Y15.092
X-17.548 Y15.728
X-17.938 Y16.354
X-18.345 Y16.97
X-18.766 Y17.575
X-19.202 Y18.17
X-19.654 Y18.754
X-20.119 Y19.326
X-20.599 Y19.886
X-21.093 Y20.434
X-21.601 Y20.97
X-22.122 Y21.492
X-22.656 Y22.002
X-23.202 Y22.497
X-23.761 Y22.979
X-24.331 Y23.447
X-24.913 Y23.901
X-25.507 Y24.339
X-26.111 Y24.763
X-26.725 Y25.172
X-27.349 Y25.565
X-27.983 Y25.942
X-28.627 Y26.303
X-29.279 Y26.649
X-29.939 Y26.977
X-30.608 Y27.289
X-31.284 Y27.585
X-31.967 Y27.863
X-32.657 Y28.124
X-33.354 Y28.368
X-34.056 Y28.595
X-34.764 Y28.804
X-35.476 Y28.995
X-36.193 Y29.168
X-36.915 Y29.323
X-37.64 Y29.459
X-38.368 Y29.578
X-39.099 Y29.679
X-39.832 Y29.761
X-40.567 Y29.825
X-41.304 Y29.871
X-42.041 Y29.898
X-42.779 Y29.908
X-43.516 Y29.898
X-44.254 Y29.871
X-44.99 Y29.825
X-45.725 Y29.761
X-46.458 Y29.678
X-47.189 Y29.578
X-47.917 Y29.459
X-48.642 Y29.322
X-49.364 Y29.167
X-50.081 Y28.995
X-50.794 Y28.805
X-51.502 Y28.597
X-52.205 Y28.372
X-52.901 Y28.129
X-53.592 Y27.869
X-54.276 Y27.592
X-54.952 Y27.298
X-55.622 Y26.988
X-56.283 Y26.661
X-56.936 Y26.318
X-57.581 Y25.958
X-58.216 Y25.583
X-58.842 Y25.193
X-59.458 Y24.787
X-60.064 Y24.366
X-60.66 Y23.93
X-61.244 Y23.48
X-61.817 Y23.015
X-62.378 Y22.536
X-62.928 Y22.044
X-63.465 Y21.538
X-63.989 Y21.019
X-64.501 Y20.487
X-64.999 Y19.943
X-65.484 Y19.386
X-65.954 Y18.818
X-66.411 Y18.239
X-66.853 Y17.648
X-67.281 Y17.047
X-67.693 Y16.435
X-68.09 Y15.813
X-68.472 Y15.182
X-68.838 Y14.541
X-69.189 Y13.892
X-69.523 Y13.234
X-69.841 Y12.569
X-70.143 Y11.895
X-70.428 Y11.215
X-70.696 Y10.527
X-70.947 Y9.834
X-71.181 Y9.134
X-71.398 Y8.429
X-71.597 Y7.718
X-71.779 Y7.003
X-71.943 Y6.284
X-72.09 Y5.561
X-72.219 Y4.834
X-72.329 Y4.105
X-72.422 Y3.373
X-72.497 Y2.639
X-72.554 Y1.903
X-72.593 Y1.167
X-72.613 Y0.429
X-72.615 Y-0.309
X-72.6 Y-1.046
X-72.566 Y-1.783
X-72.514 Y-2.519
X-72.444 Y-3.254
X-72.356 Y-3.987
X-72.25 Y-4.717
X-72.126 Y-5.444
X-71.985 Y-6.168
X-71.826 Y-6.889
X-71.649 Y-7.605
X-71.455 Y-8.317
X-71.243 Y-9.024
X-71.014 Y-9.725
X-70.768 Y-10.421
X-70.505 Y-11.11
X-70.225 Y-11.793
X-69.929 Y-12.468
X-69.616 Y-13.136
X-69.286 Y-13.797
X-68.941 Y-14.449
X-68.58 Y-15.092
X-68.203 Y-15.726
X-67.81 Y-16.351
X-67.403 Y-16.966
X-66.98 Y-17.571
X-66.543 Y-18.165
X-66.091 Y-18.748
X-65.625 Y-19.32
X-65.145 Y-19.881
X-64.652 Y-20.429
X-64.145 Y-20.966
X-63.626 Y-21.49
X-63.093 Y-22.001
X-62.549 Y-22.499
X-61.992 Y-22.983
X-61.424 Y-23.454
X-60.845 Y-23.91
X-60.254 Y-24.352
X-59.653 Y-24.78
X-59.041 Y-25.192
X-58.419 Y-25.59
X-57.788 Y-25.972
X-57.148 Y-26.339
X-56.499 Y-26.69
X-55.842 Y-27.025
X-55.176 Y-27.344
X-54.503 Y-27.646
X-53.823 Y-27.931
X-53.136 Y-28.2
X-52.442 Y-28.452
X-51.743 Y-28.687
X-51.038 Y-28.904
X-50.328 Y-29.105
X-49.613 Y-29.288
X-48.894 Y-29.453
X-48.171 Y-29.601
X-47.445 Y-29.731
X-46.716 Y-29.843
X-45.984 Y-29.938
X-45.25 Y-30.015
X-44.515 Y-30.073
X-43.778 Y-30.114
X-43.04 Y-30.136
X-42.303 Y-30.141
X-41.565 Y-30.127
X-40.828 Y-30.096
X-40.092 Y-30.046
X-39.357 Y-29.979
X-38.624 Y-29.893
X-37.893 Y-29.79
X-37.166 Y-29.669
X-36.441 Y-29.529
X-35.72 Y-29.373
X-35.003 Y-29.198
X-34.291 Y-29.007
X-33.583 Y-28.798
X-32.881 Y-28.571
X-32.184 Y-28.328
X-31.494 Y-28.068
X-30.81 Y-27.792
X-30.133 Y-27.499
X-29.463 Y-27.189
X-28.801 Y-26.864
X-28.147 Y-26.522
X-27.501 Y-26.165
X-26.865 Y-25.792
X-26.237 Y-25.404
X-25.619 Y-25.
X-25.012 Y-24.582
X-24.414 Y-24.149
X-23.827 Y-23.702
X-23.251 Y-23.241
X-22.686 Y-22.767
X-22.133 Y-22.278
X-21.592 Y-21.777
X-21.063 Y-21.262
X-20.547 Y-20.735
X-20.044 Y-20.195
X-19.554 Y-19.644
X-19.077 Y-19.081
X-18.614 Y-18.506
X-18.165 Y-17.921
X-17.73 Y-17.325
X-17.309 Y-16.719
X-16.903 Y-16.103
X-16.512 Y-15.477
X-16.136 Y-14.843
X-15.775 Y-14.199
X-15.43 Y-13.547
X-15.101 Y-12.887
X-14.787 Y-12.219
X-14.49 Y-11.543
X-14.209 Y-10.861
X-13.945 Y-10.172
X-13.697 Y-9.477
X-13.466 Y-8.777
X-13.251 Y-8.071
X-13.054 Y-7.36
X-12.874 Y-6.644
X-12.711 Y-5.924
X-12.566 Y-5.201
X-12.439 Y-4.474
X-12.328 Y-3.745
X-12.236 Y-3.013
X-12.161 Y-2.279
X-12.103 Y-1.543
X-12.063 Y-0.807
X-12.041 Y-0.069
X-12.037 Y0.669
X-12.05 Y1.406
X-12.081 Y2.144
X-12.13 Y2.88
X-12.196 Y3.615
X-12.281 Y4.348
X-12.383 Y5.078
X-12.502 Y5.806
X-12.639 Y6.531
X-12.793 Y7.253
X-12.965 Y7.97
X-13.154 Y8.684
X-13.36 Y9.392
X-13.582 Y10.096
X-13.822 Y10.793
X-14.079 Y11.485
X-14.352 Y12.17
X-14.642 Y12.849
X-14.948 Y13.52
X-15.271 Y14.184
X-15.609 Y14.84
X-15.962 Y15.487
X-16.332 Y16.126
X-16.716 Y16.756
X-17.116 Y17.376
X-17.53 Y17.987
X-17.959 Y18.587
X-18.402 Y19.177
X-18.859 Y19.756
X-19.33 Y20.324
X-19.814 Y20.881
X-20.312 Y21.425
X-20.822 Y21.958
X-21.346 Y22.478
X-21.881 Y22.985
X-22.429 Y23.48
X-22.988 Y23.961
X-23.559 Y24.429
X-24.141 Y24.882
X-24.733 Y25.322
X-25.337 Y25.747
X-25.95 Y26.157
X-26.572 Y26.553
X-27.205 Y26.933
X-27.846 Y27.298
X-28.495 Y27.648
X-29.153 Y27.982
X-29.819 Y28.3
X-30.492 Y28.603
X-31.172 Y28.889
X-31.859 Y29.158
X-32.552 Y29.411
X-33.251 Y29.648
X-33.955 Y29.868
X-34.665 Y30.07
X-35.379 Y30.256
X-36.097 Y30.425
X-36.819 Y30.576
X-37.545 Y30.71
X-38.273 Y30.826
X-39.004 Y30.925
X-39.738 Y31.007
X-39.794 Y31.011
X-39.837 Y31.012
X-44.429
X-45.166 Y30.976
X-45.903 Y30.952
X-46.638 Y30.89
X-47.371 Y30.801
X-48.1 Y30.689
X-48.826 Y30.556
X-49.548 Y30.405
X-50.266 Y30.235
X-50.98 Y30.049
X-51.689 Y29.845
X-52.393 Y29.624
X-53.091 Y29.386
X-53.784 Y29.132
X-54.471 Y28.862
X-55.15 Y28.575
X-55.823 Y28.272
X-56.489 Y27.953
X-57.146 Y27.619
X-57.796 Y27.269
X-58.437 Y26.904
X-59.069 Y26.524
X-59.692 Y26.129
X-60.306 Y25.719
X-60.91 Y25.295
X-61.503 Y24.857
X-62.086 Y24.405
X-62.659 Y23.939
X-63.22 Y23.46
X-63.769 Y22.967
X-64.307 Y22.462
X-64.832 Y21.944
X-65.345 Y21.413
X-65.845 Y20.871
X-66.332 Y20.316
X-66.806 Y19.751
X-67.266 Y19.174
X-67.712 Y18.587
X-68.145 Y17.989
X-68.563 Y17.381
X-68.966 Y16.763
X-69.356 Y16.137
X-69.73 Y15.501
X-70.089 Y14.856
X-70.432 Y14.203
X-70.761 Y13.542
X-71.073 Y12.874
X-71.37 Y12.199
X-71.651 Y11.516
X-71.916 Y10.828
X-72.164 Y10.133
X-72.396 Y9.433
X-72.612 Y8.727
X-72.811 Y8.016
X-72.992 Y7.301
X-73.157 Y6.582
X-73.305 Y5.859
X-73.436 Y5.133
X-73.549 Y4.404
X-73.645 Y3.673
X-73.724 Y2.939
X-73.785 Y2.204
X-73.829 Y1.467
X-73.856 Y0.73
X-73.865 Y-0.008
X-73.856 Y-0.746
X-73.831 Y-1.483
X-73.788 Y-2.22
X-73.728 Y-2.955
X-73.65 Y-3.689
X-73.556 Y-4.42
X-73.444 Y-5.15
X-73.315 Y-5.876
X-73.169 Y-6.599
X-73.007 Y-7.319
X-72.827 Y-8.035
X-72.631 Y-8.746
X-72.417 Y-9.452
X-72.188 Y-10.153
X-71.942 Y-10.849
X-71.679 Y-11.539
X-71.401 Y-12.222
X-71.106 Y-12.898
X-70.795 Y-13.567
X-70.468 Y-14.229
X-70.126 Y-14.883
X-69.769 Y-15.528
X-69.397 Y-16.165
X-69.009 Y-16.793
X-68.607 Y-17.412
X-68.191 Y-18.021
X-67.76 Y-18.62
X-67.315 Y-19.208
X-66.857 Y-19.787
X-66.385 Y-20.354
X-65.9 Y-20.91
X-65.403 Y-21.455
X-64.892 Y-21.987
X-64.369 Y-22.508
X-63.835 Y-23.016
X-63.288 Y-23.512
X-62.73 Y-23.994
X-62.161 Y-24.464
X-61.58 Y-24.92
X-60.99 Y-25.362
X-60.389 Y-25.79
X-59.778 Y-26.203
X-59.157 Y-26.602
X-58.527 Y-26.987
X-57.889 Y-27.356
X-57.241 Y-27.71
X-56.586 Y-28.049
X-55.923 Y-28.372
X-55.252 Y-28.68
X-54.574 Y-28.972
X-53.89 Y-29.247
X-53.199 Y-29.507
X-52.503 Y-29.75
X-51.801 Y-29.977
X-51.094 Y-30.187
X-50.382 Y-30.381
X-49.665 Y-30.558
X-48.945 Y-30.718
X-48.221 Y-30.861
X-47.494 Y-30.988
X-47.384 Y-31.004
X-47.348 Y-31.009
X-47.311 Y-31.012
X-47.274
X-38.896
X-38.159 Y-30.976
X-37.424 Y-30.919
X-36.693 Y-30.819
X-35.966 Y-30.689
X-35.245 Y-30.535
X-34.528 Y-30.36
X-33.816 Y-30.167
X-33.109 Y-29.956
X-32.407 Y-29.729
X-31.711 Y-29.485
X-31.02 Y-29.224
X-30.336 Y-28.948
X-29.659 Y-28.656
X-28.988 Y-28.348
X-28.326 Y-28.024
X-27.67 Y-27.684
X-27.023 Y-27.33
X-26.385 Y-26.96
X-25.755 Y-26.576
X-25.134 Y-26.177
X-24.523 Y-25.764
X-23.921 Y-25.337
X-23.33 Y-24.896
X-22.749 Y-24.441
X-22.178 Y-23.973
X-21.619 Y-23.492
X-21.071 Y-22.998
X-20.534 Y-22.492
X-20.01 Y-21.973
X-19.497 Y-21.442
X-18.997 Y-20.899
X-18.51 Y-20.346
X-18.035 Y-19.78
X-17.574 Y-19.205
X-17.126 Y-18.618
X-16.692 Y-18.022
X-16.271 Y-17.416
X-15.865 Y-16.8
X-15.473 Y-16.175
X-15.096 Y-15.541
X-14.733 Y-14.898
X-14.385 Y-14.247
X-14.053 Y-13.589
X-13.736 Y-12.922
X-13.434 Y-12.249
X-13.148 Y-11.569
X-12.878 Y-10.883
X-12.623 Y-10.19
X-12.385 Y-9.492
X-12.162 Y-8.788
X-11.956 Y-8.08
X-11.767 Y-7.367
X-11.594 Y-6.65
X-11.437 Y-5.929
X-11.298 Y-5.204
X-11.175 Y-4.477
X-11.069 Y-3.746
X-10.979 Y-3.014
X-10.907 Y-2.28
X-10.852 Y-1.544
X-10.813 Y-0.807
X-10.792 Y-0.07
X-10.787 Y0.668
X-10.8 Y1.406
X-10.829 Y2.143
X-10.876 Y2.879
X-10.941 Y3.614
X-11.022 Y4.348
X-11.12 Y5.079
X-11.235 Y5.808
X-11.367 Y6.534
X-11.515 Y7.256
X-11.68 Y7.975
X-11.862 Y8.691
X-12.06 Y9.401
X-12.274 Y10.107
X-12.505 Y10.808
X-12.752 Y11.503
X-13.015 Y12.193
X-13.294 Y12.876
X-13.589 Y13.552
X-13.899 Y14.221
X-14.225 Y14.883
X-14.566 Y15.538
X-14.922 Y16.184
X-15.292 Y16.822
X-15.678 Y17.451
X-16.077 Y18.071
X-16.491 Y18.682
X-16.919 Y19.283
X-17.361 Y19.874
X-17.816 Y20.455
X-18.285 Y21.024
X-18.767 Y21.583
X-19.262 Y22.131
X-19.769 Y22.666
X-20.288 Y23.19
X-20.82 Y23.702
X-21.363 Y24.202
X-21.917 Y24.689
X-22.482 Y25.163
X-23.058 Y25.624
X-23.645 Y26.071
X-24.242 Y26.505
X-24.849 Y26.925
X-25.465 Y27.33
X-26.091 Y27.722
X-26.725 Y28.099
X-27.368 Y28.461
X-28.019 Y28.808
X-28.678 Y29.14
X-29.344 Y29.457
X-30.017 Y29.759
X-30.697 Y30.045
X-31.384 Y30.315
X-32.076 Y30.569
X-32.775 Y30.807
X-33.316 Y30.978
X-33.389 Y30.997
X-33.464 Y31.009
X-33.539 Y31.012
X-39.837
G3 X-40.07 Y30.911 I0. J-0.318
G1 X-40.118 Y30.868
X-40.173 Y30.836
X-40.233 Y30.816
X-40.297 Y30.809
X-40.565 Y30.803
X-43.507 Y30.747
X-43.565 Y30.751
X-43.622 Y30.766
X-43.675 Y30.791
G3 X-44.429 Y31.012 I-0.809 J-1.36
G1 X-50.8
X-51.417 Y30.982
X-52.02 Y30.903
X-52.742 Y30.748
X-53.451 Y30.545
X-54.15 Y30.309
X-54.841 Y30.049
X-55.524 Y29.769
X-56.199 Y29.472
X-56.866 Y29.158
X-57.526 Y28.828
X-58.179 Y28.483
X-58.823 Y28.124
X-59.459 Y27.749
X-60.086 Y27.36
X-60.704 Y26.958
X-61.312 Y26.541
X-61.912 Y26.11
X-62.501 Y25.666
X-63.08 Y25.209
X-63.648 Y24.738
X-64.206 Y24.255
X-64.752 Y23.759
X-65.287 Y23.251
X-65.81 Y22.73
X-66.321 Y22.198
X-66.82 Y21.655
X-67.306 Y21.1
X-67.78 Y20.534
X-68.24 Y19.958
X-68.687 Y19.371
X-69.121 Y18.774
X-69.541 Y18.167
X-69.947 Y17.551
X-70.338 Y16.926
X-70.716 Y16.292
X-71.079 Y15.649
X-71.427 Y14.999
X-71.761 Y14.341
X-72.08 Y13.675
X-72.383 Y13.003
X-72.671 Y12.324
X-72.944 Y11.638
X-73.202 Y10.947
X-73.443 Y10.25
X-73.669 Y9.547
X-73.879 Y8.84
X-74.072 Y8.128
X-74.25 Y7.412
X-74.411 Y6.692
X-74.556 Y5.968
X-74.684 Y5.242
X-74.795 Y4.512
X-74.891 Y3.781
X-74.969 Y3.047
X-75.031 Y2.312
X-75.076 Y1.575
X-75.104 Y0.838
X-75.115 Y0.1
X-75.109 Y-0.637
X-75.087 Y-1.375
X-75.048 Y-2.112
X-74.992 Y-2.847
X-74.92 Y-3.582
X-74.831 Y-4.314
X-74.726 Y-5.044
X-74.604 Y-5.772
X-74.466 Y-6.497
X-74.312 Y-7.218
X-74.141 Y-7.936
X-73.955 Y-8.65
X-73.752 Y-9.359
X-73.533 Y-10.064
X-73.298 Y-10.764
X-73.048 Y-11.458
X-72.782 Y-12.146
X-72.5 Y-12.828
X-72.203 Y-13.503
X-71.891 Y-14.171
X-71.563 Y-14.833
X-71.221 Y-15.486
X-70.864 Y-16.132
X-70.492 Y-16.769
X-70.106 Y-17.398
X-69.706 Y-18.018
X-69.291 Y-18.628
X-68.863 Y-19.229
X-68.421 Y-19.82
X-67.967 Y-20.401
X-67.499 Y-20.972
X-67.018 Y-21.532
X-66.525 Y-22.08
X-66.02 Y-22.618
X-65.503 Y-23.144
X-64.974 Y-23.659
X-64.434 Y-24.161
X-63.882 Y-24.651
X-63.32 Y-25.129
X-62.747 Y-25.594
X-62.163 Y-26.045
X-61.57 Y-26.484
X-60.967 Y-26.908
X-60.354 Y-27.319
X-59.732 Y-27.716
X-59.101 Y-28.099
X-58.462 Y-28.467
X-57.814 Y-28.821
X-57.159 Y-29.16
X-56.496 Y-29.484
X-55.826 Y-29.793
X-55.149 Y-30.087
X-54.466 Y-30.364
X-53.776 Y-30.627
X-53.081 Y-30.874
X-52.773 Y-30.975
X-52.697 Y-30.996
X-52.619 Y-31.008
X-52.541 Y-31.012
X-47.274
G3 X-47.098 Y-30.439 I-0.011 J0.317
G1 X-47.155 Y-30.397 Z-6.492
X-47.209 Y-30.358 Z-6.469
X-47.257 Y-30.322 Z-6.431
X-47.298 Y-30.292 Z-6.38
X-47.328 Y-30.27 Z-6.32
X-47.347 Y-30.256 Z-6.253
X-47.354 Y-30.251 Z-6.182
G0 Z5.
X-49.773 Y30.629
Z-5.865
G1 Z-6.182 F1016.
X-49.78 Y30.633 Z-6.253
X-49.8 Y30.645 Z-6.32
X-49.833 Y30.664 Z-6.38
X-49.876 Y30.69 Z-6.431
X-49.928 Y30.721 Z-6.469
X-49.985 Y30.755 Z-6.492
X-50.046 Y30.791 Z-6.5
G3 X-50.8 Y31.012 I-0.809 J-1.36
G1 X-54.488
X-54.84 Y30.995
X-55.247 Y30.942
X-55.758 Y30.832
X-56.464 Y30.621
X-57.151 Y30.353
X-57.824 Y30.05
X-58.485 Y29.722
X-59.135 Y29.374
X-59.777 Y29.01
X-60.409 Y28.63
X-61.033 Y28.235
X-61.647 Y27.827
X-62.253 Y27.405
X-62.849 Y26.97
X-63.435 Y26.522
X-64.011 Y26.061
X-64.577 Y25.588
X-65.133 Y25.103
X-65.677 Y24.605
X-66.211 Y24.095
X-66.733 Y23.574
X-67.244 Y23.042
X-67.743 Y22.498
X-68.23 Y21.944
X-68.705 Y21.379
X-69.166 Y20.804
X-69.615 Y20.218
X-70.051 Y19.623
X-70.474 Y19.018
X-70.883 Y18.404
X-71.279 Y17.782
X-71.661 Y17.151
X-72.03 Y16.511
X-72.384 Y15.864
X-72.724 Y15.209
X-73.05 Y14.547
X-73.361 Y13.878
X-73.658 Y13.203
X-73.94 Y12.521
X-74.207 Y11.833
X-74.459 Y11.14
X-74.696 Y10.441
X-74.917 Y9.737
X-75.124 Y9.029
X-75.315 Y8.316
X-75.49 Y7.6
X-75.649 Y6.879
X-75.793 Y6.155
X-75.92 Y5.429
X-76.032 Y4.7
X-76.128 Y3.968
X-76.208 Y3.234
X-76.271 Y2.499
X-76.318 Y1.763
X-76.349 Y1.026
X-76.364 Y0.288
X-76.362 Y-0.45
X-76.345 Y-1.187
X-76.311 Y-1.924
X-76.261 Y-2.66
X-76.196 Y-3.395
X-76.114 Y-4.129
X-76.017 Y-4.86
X-75.904 Y-5.589
X-75.775 Y-6.315
X-75.63 Y-7.039
X-75.47 Y-7.759
X-75.294 Y-8.476
X-75.102 Y-9.188
X-74.895 Y-9.896
X-74.673 Y-10.6
X-74.435 Y-11.298
X-74.183 Y-11.992
X-73.915 Y-12.679
X-73.632 Y-13.361
X-73.335 Y-14.036
X-73.022 Y-14.704
X-72.696 Y-15.366
X-72.354 Y-16.02
X-71.999 Y-16.666
X-71.629 Y-17.305
X-71.245 Y-17.935
X-70.848 Y-18.557
X-70.437 Y-19.169
X-70.012 Y-19.773
X-69.575 Y-20.367
X-69.125 Y-20.952
X-68.662 Y-21.527
X-68.187 Y-22.091
X-67.7 Y-22.645
X-67.201 Y-23.189
X-66.691 Y-23.721
X-66.169 Y-24.243
X-65.635 Y-24.753
X-65.091 Y-25.251
X-64.536 Y-25.737
X-63.971 Y-26.212
X-63.396 Y-26.673
X-62.81 Y-27.123
X-62.216 Y-27.559
X-61.611 Y-27.982
X-60.998 Y-28.392
X-60.376 Y-28.789
X-59.745 Y-29.172
X-59.106 Y-29.541
X-58.459 Y-29.895
X-57.805 Y-30.236
X-57.143 Y-30.562
X-56.474 Y-30.873
X-56.298 Y-30.95
X-56.202 Y-30.985
X-56.102 Y-31.005
X-56.001 Y-31.012
X-52.541
G3 X-52.364 Y-30.439 I-0.011 J0.317
G1 X-52.421 Y-30.397 Z-6.492
X-52.475 Y-30.358 Z-6.469
X-52.524 Y-30.322 Z-6.431
X-52.564 Y-30.292 Z-6.38
X-52.595 Y-30.27 Z-6.32
X-52.614 Y-30.256 Z-6.253
X-52.62 Y-30.251 Z-6.182
G0 Z5.
X-53.462 Y30.629
Z-5.865
G1 Z-6.182 F1016.
X-53.469 Y30.633 Z-6.253
X-53.489 Y30.645 Z-6.32
X-53.521 Y30.664 Z-6.38
X-53.564 Y30.69 Z-6.431
X-53.616 Y30.721 Z-6.469
X-53.674 Y30.755 Z-6.492
X-53.735 Y30.791 Z-6.5
G3 X-54.488 Y31.012 I-0.809 J-1.36
G1 X-57.338
X-57.675 Y30.996
X-57.986 Y30.955
X-58.387 Y30.869
X-58.893 Y30.718
X-59.577 Y30.451
X-60.241 Y30.129
X-60.887 Y29.773
X-61.519 Y29.393
X-62.14 Y28.994
X-62.751 Y28.58
X-63.351 Y28.151
X-63.942 Y27.709
X-64.523 Y27.255
X-65.094 Y26.787
X-65.655 Y26.308
X-66.206 Y25.817
X-66.746 Y25.315
X-67.276 Y24.801
X-67.795 Y24.276
X-68.302 Y23.741
X-68.798 Y23.194
X-69.282 Y22.638
X-69.754 Y22.071
X-70.214 Y21.494
X-70.662 Y20.907
X-71.097 Y20.311
X-71.519 Y19.706
X-71.929 Y19.093
X-72.325 Y18.47
X-72.708 Y17.84
X-73.078 Y17.201
X-73.434 Y16.555
X-73.776 Y15.901
X-74.105 Y15.241
X-74.419 Y14.573
X-74.72 Y13.9
X-75.006 Y13.22
X-75.278 Y12.534
X-75.536 Y11.842
X-75.779 Y11.146
X-76.008 Y10.444
X-76.221 Y9.738
X-76.42 Y9.028
X-76.604 Y8.313
X-76.773 Y7.595
X-76.927 Y6.873
X-77.065 Y6.148
X-77.188 Y5.421
X-77.296 Y4.691
X-77.388 Y3.959
X-77.465 Y3.225
X-77.526 Y2.49
X-77.571 Y1.754
X-77.601 Y1.016
X-77.615 Y0.279
X-77.614 Y-0.459
X-77.597 Y-1.197
X-77.564 Y-1.934
X-77.516 Y-2.67
X-77.453 Y-3.405
X-77.374 Y-4.139
X-77.279 Y-4.871
X-77.17 Y-5.6
X-77.045 Y-6.327
X-76.905 Y-7.052
X-76.75 Y-7.773
X-76.579 Y-8.491
X-76.394 Y-9.205
X-76.194 Y-9.915
X-75.979 Y-10.621
X-75.75 Y-11.322
X-75.505 Y-12.019
X-75.247 Y-12.709
X-74.973 Y-13.395
X-74.686 Y-14.074
X-74.384 Y-14.747
X-74.068 Y-15.414
X-73.738 Y-16.074
X-73.394 Y-16.727
X-73.036 Y-17.372
X-72.665 Y-18.01
X-72.28 Y-18.639
X-71.882 Y-19.261
X-71.471 Y-19.873
X-71.048 Y-20.477
X-70.611 Y-21.072
X-70.162 Y-21.658
X-69.701 Y-22.234
X-69.228 Y-22.8
X-68.743 Y-23.356
X-68.247 Y-23.902
X-67.739 Y-24.438
X-67.221 Y-24.962
X-66.691 Y-25.476
X-66.151 Y-25.979
X-65.601 Y-26.47
X-65.04 Y-26.95
X-64.469 Y-27.417
X-63.889 Y-27.873
X-63.299 Y-28.317
X-62.701 Y-28.748
X-62.093 Y-29.166
X-61.477 Y-29.572
X-60.852 Y-29.964
X-60.219 Y-30.343
X-59.578 Y-30.709
X-59.185 Y-30.923
X-59.073 Y-30.972
X-58.954 Y-31.002
X-58.831 Y-31.012
X-56.001
G3 X-55.824 Y-30.439 I-0.011 J0.317
G1 X-55.881 Y-30.397 Z-6.492
X-55.935 Y-30.358 Z-6.469
X-55.984 Y-30.322 Z-6.431
X-56.024 Y-30.292 Z-6.38
X-56.055 Y-30.27 Z-6.32
X-56.074 Y-30.256 Z-6.253
X-56.08 Y-30.251 Z-6.182
G0 Z5.
X-56.312 Y30.629
Z-5.865
G1 Z-6.182 F1016.
X-56.319 Y30.633 Z-6.253
X-56.339 Y30.645 Z-6.32
X-56.371 Y30.664 Z-6.38
X-56.415 Y30.69 Z-6.431
X-56.466 Y30.721 Z-6.469
X-56.524 Y30.755 Z-6.492
X-56.585 Y30.791 Z-6.5
G3 X-57.338 Y31.012 I-0.809 J-1.36
G1 X-59.853
X-60.161 Y30.997
X-60.427 Y30.962
X-60.766 Y30.89
X-61.167 Y30.769
X-61.697 Y30.563
X-62.361 Y30.241
X-62.999 Y29.871
X-63.618 Y29.47
X-64.223 Y29.047
X-64.815 Y28.607
X-65.397 Y28.153
X-65.967 Y27.686
X-66.528 Y27.206
X-67.079 Y26.715
X-67.619 Y26.212
X-68.149 Y25.699
X-68.668 Y25.175
X-69.176 Y24.64
X-69.673 Y24.094
X-70.159 Y23.539
X-70.633 Y22.974
X-71.095 Y22.399
X-71.546 Y21.814
X-71.984 Y21.221
X-72.41 Y20.619
X-72.824 Y20.008
X-73.225 Y19.389
X-73.614 Y18.761
X-73.99 Y18.126
X-74.352 Y17.484
X-74.702 Y16.834
X-75.038 Y16.177
X-75.361 Y15.514
X-75.67 Y14.844
X-75.966 Y14.168
X-76.248 Y13.486
X-76.516 Y12.799
X-76.77 Y12.106
X-77.011 Y11.409
X-77.237 Y10.706
X-77.449 Y10.
X-77.646 Y9.289
X-77.829 Y8.574
X-77.997 Y7.856
X-78.151 Y7.134
X-78.29 Y6.41
X-78.415 Y5.682
X-78.524 Y4.953
X-78.618 Y4.221
X-78.697 Y3.487
X-78.761 Y2.752
X-78.81 Y2.016
X-78.844 Y1.279
X-78.863 Y0.541
X-78.867 Y-0.196
X-78.856 Y-0.934
X-78.83 Y-1.671
X-78.789 Y-2.408
X-78.733 Y-3.144
X-78.662 Y-3.878
X-78.576 Y-4.611
X-78.475 Y-5.342
X-78.36 Y-6.071
X-78.23 Y-6.797
X-78.085 Y-7.52
X-77.926 Y-8.241
X-77.752 Y-8.958
X-77.564 Y-9.671
X-77.362 Y-10.381
X-77.145 Y-11.086
X-76.914 Y-11.787
X-76.669 Y-12.483
X-76.41 Y-13.174
X-76.136 Y-13.859
X-75.849 Y-14.539
X-75.549 Y-15.212
X-75.234 Y-15.88
X-74.906 Y-16.541
X-74.564 Y-17.194
X-74.209 Y-17.841
X-73.841 Y-18.481
X-73.46 Y-19.112
X-73.066 Y-19.736
X-72.659 Y-20.352
X-72.24 Y-20.959
X-71.809 Y-21.558
X-71.366 Y-22.148
X-70.91 Y-22.728
X-70.443 Y-23.299
X-69.965 Y-23.861
X-69.475 Y-24.413
X-68.975 Y-24.955
X-68.463 Y-25.487
X-67.941 Y-26.008
X-67.409 Y-26.519
X-66.866 Y-27.019
X-66.314 Y-27.508
X-65.751 Y-27.986
X-65.18 Y-28.452
X-64.598 Y-28.907
X-64.008 Y-29.349
X-63.409 Y-29.78
X-62.802 Y-30.199
X-62.186 Y-30.605
X-61.72 Y-30.898
X-61.596 Y-30.961
X-61.463 Y-31.
X-61.325 Y-31.012
X-58.831
G3 X-58.655 Y-30.439 I-0.011 J0.317
G1 X-58.712 Y-30.397 Z-6.492
X-58.766 Y-30.358 Z-6.469
X-58.814 Y-30.322 Z-6.431
X-58.855 Y-30.292 Z-6.38
X-58.885 Y-30.27 Z-6.32
X-58.904 Y-30.256 Z-6.253
X-58.911 Y-30.251 Z-6.182
G0 Z5.
X-58.827 Y30.629
Z-5.865
G1 Z-6.182 F1016.
X-58.834 Y30.633 Z-6.253
X-58.854 Y30.645 Z-6.32
X-58.886 Y30.664 Z-6.38
X-58.929 Y30.69 Z-6.431
X-58.981 Y30.721 Z-6.469
X-59.039 Y30.755 Z-6.492
X-59.1 Y30.791 Z-6.5
G3 X-59.853 Y31.012 I-0.809 J-1.36
G1 X-62.2
X-62.415 Y31.002
X-62.657 Y30.97
X-62.956 Y30.906
X-63.302 Y30.803
X-63.746 Y30.63
X-64.32 Y30.351
X-64.956 Y29.977
X-65.566 Y29.562
X-66.158 Y29.122
X-66.735 Y28.662
X-67.3 Y28.188
X-67.853 Y27.699
X-68.396 Y27.199
X-68.928 Y26.688
X-69.449 Y26.166
X-69.96 Y25.634
X-70.46 Y25.091
X-70.949 Y24.539
X-71.427 Y23.977
X-71.894 Y23.405
X-72.349 Y22.825
X-72.793 Y22.235
X-73.225 Y21.637
X-73.645 Y21.031
X-74.053 Y20.416
X-74.449 Y19.793
X-74.832 Y19.163
X-75.203 Y18.525
X-75.562 Y17.88
X-75.907 Y17.228
X-76.24 Y16.57
X-76.56 Y15.905
X-76.867 Y15.234
X-77.161 Y14.557
X-77.441 Y13.875
X-77.708 Y13.187
X-77.962 Y12.494
X-78.202 Y11.796
X-78.428 Y11.094
X-78.641 Y10.388
X-78.839 Y9.677
X-79.024 Y8.963
X-79.194 Y8.245
X-79.35 Y7.524
X-79.492 Y6.8
X-79.62 Y6.073
X-79.733 Y5.344
X-79.831 Y4.613
X-79.915 Y3.88
X-79.985 Y3.145
X-80.04 Y2.409
X-80.081 Y1.673
X-80.107 Y0.935
X-80.118 Y0.198
X-80.115 Y-0.54
X-80.098 Y-1.278
X-80.066 Y-2.015
X-80.019 Y-2.751
X-79.958 Y-3.487
X-79.883 Y-4.221
X-79.794 Y-4.953
X-79.69 Y-5.683
X-79.572 Y-6.412
X-79.439 Y-7.138
X-79.293 Y-7.861
X-79.133 Y-8.581
X-78.958 Y-9.298
X-78.77 Y-10.011
X-78.568 Y-10.721
X-78.352 Y-11.426
X-78.122 Y-12.127
X-77.878 Y-12.824
X-77.621 Y-13.515
X-77.35 Y-14.201
X-77.065 Y-14.882
X-76.767 Y-15.557
X-76.456 Y-16.226
X-76.132 Y-16.889
X-75.795 Y-17.545
X-75.445 Y-18.195
X-75.082 Y-18.837
X-74.706 Y-19.472
X-74.318 Y-20.1
X-73.918 Y-20.72
X-73.506 Y-21.331
X-73.082 Y-21.935
X-72.646 Y-22.53
X-72.198 Y-23.117
X-71.739 Y-23.694
X-71.269 Y-24.263
X-70.787 Y-24.822
X-70.295 Y-25.372
X-69.793 Y-25.912
X-69.28 Y-26.442
X-68.756 Y-26.963
X-68.223 Y-27.472
X-67.68 Y-27.972
X-67.127 Y-28.461
X-66.565 Y-28.939
X-65.994 Y-29.405
X-65.413 Y-29.861
X-64.824 Y-30.305
X-64.226 Y-30.737
X-64.019 Y-30.88
X-63.888 Y-30.953
X-63.746 Y-30.997
X-63.597 Y-31.012
X-61.325
G3 X-61.148 Y-30.439 I-0.011 J0.317
G1 X-61.205 Y-30.397 Z-6.492
X-61.259 Y-30.358 Z-6.469
X-61.307 Y-30.322 Z-6.431
X-61.348 Y-30.292 Z-6.38
X-61.378 Y-30.27 Z-6.32
X-61.397 Y-30.256 Z-6.253
X-61.404 Y-30.251 Z-6.182
G0 Z5.
X-61.174 Y30.629
Z-5.865
G1 Z-6.182 F1016.
X-61.181 Y30.633 Z-6.253
X-61.201 Y30.645 Z-6.32
X-61.233 Y30.664 Z-6.38
X-61.277 Y30.69 Z-6.431
X-61.328 Y30.721 Z-6.469
X-61.386 Y30.755 Z-6.492
X-61.447 Y30.791 Z-6.5
G3 X-62.2 Y31.012 I-0.809 J-1.36
G1 X-64.38
X-64.53 Y31.005
X-64.761 Y30.974
X-65.03 Y30.914
X-65.347 Y30.818
X-65.74 Y30.662
X-66.238 Y30.418
X-66.872 Y30.04
X-67.474 Y29.614
X-68.053 Y29.157
X-68.616 Y28.679
X-69.164 Y28.186
X-69.7 Y27.679
X-70.225 Y27.16
X-70.739 Y26.631
X-71.243 Y26.092
X-71.735 Y25.542
X-72.217 Y24.983
X-72.688 Y24.415
X-73.148 Y23.838
X-73.596 Y23.253
X-74.034 Y22.659
X-74.46 Y22.056
X-74.874 Y21.446
X-75.277 Y20.827
X-75.668 Y20.202
X-76.047 Y19.569
X-76.413 Y18.928
X-76.768 Y18.281
X-77.11 Y17.628
X-77.44 Y16.968
X-77.757 Y16.302
X-78.062 Y15.63
X-78.354 Y14.952
X-78.633 Y14.269
X-78.899 Y13.581
X-79.152 Y12.888
X-79.392 Y12.19
X-79.618 Y11.488
X-79.832 Y10.782
X-80.031 Y10.071
X-80.217 Y9.357
X-80.389 Y8.64
X-80.548 Y7.919
X-80.692 Y7.196
X-80.823 Y6.47
X-80.94 Y5.741
X-81.043 Y5.01
X-81.132 Y4.278
X-81.207 Y3.544
X-81.268 Y2.809
X-81.314 Y2.072
X-81.347 Y1.335
X-81.366 Y0.598
X-81.371 Y-0.14
X-81.361 Y-0.878
X-81.338 Y-1.615
X-81.301 Y-2.352
X-81.249 Y-3.088
X-81.184 Y-3.823
X-81.105 Y-4.557
X-81.012 Y-5.289
X-80.905 Y-6.019
X-80.785 Y-6.747
X-80.651 Y-7.472
X-80.503 Y-8.195
X-80.341 Y-8.915
X-80.166 Y-9.632
X-79.978 Y-10.345
X-79.776 Y-11.055
X-79.561 Y-11.76
X-79.332 Y-12.462
X-79.089 Y-13.159
X-78.834 Y-13.851
X-78.565 Y-14.538
X-78.283 Y-15.22
X-77.989 Y-15.896
X-77.681 Y-16.567
X-77.361 Y-17.231
X-77.028 Y-17.89
X-76.682 Y-18.542
X-76.324 Y-19.187
X-75.954 Y-19.825
X-75.572 Y-20.456
X-75.178 Y-21.08
X-74.772 Y-21.696
X-74.354 Y-22.304
X-73.925 Y-22.905
X-73.485 Y-23.497
X-73.034 Y-24.08
X-72.571 Y-24.655
X-72.098 Y-25.221
X-71.614 Y-25.778
X-71.12 Y-26.326
X-70.615 Y-26.865
X-70.101 Y-27.394
X-69.577 Y-27.913
X-69.043 Y-28.422
X-68.499 Y-28.921
X-67.946 Y-29.409
X-67.384 Y-29.888
X-66.814 Y-30.355
X-66.234 Y-30.811
X-66.166 Y-30.863
X-66.029 Y-30.945
X-65.878 Y-30.995
X-65.719 Y-31.012
X-63.597
G3 X-63.42 Y-30.439 I-0.011 J0.317
G1 X-63.477 Y-30.397 Z-6.492
X-63.531 Y-30.358 Z-6.469
X-63.58 Y-30.322 Z-6.431
X-63.62 Y-30.292 Z-6.38
X-63.651 Y-30.27 Z-6.32
X-63.67 Y-30.256 Z-6.253
X-63.676 Y-30.251 Z-6.182
G0 Z5.
X-63.353 Y30.629
Z-5.865
G1 Z-6.182 F1016.
X-63.36 Y30.633 Z-6.253
X-63.38 Y30.645 Z-6.32
X-63.413 Y30.664 Z-6.38
X-63.456 Y30.69 Z-6.431
X-63.508 Y30.721 Z-6.469
X-63.566 Y30.755 Z-6.492
X-63.626 Y30.791 Z-6.5
G3 X-64.38 Y31.012 I-0.809 J-1.36
G1 X-66.392
X-66.542 Y31.005
X-66.765 Y30.973
X-67.014 Y30.916
X-67.31 Y30.823
X-67.67 Y30.677
X-68.113 Y30.455
X-68.672 Y30.116
X-69.27 Y29.684
X-69.84 Y29.216
X-70.391 Y28.725
X-70.925 Y28.216
X-71.447 Y27.694
X-71.956 Y27.161
X-72.454 Y26.616
X-72.941 Y26.062
X-73.418 Y25.499
X-73.884 Y24.927
X-74.338 Y24.346
X-74.782 Y23.757
X-75.216 Y23.159
X-75.637 Y22.554
X-76.048 Y21.941
X-76.447 Y21.321
X-76.835 Y20.693
X-77.211 Y20.058
X-77.576 Y19.417
X-77.928 Y18.768
X-78.269 Y18.114
X-78.597 Y17.453
X-78.914 Y16.787
X-79.218 Y16.115
X-79.51 Y15.437
X-79.789 Y14.754
X-80.056 Y14.066
X-80.31 Y13.374
X-80.552 Y12.676
X-80.78 Y11.975
X-80.995 Y11.269
X-81.197 Y10.559
X-81.386 Y9.846
X-81.562 Y9.13
X-81.724 Y8.41
X-81.797 Y8.057
X-81.806 Y8.007
X-81.811 Y7.958
X-81.813 Y7.907
Y-6.706
X-81.776 Y-7.443
X-81.706 Y-8.178
X-81.587 Y-8.906
X-81.436 Y-9.628
X-81.264 Y-10.345
X-81.073 Y-11.058
X-80.867 Y-11.767
X-80.646 Y-12.471
X-80.412 Y-13.17
X-80.165 Y-13.865
X-79.905 Y-14.556
X-79.631 Y-15.241
X-79.346 Y-15.921
X-79.047 Y-16.596
X-78.736 Y-17.265
X-78.413 Y-17.929
X-78.078 Y-18.586
X-77.73 Y-19.237
X-77.371 Y-19.881
X-77. Y-20.519
X-76.617 Y-21.149
X-76.223 Y-21.773
X-75.817 Y-22.389
X-75.4 Y-22.998
X-74.971 Y-23.599
X-74.532 Y-24.191
X-74.082 Y-24.776
X-73.621 Y-25.352
X-73.15 Y-25.92
X-72.668 Y-26.479
X-72.176 Y-27.029
X-71.674 Y-27.57
X-71.163 Y-28.101
X-70.642 Y-28.624
X-70.111 Y-29.136
X-69.572 Y-29.639
X-69.023 Y-30.132
X-68.465 Y-30.615
X-68.195 Y-30.841
X-68.052 Y-30.934
X-67.89 Y-30.993
X-67.72 Y-31.012
X-65.719
G3 X-65.542 Y-30.439 I-0.011 J0.317
G1 X-65.599 Y-30.397 Z-6.492
X-65.653 Y-30.358 Z-6.469
X-65.702 Y-30.322 Z-6.431
X-65.742 Y-30.292 Z-6.38
X-65.773 Y-30.27 Z-6.32
X-65.792 Y-30.256 Z-6.253
X-65.798 Y-30.251 Z-6.182
G0 Z5.
X-81.429 Y-5.68
Z-5.865
G1 Z-6.182 F1016.
X-81.433 Y-5.687 Z-6.253
X-81.445 Y-5.707 Z-6.32
X-81.464 Y-5.739 Z-6.38
X-81.49 Y-5.782 Z-6.431
X-81.521 Y-5.834 Z-6.469
X-81.555 Y-5.892 Z-6.492
X-81.591 Y-5.953 Z-6.5
G3 X-81.813 Y-6.706 I1.36 J-0.809
G1 Y-11.568
X-81.783 Y-12.153
X-81.71 Y-12.714
X-81.555 Y-13.435
X-81.35 Y-14.144
X-81.112 Y-14.842
X-80.853 Y-15.533
X-80.576 Y-16.217
X-80.284 Y-16.894
X-79.978 Y-17.566
X-79.66 Y-18.232
X-79.33 Y-18.892
X-78.988 Y-19.545
X-78.634 Y-20.193
X-78.268 Y-20.834
X-77.892 Y-21.468
X-77.503 Y-22.095
X-77.104 Y-22.716
X-76.694 Y-23.329
X-76.273 Y-23.935
X-75.841 Y-24.533
X-75.398 Y-25.123
X-74.945 Y-25.705
X-74.481 Y-26.28
X-74.008 Y-26.845
X-73.524 Y-27.403
X-73.031 Y-27.951
X-72.528 Y-28.491
X-72.016 Y-29.022
X-71.494 Y-29.544
X-70.964 Y-30.057
X-70.424 Y-30.56
X-70.132 Y-30.822
X-69.984 Y-30.926
X-69.816 Y-30.991
X-69.636 Y-31.012
X-67.72
G3 X-67.544 Y-30.439 I-0.011 J0.317
G1 X-67.601 Y-30.397 Z-6.492
X-67.655 Y-30.358 Z-6.469
X-67.703 Y-30.322 Z-6.431
X-67.744 Y-30.292 Z-6.38
X-67.774 Y-30.27 Z-6.32
X-67.793 Y-30.256 Z-6.253
X-67.8 Y-30.251 Z-6.182
G0 Z5.
X-81.429 Y-10.542
Z-5.865
G1 Z-6.182 F1016.
X-81.433 Y-10.549 Z-6.253
X-81.445 Y-10.569 Z-6.32
X-81.464 Y-10.601 Z-6.38
X-81.49 Y-10.644 Z-6.431
X-81.521 Y-10.696 Z-6.469
X-81.555 Y-10.754 Z-6.492
X-81.591 Y-10.815 Z-6.5
G3 X-81.813 Y-11.568 I1.36 J-0.809
G1 Y-15.089
X-81.788 Y-15.569
X-81.734 Y-15.986
X-81.618 Y-16.527
X-81.406 Y-17.234
X-81.143 Y-17.923
X-80.849 Y-18.599
X-80.532 Y-19.266
X-80.199 Y-19.924
X-79.852 Y-20.575
X-79.492 Y-21.219
X-79.12 Y-21.856
X-78.737 Y-22.487
X-78.342 Y-23.111
X-77.937 Y-23.727
X-77.522 Y-24.337
X-77.095 Y-24.939
X-76.659 Y-25.534
X-76.212 Y-26.121
X-75.755 Y-26.7
X-75.288 Y-27.271
X-74.811 Y-27.835
X-74.325 Y-28.389
X-73.829 Y-28.936
X-73.324 Y-29.474
X-72.81 Y-30.003
X-72.287 Y-30.523
X-71.993 Y-30.806
X-71.842 Y-30.918
X-71.667 Y-30.989
X-71.48 Y-31.012
X-69.636
G3 X-69.46 Y-30.439 I-0.011 J0.317
G1 X-69.517 Y-30.397 Z-6.492
X-69.571 Y-30.358 Z-6.469
X-69.619 Y-30.322 Z-6.431
X-69.66 Y-30.292 Z-6.38
X-69.69 Y-30.27 Z-6.32
X-69.709 Y-30.256 Z-6.253
X-69.716 Y-30.251 Z-6.182
G0 Z5.
X-81.429 Y-14.063
Z-5.865
G1 Z-6.182 F1016.
X-81.433 Y-14.069 Z-6.253
X-81.445 Y-14.09 Z-6.32
X-81.464 Y-14.122 Z-6.38
X-81.49 Y-14.165 Z-6.431
X-81.521 Y-14.217 Z-6.469
X-81.555 Y-14.275 Z-6.492
X-81.591 Y-14.335 Z-6.5
G3 X-81.813 Y-15.089 I1.36 J-0.809
G1 Y-18.107
X-81.794 Y-18.482
X-81.75 Y-18.817
X-81.658 Y-19.247
X-81.486 Y-19.82
X-81.218 Y-20.508
X-80.905 Y-21.176
X-80.562 Y-21.829
X-80.2 Y-22.472
X-79.823 Y-23.106
X-79.432 Y-23.732
X-79.029 Y-24.35
X-78.615 Y-24.961
X-78.191 Y-25.564
X-77.756 Y-26.161
X-77.312 Y-26.749
X-76.857 Y-27.331
X-76.393 Y-27.904
X-75.919 Y-28.47
X-75.436 Y-29.027
X-74.944 Y-29.577
X-74.442 Y-30.118
X-73.932 Y-30.651
X-73.791 Y-30.793
X-73.637 Y-30.912
X-73.457 Y-30.987
X-73.265 Y-31.012
X-71.48
G3 X-71.303 Y-30.439 I-0.011 J0.317
G1 X-71.36 Y-30.397 Z-6.492
X-71.414 Y-30.358 Z-6.469
X-71.463 Y-30.322 Z-6.431
X-71.503 Y-30.292 Z-6.38
X-71.534 Y-30.27 Z-6.32
X-71.553 Y-30.256 Z-6.253
X-71.559 Y-30.251 Z-6.182
G0 Z5.
X-81.429 Y-17.08
Z-5.865
G1 Z-6.182 F1016.
X-81.433 Y-17.087 Z-6.253
X-81.445 Y-17.107 Z-6.32
X-81.464 Y-17.14 Z-6.38
X-81.49 Y-17.183 Z-6.431
X-81.521 Y-17.235 Z-6.469
X-81.555 Y-17.292 Z-6.492
X-81.591 Y-17.353 Z-6.5
G3 X-81.813 Y-18.107 I1.36 J-0.809
G1 Y-20.789
X-81.798 Y-21.088
X-81.76 Y-21.377
X-81.681 Y-21.746
X-81.543 Y-22.206
X-81.301 Y-22.827
X-80.979 Y-23.491
X-80.619 Y-24.135
X-80.235 Y-24.765
X-79.833 Y-25.384
X-79.418 Y-25.994
X-78.99 Y-26.595
X-78.552 Y-27.189
X-78.104 Y-27.774
X-77.645 Y-28.353
X-77.178 Y-28.923
X-76.7 Y-29.486
X-76.214 Y-30.041
X-75.719 Y-30.588
X-75.541 Y-30.778
X-75.385 Y-30.905
X-75.2 Y-30.985
X-75. Y-31.012
X-73.265
G3 X-73.013 Y-30.502 I0. J0.318
G1 X-73.061 Y-30.439
X-81.066 Y-20.005
G3 X-81.591 Y-20.036 I-0.252 J-0.193
X-81.813 Y-20.789 I1.36 J-0.809
G1 Y-23.136
X-81.795 Y-23.488
X-81.761 Y-23.749
X-81.691 Y-24.076
X-81.573 Y-24.469
X-81.373 Y-24.983
X-81.051 Y-25.647
X-80.68 Y-26.285
X-80.279 Y-26.904
X-79.858 Y-27.51
X-79.422 Y-28.106
X-78.974 Y-28.692
X-78.515 Y-29.27
X-78.046 Y-29.839
X-77.568 Y-30.401
X-77.251 Y-30.761
X-77.092 Y-30.897
X-76.902 Y-30.983
X-76.695 Y-31.012
X-75.
G3 X-74.749 Y-30.5 I0. J0.318
G1 X-74.797 Y-30.439
X-81.067 Y-22.351
G3 X-81.591 Y-22.383 I-0.251 J-0.195
X-81.813 Y-23.136 I1.36 J-0.809
G1 Y-25.484
X-81.801 Y-25.717
X-81.769 Y-25.959
X-81.705 Y-26.257
X-81.601 Y-26.606
X-81.426 Y-27.056
X-81.139 Y-27.646
X-80.765 Y-28.282
X-80.353 Y-28.895
X-79.918 Y-29.49
X-79.466 Y-30.073
X-79.001 Y-30.646
X-78.901 Y-30.76
X-78.742 Y-30.896
X-78.552 Y-30.983
X-78.344 Y-31.012
G3 X-78.083 Y-30.531 I-0.011 J0.317
G1 X-78.148 Y-30.424
X-81.223 Y-25.331
G3 X-81.813 Y-25.484 I-0.272 J-0.164
G1 Y-27.663
X-81.804 Y-27.831
X-81.774 Y-28.061
X-81.715 Y-28.334
X-81.619 Y-28.656
X-81.462 Y-29.058
X-81.212 Y-29.575
X-80.837 Y-30.211
X-80.483 Y-30.723
X-80.469 Y-30.741
X-80.307 Y-30.887
X-80.111 Y-30.98
X-79.895 Y-31.012
G3 X-79.625 Y-30.547 I-0.011 J0.317
G1 X-79.692 Y-30.42
X-81.214 Y-27.526
G3 X-81.813 Y-27.663 I-0.281 J-0.148
G1 Y-29.675
X-81.803 Y-29.859
X-81.774 Y-30.079
X-81.73 Y-30.285
X-81.675 Y-30.469
X-81.647 Y-30.541
X-81.537 Y-30.732
X-81.375 Y-30.883
X-81.176 Y-30.979
X-80.957 Y-31.012
G3 X-80.687 Y-30.548 I-0.011 J0.317
G1 X-80.754 Y-30.42
X-81.214 Y-29.539
G3 X-81.813 Y-29.675 I-0.281 J-0.147
G1 Y-30.681
X-81.81 Y-30.723
X-81.802 Y-30.765
X-81.788 Y-30.807
X-81.766 Y-30.849
X-81.741 Y-30.884
X-81.707 Y-30.92
X-81.678 Y-30.944
X-81.648 Y-30.964
X-81.607 Y-30.986
X-81.565 Y-31.001
X-81.523 Y-31.01
X-81.481 Y-31.012
X-76.695
G3 X-76.518 Y-30.439 I-0.011 J0.317
G1 X-76.575 Y-30.397 Z-6.492
X-76.629 Y-30.358 Z-6.469
X-76.678 Y-30.322 Z-6.431
X-76.718 Y-30.292 Z-6.38
X-76.749 Y-30.27 Z-6.32
X-76.768 Y-30.256 Z-6.253
X-76.774 Y-30.251 Z-6.182
G0 Z5.
X-65.365 Y30.629
Z-5.865
G1 Z-6.182 F1016.
X-65.372 Y30.633 Z-6.253
X-65.392 Y30.645 Z-6.32
X-65.425 Y30.664 Z-6.38
X-65.468 Y30.69 Z-6.431
X-65.52 Y30.721 Z-6.469
X-65.578 Y30.755 Z-6.492
X-65.638 Y30.791 Z-6.5
G3 X-66.392 Y31.012 I-0.809 J-1.36
G1 X-68.236
X-68.415 Y31.004
X-68.625 Y30.976
X-68.848 Y30.928
X-69.117 Y30.848
X-69.44 Y30.722
X-69.82 Y30.538
X-70.292 Y30.26
X-70.896 Y29.835
X-71.465 Y29.365
X-72.009 Y28.867
X-72.534 Y28.349
X-73.044 Y27.816
X-73.542 Y27.271
X-74.028 Y26.716
X-74.502 Y26.151
X-74.966 Y25.577
X-75.419 Y24.995
X-75.862 Y24.405
X-76.293 Y23.806
X-76.714 Y23.2
X-77.124 Y22.587
X-77.523 Y21.966
X-77.911 Y21.338
X-78.287 Y20.704
X-78.652 Y20.062
X-79.005 Y19.415
X-79.347 Y18.761
X-79.677 Y18.101
X-79.996 Y17.435
X-80.302 Y16.764
X-80.596 Y16.088
X-80.879 Y15.406
X-81.149 Y14.719
X-81.407 Y14.028
X-81.652 Y13.332
X-81.775 Y12.966
X-81.796 Y12.889
X-81.808 Y12.811
X-81.813 Y12.732
Y7.907
G3 X-81.239 Y7.731 I0.317 J0.011
G1 X-81.197 Y7.788 Z-6.492
X-81.158 Y7.842 Z-6.469
X-81.122 Y7.89 Z-6.431
X-81.092 Y7.931 Z-6.38
X-81.07 Y7.961 Z-6.32
X-81.056 Y7.98 Z-6.253
X-81.051 Y7.987 Z-6.182
G0 Z5.
X-67.21 Y30.629
Z-5.865
G1 Z-6.182 F1016.
X-67.216 Y30.633 Z-6.253
X-67.237 Y30.645 Z-6.32
X-67.269 Y30.664 Z-6.38
X-67.312 Y30.69 Z-6.431
X-67.364 Y30.721 Z-6.469
X-67.422 Y30.755 Z-6.492
X-67.482 Y30.791 Z-6.5
G3 X-68.236 Y31.012 I-0.809 J-1.36
G1 X-70.08
X-70.25 Y31.004
X-70.434 Y30.98
X-70.65 Y30.934
X-70.916 Y30.854
X-71.203 Y30.742
X-71.564 Y30.567
X-71.984 Y30.32
X-72.528 Y29.937
X-73.096 Y29.466
X-73.634 Y28.961
X-74.151 Y28.434
X-74.651 Y27.892
X-75.136 Y27.336
X-75.61 Y26.771
X-76.072 Y26.195
X-76.523 Y25.612
X-76.964 Y25.02
X-77.394 Y24.42
X-77.813 Y23.813
X-78.222 Y23.199
X-78.62 Y22.578
X-79.007 Y21.949
X-79.383 Y21.315
X-79.748 Y20.673
X-80.102 Y20.026
X-80.444 Y19.372
X-80.775 Y18.713
X-81.095 Y18.048
X-81.402 Y17.377
X-81.699 Y16.702
X-81.755 Y16.567
X-81.787 Y16.474
X-81.806 Y16.378
X-81.813 Y16.281
Y12.732
G3 X-81.239 Y12.555 I0.317 J0.011
G1 X-81.197 Y12.612 Z-6.492
X-81.158 Y12.666 Z-6.469
X-81.122 Y12.715 Z-6.431
X-81.092 Y12.755 Z-6.38
X-81.07 Y12.786 Z-6.32
X-81.056 Y12.805 Z-6.253
X-81.051 Y12.811 Z-6.182
G0 Z5.
X-69.054 Y30.629
Z-5.865
G1 Z-6.182 F1016.
X-69.061 Y30.633 Z-6.253
X-69.081 Y30.645 Z-6.32
X-69.113 Y30.664 Z-6.38
X-69.157 Y30.69 Z-6.431
X-69.208 Y30.721 Z-6.469
X-69.266 Y30.755 Z-6.492
X-69.327 Y30.791 Z-6.5
G3 X-70.08 Y31.012 I-0.809 J-1.36
G1 X-71.757
X-72.015 Y31.
X-72.193 Y30.976
X-72.408 Y30.93
X-72.657 Y30.856
X-72.93 Y30.749
X-73.27 Y30.584
X-73.655 Y30.358
X-74.144 Y30.014
X-74.712 Y29.543
X-75.245 Y29.033
X-75.754 Y28.498
X-76.244 Y27.946
X-76.718 Y27.381
X-77.18 Y26.806
X-77.631 Y26.222
X-78.07 Y25.629
X-78.498 Y25.028
X-78.916 Y24.42
X-79.324 Y23.805
X-79.721 Y23.183
X-80.107 Y22.555
X-80.483 Y21.919
X-80.847 Y21.278
X-81.201 Y20.631
X-81.544 Y19.978
X-81.733 Y19.602
X-81.777 Y19.496
X-81.804 Y19.384
X-81.813 Y19.269
Y16.281
G3 X-81.239 Y16.104 I0.317 J0.011
G1 X-81.197 Y16.161 Z-6.492
X-81.158 Y16.215 Z-6.469
X-81.122 Y16.264 Z-6.431
X-81.092 Y16.304 Z-6.38
X-81.07 Y16.335 Z-6.32
X-81.056 Y16.354 Z-6.253
X-81.051 Y16.36 Z-6.182
G0 Z5.
X-70.73 Y30.629
Z-5.865
G1 Z-6.182 F1016.
X-70.737 Y30.633 Z-6.253
X-70.757 Y30.645 Z-6.32
X-70.79 Y30.664 Z-6.38
X-70.833 Y30.69 Z-6.431
X-70.885 Y30.721 Z-6.469
X-70.942 Y30.755 Z-6.492
X-71.003 Y30.791 Z-6.5
G3 X-71.757 Y31.012 I-0.809 J-1.36
G1 X-73.601
X-73.751 Y31.005
X-73.937 Y30.977
X-74.162 Y30.924
X-74.394 Y30.85
X-74.673 Y30.735
X-75.001 Y30.569
X-75.387 Y30.331
X-75.857 Y29.988
X-76.416 Y29.506
X-76.938 Y28.985
X-77.434 Y28.439
X-77.911 Y27.876
X-78.373 Y27.301
X-78.822 Y26.715
X-79.258 Y26.12
X-79.684 Y25.518
X-80.099 Y24.907
X-80.503 Y24.29
X-80.897 Y23.667
X-81.281 Y23.036
X-81.654 Y22.4
X-81.717 Y22.288
X-81.769 Y22.173
X-81.802 Y22.051
X-81.813 Y21.924
Y19.269
G3 X-81.234 Y19.1 I0.317 J0.011
G1 X-73.411 Y30.428
X-73.351 Y30.515
G3 X-73.601 Y31.012 I-0.261 J0.18
G1 X-75.278
X-75.427 Y31.005
X-75.605 Y30.978
X-75.819 Y30.928
X-76.053 Y30.853
X-76.314 Y30.746
X-76.634 Y30.583
X-76.987 Y30.366
X-77.428 Y30.043
X-77.985 Y29.563
X-78.503 Y29.038
X-78.992 Y28.486
X-79.461 Y27.916
X-79.913 Y27.333
X-80.351 Y26.739
X-80.777 Y26.137
X-81.192 Y25.527
X-81.596 Y24.909
X-81.698 Y24.748
X-81.761 Y24.624
X-81.799 Y24.49
X-81.813 Y24.352
Y21.924
G3 X-81.236 Y21.752 I0.317 J0.011
G1 X-75.089 Y30.428
X-75.03 Y30.512
G3 X-75.278 Y31.012 I-0.259 J0.184
G1 X-76.879
X-77.03 Y31.005
X-77.199 Y30.983
X-77.404 Y30.939
X-77.622 Y30.874
X-77.865 Y30.779
X-78.164 Y30.634
X-78.483 Y30.446
X-78.883 Y30.165
X-79.369 Y29.761
X-79.897 Y29.246
X-80.39 Y28.697
X-80.857 Y28.125
X-81.304 Y27.539
X-81.672 Y27.031
X-81.749 Y26.897
X-81.796 Y26.751
X-81.813 Y26.597
G3 X-81.284 Y26.371 I0.317 J0.011
G1 X-81.234 Y26.415
X-76.701 Y30.438
X-76.679 Y30.458
G3 X-76.879 Y31.012 I-0.211 J0.237
G1 X-78.463
X-78.639 Y31.004
X-78.816 Y30.98
X-78.997 Y30.942
X-79.208 Y30.879
X-79.465 Y30.778
X-79.733 Y30.649
X-80.056 Y30.459
X-80.424 Y30.2
X-80.88 Y29.822
X-81.408 Y29.306
X-81.627 Y29.059
X-81.728 Y28.912
X-81.791 Y28.745
X-81.813 Y28.568
G3 X-81.313 Y28.319 I0.317 J0.011
G1 X-81.228 Y28.379
X-78.292 Y30.435
G3 X-78.463 Y31.012 I-0.182 J0.26
G1 X-80.064
X-80.221 Y31.005
X-80.391 Y30.982
X-80.566 Y30.945
X-80.777 Y30.882
X-81.03 Y30.783
X-81.285 Y30.66
X-81.448 Y30.564
X-81.599 Y30.446
X-81.715 Y30.293
X-81.788 Y30.116
X-81.813 Y29.925
G3 X-81.346 Y29.656 I0.317 J0.011
G1 X-81.22 Y29.723
X-79.926 Y30.415
G3 X-80.064 Y31.012 I-0.15 J0.28
G1 X-81.405
X-81.481
X-81.523 Y31.01
X-81.565 Y31.001
X-81.607 Y30.986
X-81.648 Y30.964
X-81.678 Y30.944
X-81.707 Y30.92
X-81.741 Y30.884
X-81.766 Y30.849
X-81.788 Y30.807
X-81.802 Y30.765
X-81.81 Y30.723
X-81.813 Y30.681
Y24.352
G3 X-81.239 Y24.175 I0.317 J0.011
G1 X-81.197 Y24.232 Z-6.492
X-81.158 Y24.287 Z-6.469
X-81.122 Y24.335 Z-6.431
X-81.092 Y24.376 Z-6.38
X-81.07 Y24.406 Z-6.32
X-81.056 Y24.425 Z-6.253
X-81.051 Y24.431 Z-6.182
G0 Z5.
X-39.923 Y-30.629
Z-5.865
G1 Z-6.182 F1016.
X-39.916 Y-30.633 Z-6.253
X-39.896 Y-30.645 Z-6.32
X-39.863 Y-30.664 Z-6.38
X-39.82 Y-30.69 Z-6.431
X-39.768 Y-30.721 Z-6.469
X-39.71 Y-30.755 Z-6.492
X-39.65 Y-30.791 Z-6.5
G3 X-38.896 Y-31.012 I0.809 J1.36
G1 X-33.699
X-33.087 Y-30.982
X-32.539 Y-30.91
X-31.818 Y-30.756
X-31.11 Y-30.547
X-30.414 Y-30.303
X-29.727 Y-30.034
X-29.048 Y-29.744
X-28.377 Y-29.437
X-27.714 Y-29.113
X-27.059 Y-28.774
X-26.412 Y-28.42
X-25.773 Y-28.051
X-25.142 Y-27.668
X-24.521 Y-27.27
X-23.908 Y-26.859
X-23.305 Y-26.434
X-22.711 Y-25.996
X-22.128 Y-25.544
X-21.554 Y-25.08
X-20.991 Y-24.603
X-20.439 Y-24.114
X-19.898 Y-23.612
X-19.369 Y-23.098
X-18.85 Y-22.573
X-18.344 Y-22.037
X-17.85 Y-21.489
X-17.367 Y-20.93
X-16.898 Y-20.361
X-16.441 Y-19.782
X-15.997 Y-19.193
X-15.566 Y-18.594
X-15.149 Y-17.985
X-14.745 Y-17.368
X-14.355 Y-16.742
X-13.979 Y-16.107
X-13.617 Y-15.464
X-13.27 Y-14.813
X-12.937 Y-14.154
X-12.62 Y-13.488
X-12.317 Y-12.815
X-12.029 Y-12.136
X-11.756 Y-11.45
X-11.499 Y-10.759
X-11.257 Y-10.062
X-11.03 Y-9.36
X-10.82 Y-8.653
X-10.625 Y-7.941
X-10.445 Y-7.225
X-10.282 Y-6.506
X-10.135 Y-5.783
X-10.004 Y-5.057
X-9.889 Y-4.328
X-9.79 Y-3.597
X-9.707 Y-2.864
X-9.641 Y-2.129
X-9.591 Y-1.393
X-9.557 Y-0.656
X-9.54 Y0.082
X-9.539 Y0.82
X-9.554 Y1.557
X-9.586 Y2.294
X-9.635 Y3.031
X-9.699 Y3.766
X-9.78 Y4.499
X-9.878 Y5.23
X-9.992 Y5.959
X-10.122 Y6.686
X-10.269 Y7.409
X-10.431 Y8.128
X-10.61 Y8.844
X-10.804 Y9.556
X-11.014 Y10.263
X-11.24 Y10.966
X-11.481 Y11.663
X-11.738 Y12.355
X-12.01 Y13.04
X-12.298 Y13.72
X-12.6 Y14.393
X-12.917 Y15.059
X-13.249 Y15.718
X-13.596 Y16.369
X-13.957 Y17.013
X-14.332 Y17.648
X-14.721 Y18.275
X-15.123 Y18.893
X-15.54 Y19.502
X-15.97 Y20.102
X-16.413 Y20.692
X-16.869 Y21.272
X-17.339 Y21.841
X-17.82 Y22.4
X-18.314 Y22.948
X-18.82 Y23.485
X-19.339 Y24.01
X-19.868 Y24.524
X-20.409 Y25.025
X-20.961 Y25.515
X-21.524 Y25.992
X-22.097 Y26.457
