(1001)
(T7  D=1.587 CR=0.794 - ZMIN=-32.8 - BALL END MILL)
G0 G90 G94 G17
G21
G53 G0 Z0.

(CONTOUR1)
M5
M9
T7
S16500 M3
G4 P4.
G55
G0 X-82.825 Y32.306
Z15.
Z1.676
G1 Z0.199 F356.
X-82.832 Z0.15
X-82.855 Z0.106
X-82.889 Z0.071
X-82.933 Z0.048
X-82.981 Z0.04
X-83.104 Z0.038
X-83.106 Y32.304
Y-32.304 Z-0.8
X-83.104 Y-32.306
X-83.08
X-83.078
X48.104
X48.106 Y-32.304
Y32.304
X48.104 Y32.306
X-83.104
X-83.106 Y32.304
Y-32.304
X-83.104 Y-32.306
X-83.078
X-83.034
X-82.989
X-82.9
X-82.723
X-82.545 Z-0.801
X-82.367 Z-0.802
X-82.19
X-82.012 Z-0.803
X-81.834 Z-0.805
X-81.656 Z-0.806
X-81.479 Z-0.808
X-81.301 Z-0.809
X-81.123 Z-0.811
X-80.946 Z-0.813
X-80.768 Z-0.816
X-80.59 Z-0.818
X-80.413 Z-0.821
X-80.235 Z-0.824
X-80.057 Z-0.826
X-79.88 Z-0.829
X-79.702 Z-0.833
X-79.524 Z-0.836
X-79.346 Z-0.84
X-79.169 Z-0.843
X-78.991 Z-0.847
X-78.813 Z-0.851
X-78.636 Z-0.855
X-78.458 Z-0.859
X-78.28 Z-0.864
X-78.103 Z-0.868
X-77.925 Z-0.873
X-77.747 Z-0.877
X-77.57 Z-0.882
X-77.392 Z-0.887
X-77.214 Z-0.892
X-77.036 Z-0.897
X-76.859 Z-0.903
X-76.681 Z-0.908
X-76.503 Z-0.914
X-76.326 Z-0.919
X-76.148 Z-0.925
X-75.97 Z-0.931
X-75.793 Z-0.937
X-75.615 Z-0.943
X-75.437 Z-0.949
X-75.26 Z-0.955
X-61.222 Z-1.445
X-61.044 Z-1.451
X-60.867 Z-1.457
X-60.689 Z-1.463
X-60.511 Z-1.469
X-60.333 Z-1.475
X-60.156 Z-1.481
X-59.978 Z-1.486
X-59.8 Z-1.492
X-59.623 Z-1.497
X-59.445 Z-1.503
X-59.267 Z-1.508
X-59.09 Z-1.513
X-58.912 Z-1.518
X-58.734 Z-1.523
X-58.557 Z-1.527
X-58.379 Z-1.532
X-58.201 Z-1.537
X-58.023 Z-1.541
X-57.846 Z-1.545
X-57.668 Z-1.549
X-57.49 Z-1.553
X-57.313 Z-1.557
X-57.135 Z-1.561
X-56.957 Z-1.564
X-56.78 Z-1.567
X-56.602 Z-1.571
X-56.424 Z-1.574
X-56.247 Z-1.577
X-56.069 Z-1.579
X-55.891 Z-1.582
X-55.714 Z-1.584
X-55.536 Z-1.587
X-55.358 Z-1.589
X-55.18 Z-1.591
X-55.003 Z-1.592
X-54.825 Z-1.594
X-54.647 Z-1.595
X-54.47 Z-1.597
X-54.292 Z-1.598
X-54.114
X-53.937 Z-1.599
X-53.759 Z-1.6
X-53.581
X-53.495
X-53.409
X48.104
X48.106 Y-32.304
Y32.304
X48.104 Y32.306
X-83.104
X-83.106 Y32.304
Y-32.304
X-83.104 Y-32.306
X-53.409
X-53.364
X-53.32
X-53.231
X-53.053
X-52.875 Z-1.601
X-52.698 Z-1.602
X-52.52
X-52.342 Z-1.603
X-52.165 Z-1.605
X-51.987 Z-1.606
X-51.809 Z-1.608
X-51.632 Z-1.609
X-51.454 Z-1.611
X-51.276 Z-1.613
X-51.099 Z-1.616
X-50.921 Z-1.618
X-50.743 Z-1.621
X-50.566 Z-1.624
X-50.388 Z-1.626
X-50.21 Z-1.629
X-50.032 Z-1.633
X-49.855 Z-1.636
X-49.677 Z-1.64
X-49.499 Z-1.643
X-49.322 Z-1.647
X-49.144 Z-1.651
X-48.966 Z-1.655
X-48.789 Z-1.659
X-48.611 Z-1.664
X-48.433 Z-1.668
X-48.256 Z-1.673
X-48.078 Z-1.677
X-47.9 Z-1.682
X-47.722 Z-1.687
X-47.545 Z-1.692
X-47.367 Z-1.697
X-47.189 Z-1.703
X-47.012 Z-1.708
X-46.834 Z-1.714
X-46.656 Z-1.719
X-46.479 Z-1.725
X-46.301 Z-1.731
X-46.123 Z-1.737
X-45.946 Z-1.743
X-45.768 Z-1.749
X-45.59 Z-1.755
X-31.553 Z-2.245
X-31.375 Z-2.251
X-31.197 Z-2.257
X-31.019 Z-2.263
X-30.842 Z-2.269
X-30.664 Z-2.275
X-30.486 Z-2.281
X-30.309 Z-2.286
X-30.131 Z-2.292
X-29.953 Z-2.297
X-29.776 Z-2.303
X-29.598 Z-2.308
X-29.42 Z-2.313
X-29.243 Z-2.318
X-29.065 Z-2.323
X-28.887 Z-2.327
X-28.709 Z-2.332
X-28.532 Z-2.337
X-28.354 Z-2.341
X-28.176 Z-2.345
X-27.999 Z-2.349
X-27.821 Z-2.353
X-27.643 Z-2.357
X-27.466 Z-2.361
X-27.288 Z-2.364
X-27.11 Z-2.367
X-26.933 Z-2.371
X-26.755 Z-2.374
X-26.577 Z-2.377
X-26.399 Z-2.379
X-26.222 Z-2.382
X-26.044 Z-2.384
X-25.866 Z-2.387
X-25.689 Z-2.389
X-25.511 Z-2.391
X-25.333 Z-2.392
X-25.156 Z-2.394
X-24.978 Z-2.395
X-24.8 Z-2.397
X-24.623 Z-2.398
X-24.445
X-24.267 Z-2.399
X-24.089 Z-2.4
X-23.912
X-23.825
X-23.739
X48.104
X48.106 Y-32.304
Y32.304
X48.104 Y32.306
X-83.104
X-83.106 Y32.304
Y-32.304
X-83.104 Y-32.306
X-23.739
X-23.695
X-23.65
X-23.561
X-23.384
X-23.206 Z-2.401
X-23.028 Z-2.402
X-22.851
X-22.673 Z-2.403
X-22.495 Z-2.405
X-22.318 Z-2.406
X-22.14 Z-2.408
X-21.962 Z-2.409
X-21.785 Z-2.411
X-21.607 Z-2.413
X-21.429 Z-2.416
X-21.251 Z-2.418
X-21.074 Z-2.421
X-20.896 Z-2.424
X-20.718 Z-2.426
X-20.541 Z-2.429
X-20.363 Z-2.433
X-20.185 Z-2.436
X-20.008 Z-2.44
X-19.83 Z-2.443
X-19.652 Z-2.447
X-19.475 Z-2.451
X-19.297 Z-2.455
X-19.119 Z-2.459
X-18.941 Z-2.464
X-18.764 Z-2.468
X-18.586 Z-2.473
X-18.408 Z-2.477
X-18.231 Z-2.482
X-18.053 Z-2.487
X-17.875 Z-2.492
X-17.698 Z-2.497
X-17.52 Z-2.503
X-17.342 Z-2.508
X-17.165 Z-2.514
X-16.987 Z-2.519
X-16.809 Z-2.525
X-16.631 Z-2.531
X-16.454 Z-2.537
X-16.276 Z-2.543
X-16.098 Z-2.549
X-15.921 Z-2.555
X-1.883 Z-3.045
X-1.705 Z-3.051
X-1.528 Z-3.057
X-1.35 Z-3.063
X-1.172 Z-3.069
X-0.995 Z-3.075
X-0.817 Z-3.081
X-0.639 Z-3.086
X-0.462 Z-3.092
X-0.284 Z-3.097
X-0.106 Z-3.103
X0.072 Z-3.108
X0.249 Z-3.113
X0.427 Z-3.118
X0.605 Z-3.123
X0.782 Z-3.127
X0.96 Z-3.132
X1.138 Z-3.137
X1.315 Z-3.141
X1.493 Z-3.145
X1.671 Z-3.149
X1.848 Z-3.153
X2.026 Z-3.157
X2.204 Z-3.161
X2.382 Z-3.164
X2.559 Z-3.167
X2.737 Z-3.171
X2.915 Z-3.174
X3.092 Z-3.177
X3.27 Z-3.179
X3.448 Z-3.182
X3.625 Z-3.184
X3.803 Z-3.187
X3.981 Z-3.189
X4.158 Z-3.191
X4.336 Z-3.192
X4.514 Z-3.194
X4.692 Z-3.195
X4.869 Z-3.197
X5.047 Z-3.198
X5.225
X5.402 Z-3.199
X5.58 Z-3.2
X5.758
X5.844
X5.93
X48.104
X48.106 Y-32.304
Y32.304
X48.104 Y32.306
X-83.104
X-83.106 Y32.304
Y-32.304
X-83.104 Y-32.306
X5.93
X5.975
X6.019
X6.108
X6.286
X6.463 Z-3.201
X6.641 Z-3.202
X6.819
X6.996 Z-3.203
X7.174 Z-3.205
X7.352 Z-3.206
X7.53 Z-3.208
X7.707 Z-3.209
X7.885 Z-3.211
X8.063 Z-3.213
X8.24 Z-3.216
X8.418 Z-3.218
X8.596 Z-3.221
X8.773 Z-3.224
X8.951 Z-3.226
X9.129 Z-3.229
X9.306 Z-3.233
X9.484 Z-3.236
X9.662 Z-3.24
X9.84 Z-3.243
X10.017 Z-3.247
X10.195 Z-3.251
X10.373 Z-3.255
X10.55 Z-3.259
X10.728 Z-3.264
X10.906 Z-3.268
X11.083 Z-3.273
X11.261 Z-3.277
X11.439 Z-3.282
X11.616 Z-3.287
X11.794 Z-3.292
X11.972 Z-3.297
X12.15 Z-3.303
X12.327 Z-3.308
X12.505 Z-3.314
X12.683 Z-3.319
X12.86 Z-3.325
X13.038 Z-3.331
X13.216 Z-3.337
X13.393 Z-3.343
X13.571 Z-3.349
X13.749 Z-3.355
X27.786 Z-3.845
X27.964 Z-3.851
X28.142 Z-3.857
X28.319 Z-3.863
X28.497 Z-3.869
X28.675 Z-3.875
X28.853 Z-3.881
X29.03 Z-3.886
X29.208 Z-3.892
X29.386 Z-3.897
X29.563 Z-3.903
X29.741 Z-3.908
X29.919 Z-3.913
X30.096 Z-3.918
X30.274 Z-3.923
X30.452 Z-3.927
X30.629 Z-3.932
X30.807 Z-3.937
X30.985 Z-3.941
X31.163 Z-3.945
X31.34 Z-3.949
X31.518 Z-3.953
X31.696 Z-3.957
X31.873 Z-3.961
X32.051 Z-3.964
X32.229 Z-3.967
X32.406 Z-3.971
X32.584 Z-3.974
X32.762 Z-3.977
X32.939 Z-3.979
X33.117 Z-3.982
X33.295 Z-3.984
X33.473 Z-3.987
X33.65 Z-3.989
X33.828 Z-3.991
X34.006 Z-3.992
X34.183 Z-3.994
X34.361 Z-3.995
X34.539 Z-3.997
X34.716 Z-3.998
X34.894
X35.072 Z-3.999
X35.249 Z-4.
X35.427
X35.513
X35.6
X48.104
X48.106 Y-32.304
Y32.304
X48.104 Y32.306
X-83.104
X-83.106 Y32.304
Y-32.304
X-83.104 Y-32.306
X35.6
X35.644
X35.689
X35.777
X35.955
X36.133 Z-4.001
X36.311 Z-4.002
X36.488
X36.666 Z-4.003
X36.844 Z-4.005
X37.021 Z-4.006
X37.199 Z-4.008
X37.377 Z-4.009
X37.554 Z-4.011
X37.732 Z-4.013
X37.91 Z-4.016
X38.087 Z-4.018
X38.265 Z-4.021
X38.443 Z-4.024
X38.621 Z-4.026
X38.798 Z-4.029
X38.976 Z-4.033
X39.154 Z-4.036
X39.331 Z-4.04
X39.509 Z-4.043
X39.687 Z-4.047
X39.864 Z-4.051
X40.042 Z-4.055
X40.22 Z-4.059
X40.397 Z-4.064
X40.575 Z-4.068
X40.753 Z-4.073
X40.931 Z-4.077
X41.108 Z-4.082
X41.286 Z-4.087
X41.464 Z-4.092
X41.641 Z-4.097
X41.819 Z-4.103
X41.997 Z-4.108
X42.174 Z-4.114
X42.352 Z-4.119
X42.53 Z-4.125
X42.707 Z-4.131
X42.885 Z-4.137
X43.063 Z-4.143
X43.24 Z-4.149
X43.418 Z-4.155
X48.038 Z-4.316
X48.081 Z-4.317
X48.095 Z-4.318
X48.103
X48.106 Y-32.303
Y-32.298
Y-32.272 Z-4.319
Y-32.195 Z-4.321
Y-26.865 Z-4.507
Y-22.778 Z-4.65
Y-22.6 Z-4.656
Y-22.422 Z-4.662
Y-22.245 Z-4.668
Y-22.067 Z-4.674
Y-21.889 Z-4.679
Y-21.712 Z-4.685
Y-21.534 Z-4.691
Y-21.356 Z-4.696
Y-21.179 Z-4.701
Y-21.001 Z-4.707
Y-20.823 Z-4.712
Y-20.646 Z-4.717
Y-20.468 Z-4.721
Y-20.29 Z-4.726
Y-20.112 Z-4.731
Y-19.935 Z-4.735
Y-19.757 Z-4.74
Y-19.579 Z-4.744
Y-19.402 Z-4.748
Y-19.224 Z-4.752
Y-19.046 Z-4.756
Y-18.869 Z-4.76
Y-18.691 Z-4.763
Y-18.513 Z-4.766
Y-18.336 Z-4.77
Y-18.158 Z-4.773
Y-17.98 Z-4.776
Y-17.802 Z-4.779
Y-17.625 Z-4.781
Y-17.447 Z-4.784
Y-17.269 Z-4.786
Y-17.092 Z-4.788
Y-16.914 Z-4.79
Y-16.736 Z-4.792
Y-16.559 Z-4.794
Y-16.381 Z-4.795
Y-16.203 Z-4.796
Y-16.026 Z-4.797
Y-15.848 Z-4.798
Y-15.67 Z-4.799
Y-15.492 Z-4.8
Y-15.315
Y-15.116
Y-15.095
Y32.304
X48.104 Y32.306
X-83.104
X-83.106 Y32.304
Y-32.304
X-83.104 Y-32.306
X48.104
X48.106 Y-32.304
Y-15.095
Y-15.05
Y-15.006
Y-14.917
Y-14.739
Y-14.562 Z-4.801
Y-14.384 Z-4.802
Y-14.206
Y-14.029 Z-4.803
Y-13.851 Z-4.805
Y-13.673 Z-4.806
Y-13.495 Z-4.808
Y-13.318 Z-4.809
Y-13.14 Z-4.811
Y-12.962 Z-4.813
Y-12.785 Z-4.816
Y-12.607 Z-4.818
Y-12.429 Z-4.821
Y-12.252 Z-4.824
Y-12.074 Z-4.826
Y-11.896 Z-4.829
Y-11.719 Z-4.833
Y-11.541 Z-4.836
Y-11.363 Z-4.84
Y-11.185 Z-4.843
Y-11.008 Z-4.847
Y-10.83 Z-4.851
Y-10.652 Z-4.855
Y-10.475 Z-4.859
Y-10.297 Z-4.864
Y-10.119 Z-4.868
Y-9.942 Z-4.873
Y-9.764 Z-4.877
Y-9.586 Z-4.882
Y-9.409 Z-4.887
Y-9.231 Z-4.892
Y-9.053 Z-4.897
Y-8.875 Z-4.903
Y-8.698 Z-4.908
Y-8.52 Z-4.914
Y-8.342 Z-4.919
Y-8.165 Z-4.925
Y-7.987 Z-4.931
Y-7.809 Z-4.937
Y-7.632 Z-4.943
Y-7.454 Z-4.949
Y-7.276 Z-4.955
Y6.761 Z-5.445
Y6.939 Z-5.451
Y7.117 Z-5.457
Y7.294 Z-5.463
Y7.472 Z-5.469
Y7.65 Z-5.475
Y7.828 Z-5.481
Y8.005 Z-5.486
Y8.183 Z-5.492
Y8.361 Z-5.497
Y8.538 Z-5.503
Y8.716 Z-5.508
Y8.894 Z-5.513
Y9.071 Z-5.518
Y9.249 Z-5.523
Y9.427 Z-5.527
Y9.604 Z-5.532
Y9.782 Z-5.537
Y9.96 Z-5.541
Y10.138 Z-5.545
Y10.315 Z-5.549
Y10.493 Z-5.553
Y10.671 Z-5.557
Y10.848 Z-5.561
Y11.026 Z-5.564
Y11.204 Z-5.567
Y11.381 Z-5.571
Y11.559 Z-5.574
Y11.737 Z-5.577
Y11.914 Z-5.579
Y12.092 Z-5.582
Y12.27 Z-5.584
Y12.448 Z-5.587
Y12.625 Z-5.589
Y12.803 Z-5.591
Y12.981 Z-5.592
Y13.158 Z-5.594
Y13.336 Z-5.595
Y13.514 Z-5.597
Y13.691 Z-5.598
Y13.869
Y14.047 Z-5.599
Y14.224 Z-5.6
Y14.402
Y14.488
Y14.575
Y32.304
X48.104 Y32.306
X-83.104
X-83.106 Y32.304
Y-32.304
X-83.104 Y-32.306
X48.104
X48.106 Y-32.304
Y14.575
Y14.619
Y14.664
Y14.752
Y14.93
Y15.108 Z-5.601
Y15.286 Z-5.602
Y15.463
Y15.641 Z-5.603
Y15.819 Z-5.605
Y15.996 Z-5.606
Y16.174 Z-5.608
Y16.352 Z-5.609
Y16.529 Z-5.611
Y16.707 Z-5.613
Y16.885 Z-5.616
Y17.062 Z-5.618
Y17.24 Z-5.621
Y17.418 Z-5.624
Y17.596 Z-5.626
Y17.773 Z-5.629
Y17.951 Z-5.633
Y18.129 Z-5.636
Y18.306 Z-5.64
Y18.484 Z-5.643
Y18.662 Z-5.647
Y18.839 Z-5.651
Y19.017 Z-5.655
Y19.195 Z-5.659
Y19.372 Z-5.664
Y19.55 Z-5.668
Y19.728 Z-5.673
Y19.906 Z-5.677
Y20.083 Z-5.682
Y20.261 Z-5.687
Y20.439 Z-5.692
Y20.616 Z-5.697
Y20.794 Z-5.703
Y20.972 Z-5.708
Y21.149 Z-5.714
Y21.327 Z-5.719
Y21.505 Z-5.725
Y21.682 Z-5.731
Y21.86 Z-5.737
Y22.038 Z-5.743
Y22.216 Z-5.749
Y22.393 Z-5.755
Y32.166 Z-6.096
Y32.242 Z-6.099
Y32.286 Z-6.1
Y32.301
Y32.303
Y32.306
X48.1 Z-6.101
X48.092
X48.067
X43.803 Z-6.25
X43.625 Z-6.256
X43.447 Z-6.262
X43.27 Z-6.268
X43.092 Z-6.274
X42.914 Z-6.28
X42.737 Z-6.285
X42.559 Z-6.291
X42.381 Z-6.296
X42.204 Z-6.302
X42.026 Z-6.307
X41.848 Z-6.312
X41.671 Z-6.317
X41.493 Z-6.322
X41.315 Z-6.327
X41.137 Z-6.331
X40.96 Z-6.336
X40.782 Z-6.34
X40.604 Z-6.344
X40.427 Z-6.348
X40.249 Z-6.352
X40.071 Z-6.356
X39.894 Z-6.36
X39.716 Z-6.363
X39.538 Z-6.367
X39.361 Z-6.37
X39.183 Z-6.373
X39.005 Z-6.376
X38.827 Z-6.379
X38.65 Z-6.381
X38.472 Z-6.384
X38.294 Z-6.386
X38.117 Z-6.388
X37.939 Z-6.39
X37.761 Z-6.392
X37.584 Z-6.394
X37.406 Z-6.395
X37.228 Z-6.396
X37.051 Z-6.397
X36.873 Z-6.398
X36.695 Z-6.399
X36.517 Z-6.4
X36.34
X36.142
X36.135
X-83.104
X-83.106 Y32.304
Y-32.304
X-83.104 Y-32.306
X48.104
X48.106 Y-32.304
Y14.575
Y32.304
X48.104 Y32.306
X36.135
X36.09
X36.046
X35.957
X35.779
X35.602 Z-6.401
X35.424 Z-6.402
X35.246
X35.069 Z-6.403
X34.891 Z-6.405
X34.713 Z-6.406
X34.536 Z-6.408
X34.358 Z-6.409
X34.18 Z-6.411
X34.003 Z-6.413
X33.825 Z-6.416
X33.647 Z-6.418
X33.47 Z-6.421
X33.292 Z-6.424
X33.114 Z-6.426
X32.936 Z-6.429
X32.759 Z-6.433
X32.581 Z-6.436
X32.403 Z-6.44
X32.226 Z-6.443
X32.048 Z-6.447
X31.87 Z-6.451
X31.693 Z-6.455
X31.515 Z-6.459
X31.337 Z-6.464
X31.16 Z-6.468
X30.982 Z-6.473
X30.804 Z-6.477
X30.626 Z-6.482
X30.449 Z-6.487
X30.271 Z-6.492
X30.093 Z-6.497
X29.916 Z-6.503
X29.738 Z-6.508
X29.56 Z-6.514
X29.383 Z-6.519
X29.205 Z-6.525
X29.027 Z-6.531
X28.85 Z-6.537
X28.672 Z-6.543
X28.494 Z-6.549
X28.316 Z-6.555
X14.279 Z-7.045
X14.101 Z-7.051
X13.923 Z-7.057
X13.746 Z-7.063
X13.568 Z-7.069
X13.39 Z-7.075
X13.213 Z-7.081
X13.035 Z-7.086
X12.857 Z-7.092
X12.68 Z-7.097
X12.502 Z-7.103
X12.324 Z-7.108
X12.147 Z-7.113
X11.969 Z-7.118
X11.791 Z-7.123
X11.613 Z-7.127
X11.436 Z-7.132
X11.258 Z-7.137
X11.08 Z-7.141
X10.903 Z-7.145
X10.725 Z-7.149
X10.547 Z-7.153
X10.37 Z-7.157
X10.192 Z-7.161
X10.014 Z-7.164
X9.837 Z-7.167
X9.659 Z-7.171
X9.481 Z-7.174
X9.303 Z-7.177
X9.126 Z-7.179
X8.948 Z-7.182
X8.77 Z-7.184
X8.593 Z-7.187
X8.415 Z-7.189
X8.237 Z-7.191
X8.06 Z-7.192
X7.882 Z-7.194
X7.704 Z-7.195
X7.527 Z-7.197
X7.349 Z-7.198
X7.171
X6.993 Z-7.199
X6.816 Z-7.2
X6.638
X6.552
X6.465
X-83.104
X-83.106 Y32.304
Y-32.304
X-83.104 Y-32.306
X48.104
X48.106 Y-32.304
Y32.304
X48.104 Y32.306
X6.465
X6.421
X6.377
X6.288
X6.11
X5.932 Z-7.201
X5.755 Z-7.202
X5.577
X5.399 Z-7.203
X5.222 Z-7.205
X5.044 Z-7.206
X4.866 Z-7.208
X4.689 Z-7.209
X4.511 Z-7.211
X4.333 Z-7.213
X4.155 Z-7.216
X3.978 Z-7.218
X3.8 Z-7.221
X3.622 Z-7.224
X3.445 Z-7.226
X3.267 Z-7.229
X3.089 Z-7.233
X2.912 Z-7.236
X2.734 Z-7.24
X2.556 Z-7.243
X2.379 Z-7.247
X2.201 Z-7.251
X2.023 Z-7.255
X1.845 Z-7.259
X1.668 Z-7.264
X1.49 Z-7.268
X1.312 Z-7.273
X1.135 Z-7.277
X0.957 Z-7.282
X0.779 Z-7.287
X0.602 Z-7.292
X0.424 Z-7.297
X0.246 Z-7.303
X0.069 Z-7.308
X-0.109 Z-7.314
X-0.287 Z-7.319
X-0.465 Z-7.325
X-0.642 Z-7.331
X-0.82 Z-7.337
X-0.998 Z-7.343
X-1.175 Z-7.349
X-1.353 Z-7.355
X-15.391 Z-7.845
X-15.568 Z-7.851
X-15.746 Z-7.857
X-15.924 Z-7.863
X-16.101 Z-7.869
X-16.279 Z-7.875
X-16.457 Z-7.881
X-16.634 Z-7.886
X-16.812 Z-7.892
X-16.99 Z-7.897
X-17.168 Z-7.903
X-17.345 Z-7.908
X-17.523 Z-7.913
X-17.701 Z-7.918
X-17.878 Z-7.923
X-18.056 Z-7.927
X-18.234 Z-7.932
X-18.411 Z-7.937
X-18.589 Z-7.941
X-18.767 Z-7.945
X-18.944 Z-7.949
X-19.122 Z-7.953
X-19.3 Z-7.957
X-19.478 Z-7.961
X-19.655 Z-7.964
X-19.833 Z-7.967
X-20.011 Z-7.971
X-20.188 Z-7.974
X-20.366 Z-7.977
X-20.544 Z-7.979
X-20.721 Z-7.982
X-20.899 Z-7.984
X-21.077 Z-7.987
X-21.254 Z-7.989
X-21.432 Z-7.991
X-21.61 Z-7.992
X-21.788 Z-7.994
X-21.965 Z-7.995
X-22.143 Z-7.997
X-22.321 Z-7.998
X-22.498
X-22.676 Z-7.999
X-22.854 Z-8.
X-23.031
X-23.118
X-23.204
X-83.104
X-83.106 Y32.304
Y-32.304
X-83.104 Y-32.306
X48.104
X48.106 Y-32.304
Y32.304
X48.104 Y32.306
X6.465
X-23.204
X-23.248
X-23.293
X-23.382
X-23.559
X-23.737 Z-8.001
X-23.915 Z-8.002
X-24.092
X-24.27 Z-8.003
X-24.448 Z-8.005
X-24.626 Z-8.006
X-24.803 Z-8.008
X-24.981 Z-8.009
X-25.159 Z-8.011
X-25.336 Z-8.013
X-25.514 Z-8.016
X-25.692 Z-8.018
X-25.869 Z-8.021
X-26.047 Z-8.024
X-26.225 Z-8.026
X-26.402 Z-8.029
X-26.58 Z-8.033
X-26.758 Z-8.036
X-26.936 Z-8.04
X-27.113 Z-8.043
X-27.291 Z-8.047
X-27.469 Z-8.051
X-27.646 Z-8.055
X-27.824 Z-8.059
X-28.002 Z-8.064
X-28.179 Z-8.068
X-28.357 Z-8.073
X-28.535 Z-8.077
X-28.712 Z-8.082
X-28.89 Z-8.087
X-29.068 Z-8.092
X-29.246 Z-8.097
X-29.423 Z-8.103
X-29.601 Z-8.108
X-29.779 Z-8.114
X-29.956 Z-8.119
X-30.134 Z-8.125
X-30.312 Z-8.131
X-30.489 Z-8.137
X-30.667 Z-8.143
X-30.845 Z-8.149
X-31.022 Z-8.155
X-45.06 Z-8.645
X-45.238 Z-8.651
X-45.415 Z-8.657
X-45.593 Z-8.663
X-45.771 Z-8.669
X-45.949 Z-8.675
X-46.126 Z-8.681
X-46.304 Z-8.686
X-46.482 Z-8.692
X-46.659 Z-8.697
X-46.837 Z-8.703
X-47.015 Z-8.708
X-47.192 Z-8.713
X-47.37 Z-8.718
X-47.548 Z-8.723
X-47.725 Z-8.727
X-47.903 Z-8.732
X-48.081 Z-8.737
X-48.259 Z-8.741
X-48.436 Z-8.745
X-48.614 Z-8.749
X-48.792 Z-8.753
X-48.969 Z-8.757
X-49.147 Z-8.761
X-49.325 Z-8.764
X-49.502 Z-8.767
X-49.68 Z-8.771
X-49.858 Z-8.774
X-50.035 Z-8.777
X-50.213 Z-8.779
X-50.391 Z-8.782
X-50.569 Z-8.784
X-50.746 Z-8.787
X-50.924 Z-8.789
X-51.102 Z-8.791
X-51.279 Z-8.792
X-51.457 Z-8.794
X-51.635 Z-8.795
X-51.812 Z-8.797
X-51.99 Z-8.798
X-52.168
X-52.345 Z-8.799
X-52.523 Z-8.8
X-52.701
X-52.787
X-52.873
X-83.104
X-83.106 Y32.304
Y-32.304
X-83.104 Y-32.306
X48.104
X48.106 Y-32.304
Y32.304
X48.104 Y32.306
X-23.204
X-52.873
X-52.918
X-52.962
X-53.051
X-53.229
X-53.407 Z-8.801
X-53.584 Z-8.802
X-53.762
X-53.94 Z-8.803
X-54.117 Z-8.805
X-54.295 Z-8.806
X-54.473 Z-8.808
X-54.65 Z-8.809
X-54.828 Z-8.811
X-55.006 Z-8.813
X-55.183 Z-8.816
X-55.361 Z-8.818
X-55.539 Z-8.821
X-55.717 Z-8.824
X-55.894 Z-8.826
X-56.072 Z-8.829
X-56.25 Z-8.833
X-56.427 Z-8.836
X-56.605 Z-8.84
X-56.783 Z-8.843
X-56.96 Z-8.847
X-57.138 Z-8.851
X-57.316 Z-8.855
X-57.493 Z-8.859
X-57.671 Z-8.864
X-57.849 Z-8.868
X-58.027 Z-8.873
X-58.204 Z-8.877
X-58.382 Z-8.882
X-58.56 Z-8.887
X-58.737 Z-8.892
X-58.915 Z-8.897
X-59.093 Z-8.903
X-59.27 Z-8.908
X-59.448 Z-8.914
X-59.626 Z-8.919
X-59.803 Z-8.925
X-59.981 Z-8.931
X-60.159 Z-8.937
X-60.337 Z-8.943
X-60.514 Z-8.949
X-60.692 Z-8.955
X-74.73 Z-9.445
X-74.907 Z-9.451
X-75.085 Z-9.457
X-75.263 Z-9.463
X-75.44 Z-9.469
X-75.618 Z-9.475
X-75.796 Z-9.481
X-75.973 Z-9.486
X-76.151 Z-9.492
X-76.329 Z-9.497
X-76.506 Z-9.503
X-76.684 Z-9.508
X-76.862 Z-9.513
X-77.04 Z-9.518
X-77.217 Z-9.523
X-77.395 Z-9.527
X-77.573 Z-9.532
X-77.75 Z-9.537
X-77.928 Z-9.541
X-78.106 Z-9.545
X-78.283 Z-9.549
X-78.461 Z-9.553
X-78.639 Z-9.557
X-78.816 Z-9.561
X-78.994 Z-9.564
X-79.172 Z-9.567
X-79.35 Z-9.571
X-79.527 Z-9.574
X-79.705 Z-9.577
X-79.883 Z-9.579
X-80.06 Z-9.582
X-80.238 Z-9.584
X-80.416 Z-9.587
X-80.593 Z-9.589
X-80.771 Z-9.591
X-80.949 Z-9.592
X-81.126 Z-9.594
X-81.304 Z-9.595
X-81.482 Z-9.597
X-81.659 Z-9.598
X-81.837
X-82.015 Z-9.599
X-82.193 Z-9.6
X-82.37
X-82.457
X-82.543
X-83.104
X-83.106 Y32.304
Y-32.304
X-83.104 Y-32.306
X48.104
X48.106 Y-32.304
Y32.304
X48.104 Y32.306
X-52.873
X-82.543
X-82.587
X-82.632
X-82.721
X-82.898
X-83.105 Z-9.601
X-83.106 Y32.303
Y32.277
Y32.235
Y32.158 Z-9.602
Y31.98
Y31.802 Z-9.603
Y31.625 Z-9.605
Y31.447 Z-9.606
Y31.269 Z-9.608
Y31.092 Z-9.609
Y30.914 Z-9.611
Y30.736 Z-9.613
Y30.559 Z-9.616
Y30.381 Z-9.618
Y30.203 Z-9.621
Y30.025 Z-9.624
Y29.848 Z-9.626
Y29.67 Z-9.629
Y29.492 Z-9.633
Y29.315 Z-9.636
Y29.137 Z-9.64
Y28.959 Z-9.643
Y28.782 Z-9.647
Y28.604 Z-9.651
Y28.426 Z-9.655
Y28.249 Z-9.659
Y28.071 Z-9.664
Y27.893 Z-9.668
Y27.715 Z-9.673
Y27.538 Z-9.677
Y27.36 Z-9.682
Y27.182 Z-9.687
Y27.005 Z-9.692
Y26.827 Z-9.697
Y26.649 Z-9.703
Y26.472 Z-9.708
Y26.294 Z-9.714
Y26.116 Z-9.719
Y25.939 Z-9.725
Y25.761 Z-9.731
Y25.583 Z-9.737
Y25.406 Z-9.743
Y25.228 Z-9.749
Y25.05 Z-9.755
Y11.012 Z-10.245
Y10.835 Z-10.251
Y10.657 Z-10.257
Y10.479 Z-10.263
Y10.302 Z-10.269
Y10.124 Z-10.275
Y9.946 Z-10.281
Y9.769 Z-10.286
Y9.591 Z-10.292
Y9.413 Z-10.297
Y9.236 Z-10.303
Y9.058 Z-10.308
Y8.88 Z-10.313
Y8.702 Z-10.318
Y8.525 Z-10.323
Y8.347 Z-10.327
Y8.169 Z-10.332
Y7.992 Z-10.337
Y7.814 Z-10.341
Y7.636 Z-10.345
Y7.459 Z-10.349
Y7.281 Z-10.353
Y7.103 Z-10.357
Y6.926 Z-10.361
Y6.748 Z-10.364
Y6.57 Z-10.367
Y6.393 Z-10.371
Y6.215 Z-10.374
Y6.037 Z-10.377
Y5.859 Z-10.379
Y5.682 Z-10.382
Y5.504 Z-10.384
Y5.326 Z-10.387
Y5.149 Z-10.389
Y4.971 Z-10.391
Y4.793 Z-10.392
Y4.616 Z-10.394
Y4.438 Z-10.395
Y4.26 Z-10.397
Y4.083 Z-10.398
Y3.905
Y3.727 Z-10.399
Y3.549 Z-10.4
Y3.372
Y3.285
Y3.199
Y-32.304
X-83.104 Y-32.306
X48.104
X48.106 Y-32.304
Y32.304
X48.104 Y32.306
X-82.543
X-83.104
X-83.106 Y32.304
Y3.199
Y3.155
Y3.11
Y3.021
Y2.844
Y2.666 Z-10.401
Y2.488 Z-10.402
Y2.311
Y2.133 Z-10.403
Y1.955 Z-10.405
Y1.778 Z-10.406
Y1.6 Z-10.408
Y1.422 Z-10.409
Y1.245 Z-10.411
Y1.067 Z-10.413
Y0.889 Z-10.416
Y0.711 Z-10.418
Y0.534 Z-10.421
Y0.356 Z-10.424
Y0.178 Z-10.426
Y0.001 Z-10.429
Y-0.177 Z-10.433
Y-0.355 Z-10.436
Y-0.532 Z-10.44
Y-0.71 Z-10.443
Y-0.888 Z-10.447
Y-1.065 Z-10.451
Y-1.243 Z-10.455
Y-1.421 Z-10.459
Y-1.599 Z-10.464
Y-1.776 Z-10.468
Y-1.954 Z-10.473
Y-2.132 Z-10.477
Y-2.309 Z-10.482
Y-2.487 Z-10.487
Y-2.665 Z-10.492
Y-2.842 Z-10.497
Y-3.02 Z-10.503
Y-3.198 Z-10.508
Y-3.375 Z-10.514
Y-3.553 Z-10.519
Y-3.731 Z-10.525
Y-3.909 Z-10.531
Y-4.086 Z-10.537
Y-4.264 Z-10.543
Y-4.442 Z-10.549
Y-4.619 Z-10.555
Y-18.657 Z-11.045
Y-18.835 Z-11.051
Y-19.012 Z-11.057
Y-19.19 Z-11.063
Y-19.368 Z-11.069
Y-19.545 Z-11.075
Y-19.723 Z-11.081
Y-19.901 Z-11.086
Y-20.078 Z-11.092
Y-20.256 Z-11.097
Y-20.434 Z-11.103
Y-20.612 Z-11.108
Y-20.789 Z-11.113
Y-20.967 Z-11.118
Y-21.145 Z-11.123
Y-21.322 Z-11.127
Y-21.5 Z-11.132
Y-21.678 Z-11.137
Y-21.855 Z-11.141
Y-22.033 Z-11.145
Y-22.211 Z-11.149
Y-22.388 Z-11.153
Y-22.566 Z-11.157
Y-22.744 Z-11.161
Y-22.922 Z-11.164
Y-23.099 Z-11.167
Y-23.277 Z-11.171
Y-23.455 Z-11.174
Y-23.632 Z-11.177
Y-23.81 Z-11.179
Y-23.988 Z-11.182
Y-24.165 Z-11.184
Y-24.343 Z-11.187
Y-24.521 Z-11.189
Y-24.698 Z-11.191
Y-24.876 Z-11.192
Y-25.054 Z-11.194
Y-25.232 Z-11.195
Y-25.409 Z-11.197
Y-25.587 Z-11.198
Y-25.765
Y-25.942 Z-11.199
Y-26.12 Z-11.2
Y-26.298
Y-26.384
Y-26.47
Y-32.304
X-83.104 Y-32.306
X48.104
X48.106 Y-32.304
Y32.304
X48.104 Y32.306
X-83.104
X-83.106 Y32.304
Y-26.47
Y-26.515
Y-26.559
Y-26.648
Y-26.826
Y-27.003 Z-11.201
Y-27.181 Z-11.202
Y-27.359
Y-27.536 Z-11.203
Y-27.714 Z-11.205
Y-27.892 Z-11.206
Y-28.07 Z-11.208
Y-28.247 Z-11.209
Y-28.425 Z-11.211
Y-28.603 Z-11.213
Y-28.78 Z-11.216
Y-28.958 Z-11.218
Y-29.136 Z-11.221
Y-29.313 Z-11.224
Y-29.491 Z-11.226
Y-29.669 Z-11.229
Y-29.846 Z-11.233
Y-30.024 Z-11.236
Y-30.202 Z-11.24
Y-30.38 Z-11.243
Y-30.557 Z-11.247
Y-30.735 Z-11.251
Y-30.913 Z-11.255
Y-31.09 Z-11.259
Y-31.268 Z-11.264
Y-31.446 Z-11.268
Y-31.623 Z-11.273
Y-31.801 Z-11.277
Y-31.979 Z-11.282
Y-32.156 Z-11.287
Y-32.234 Z-11.29
Y-32.276 Z-11.291
Y-32.305 Z-11.292
X-83.103 Y-32.306
X-83.077
X-82.9 Z-11.297
X-82.722 Z-11.303
X-82.544 Z-11.308
X-82.367 Z-11.314
X-82.189 Z-11.319
X-82.011 Z-11.325
X-81.833 Z-11.331
X-81.656 Z-11.337
X-81.478 Z-11.343
X-81.3 Z-11.349
X-81.123 Z-11.355
X-67.085 Z-11.845
X-66.907 Z-11.851
X-66.73 Z-11.857
X-66.552 Z-11.863
X-66.374 Z-11.869
X-66.197 Z-11.875
X-66.019 Z-11.881
X-65.841 Z-11.886
X-65.664 Z-11.892
X-65.486 Z-11.897
X-65.308 Z-11.903
X-65.13 Z-11.908
X-64.953 Z-11.913
X-64.775 Z-11.918
X-64.597 Z-11.923
X-64.42 Z-11.927
X-64.242 Z-11.932
X-64.064 Z-11.937
X-63.887 Z-11.941
X-63.709 Z-11.945
X-63.531 Z-11.949
X-63.354 Z-11.953
X-63.176 Z-11.957
X-62.998 Z-11.961
X-62.82 Z-11.964
X-62.643 Z-11.967
X-62.465 Z-11.971
X-62.287 Z-11.974
X-62.11 Z-11.977
X-61.932 Z-11.979
X-61.754 Z-11.982
X-61.577 Z-11.984
X-61.399 Z-11.987
X-61.221 Z-11.989
X-61.044 Z-11.991
X-60.866 Z-11.992
X-60.688 Z-11.994
X-60.51 Z-11.995
X-60.333 Z-11.997
X-60.155 Z-11.998
X-59.977
X-59.8 Z-11.999
X-59.622 Z-12.
X-59.444
X-59.358
X-59.272
X48.104
X48.106 Y-32.304
Y32.304
X48.104 Y32.306
X-83.104
X-83.106 Y32.304
Y-26.47
Y-32.304
X-83.104 Y-32.306
X-59.272
X-59.227
X-59.183
X-59.094
X-58.916
X-58.739 Z-12.001
X-58.561 Z-12.002
X-58.383
X-58.206 Z-12.003
X-58.028 Z-12.005
X-57.85 Z-12.006
X-57.672 Z-12.008
X-57.495 Z-12.009
X-57.317 Z-12.011
X-57.139 Z-12.013
X-56.962 Z-12.016
X-56.784 Z-12.018
X-56.606 Z-12.021
X-56.429 Z-12.024
X-56.251 Z-12.026
X-56.073 Z-12.029
X-55.896 Z-12.033
X-55.718 Z-12.036
X-55.54 Z-12.04
X-55.362 Z-12.043
X-55.185 Z-12.047
X-55.007 Z-12.051
X-54.829 Z-12.055
X-54.652 Z-12.059
X-54.474 Z-12.064
X-54.296 Z-12.068
X-54.119 Z-12.073
X-53.941 Z-12.077
X-53.763 Z-12.082
X-53.586 Z-12.087
X-53.408 Z-12.092
X-53.23 Z-12.097
X-53.052 Z-12.103
X-52.875 Z-12.108
X-52.697 Z-12.114
X-52.519 Z-12.119
X-52.342 Z-12.125
X-52.164 Z-12.131
X-51.986 Z-12.137
X-51.809 Z-12.143
X-51.631 Z-12.149
X-51.453 Z-12.155
X-37.416 Z-12.645
X-37.238 Z-12.651
X-37.06 Z-12.657
X-36.883 Z-12.663
X-36.705 Z-12.669
X-36.527 Z-12.675
X-36.349 Z-12.681
X-36.172 Z-12.686
X-35.994 Z-12.692
X-35.816 Z-12.697
X-35.639 Z-12.703
X-35.461 Z-12.708
X-35.283 Z-12.713
X-35.106 Z-12.718
X-34.928 Z-12.723
X-34.75 Z-12.727
X-34.573 Z-12.732
X-34.395 Z-12.737
X-34.217 Z-12.741
X-34.039 Z-12.745
X-33.862 Z-12.749
X-33.684 Z-12.753
X-33.506 Z-12.757
X-33.329 Z-12.761
X-33.151 Z-12.764
X-32.973 Z-12.767
X-32.796 Z-12.771
X-32.618 Z-12.774
X-32.44 Z-12.777
X-32.263 Z-12.779
X-32.085 Z-12.782
X-31.907 Z-12.784
X-31.729 Z-12.787
X-31.552 Z-12.789
X-31.374 Z-12.791
X-31.196 Z-12.792
X-31.019 Z-12.794
X-30.841 Z-12.795
X-30.663 Z-12.797
X-30.486 Z-12.798
X-30.308
X-30.13 Z-12.799
X-29.953 Z-12.8
X-29.775
X-29.689
X-29.602
X48.104
X48.106 Y-32.304
Y32.304
X48.104 Y32.306
X-83.104
X-83.106 Y32.304
Y-32.304
X-83.104 Y-32.306
X-29.602
X-29.558
X-29.513
X-29.425
X-29.247
X-29.069 Z-12.801
X-28.891 Z-12.802
X-28.714
X-28.536 Z-12.803
X-28.358 Z-12.805
X-28.181 Z-12.806
X-28.003 Z-12.808
X-27.825 Z-12.809
X-27.648 Z-12.811
X-27.47 Z-12.813
X-27.292 Z-12.816
X-27.115 Z-12.818
X-26.937 Z-12.821
X-26.759 Z-12.824
X-26.581 Z-12.826
X-26.404 Z-12.829
X-26.226 Z-12.833
X-26.048 Z-12.836
X-25.871 Z-12.84
X-25.693 Z-12.843
X-25.515 Z-12.847
X-25.338 Z-12.851
X-25.16 Z-12.855
X-24.982 Z-12.859
X-24.805 Z-12.864
X-24.627 Z-12.868
X-24.449 Z-12.873
X-24.271 Z-12.877
X-24.094 Z-12.882
X-23.916 Z-12.887
X-23.738 Z-12.892
X-23.561 Z-12.897
X-23.383 Z-12.903
X-23.205 Z-12.908
X-23.028 Z-12.914
X-22.85 Z-12.919
X-22.672 Z-12.925
X-22.495 Z-12.931
X-22.317 Z-12.937
X-22.139 Z-12.943
X-21.961 Z-12.949
X-21.784 Z-12.955
X-7.746 Z-13.445
X-7.568 Z-13.451
X-7.391 Z-13.457
X-7.213 Z-13.463
X-7.035 Z-13.469
X-6.858 Z-13.475
X-6.68 Z-13.481
X-6.502 Z-13.486
X-6.325 Z-13.492
X-6.147 Z-13.497
X-5.969 Z-13.503
X-5.792 Z-13.508
X-5.614 Z-13.513
X-5.436 Z-13.518
X-5.258 Z-13.523
X-5.081 Z-13.527
X-4.903 Z-13.532
X-4.725 Z-13.537
X-4.548 Z-13.541
X-4.37 Z-13.545
X-4.192 Z-13.549
X-4.015 Z-13.553
X-3.837 Z-13.557
X-3.659 Z-13.561
X-3.482 Z-13.564
X-3.304 Z-13.567
X-3.126 Z-13.571
X-2.948 Z-13.574
X-2.771 Z-13.577
X-2.593 Z-13.579
X-2.415 Z-13.582
X-2.238 Z-13.584
X-2.06 Z-13.587
X-1.882 Z-13.589
X-1.705 Z-13.591
X-1.527 Z-13.592
X-1.349 Z-13.594
X-1.172 Z-13.595
X-0.994 Z-13.597
X-0.816 Z-13.598
X-0.638
X-0.461 Z-13.599
X-0.283 Z-13.6
X-0.105
X-0.019
X0.067
X48.104
X48.106 Y-32.304
Y32.304
X48.104 Y32.306
X-83.104
X-83.106 Y32.304
Y-32.304
X-83.104 Y-32.306
X0.067
X0.112
X0.156
X0.245
X0.423
X0.6 Z-13.601
X0.778 Z-13.602
X0.956
X1.133 Z-13.603
X1.311 Z-13.605
X1.489 Z-13.606
X1.666 Z-13.608
X1.844 Z-13.609
X2.022 Z-13.611
X2.2 Z-13.613
X2.377 Z-13.616
X2.555 Z-13.618
X2.733 Z-13.621
X2.91 Z-13.624
X3.088 Z-13.626
X3.266 Z-13.629
X3.443 Z-13.633
X3.621 Z-13.636
X3.799 Z-13.64
X3.976 Z-13.643
X4.154 Z-13.647
X4.332 Z-13.651
X4.51 Z-13.655
X4.687 Z-13.659
X4.865 Z-13.664
X5.043 Z-13.668
X5.22 Z-13.673
X5.398 Z-13.677
X5.576 Z-13.682
X5.753 Z-13.687
X5.931 Z-13.692
X6.109 Z-13.697
X6.286 Z-13.703
X6.464 Z-13.708
X6.642 Z-13.714
X6.819 Z-13.719
X6.997 Z-13.725
X7.175 Z-13.731
X7.353 Z-13.737
X7.53 Z-13.743
X7.708 Z-13.749
X7.886 Z-13.755
X21.923 Z-14.245
X22.101 Z-14.251
X22.279 Z-14.257
X22.456 Z-14.263
X22.634 Z-14.269
X22.812 Z-14.275
X22.989 Z-14.281
X23.167 Z-14.286
X23.345 Z-14.292
X23.523 Z-14.297
X23.7 Z-14.303
X23.878 Z-14.308
X24.056 Z-14.313
X24.233 Z-14.318
X24.411 Z-14.323
X24.589 Z-14.327
X24.766 Z-14.332
X24.944 Z-14.337
X25.122 Z-14.341
X25.299 Z-14.345
X25.477 Z-14.349
X25.655 Z-14.353
X25.832 Z-14.357
X26.01 Z-14.361
X26.188 Z-14.364
X26.366 Z-14.367
X26.543 Z-14.371
X26.721 Z-14.374
X26.899 Z-14.377
X27.076 Z-14.379
X27.254 Z-14.382
X27.432 Z-14.384
X27.609 Z-14.387
X27.787 Z-14.389
X27.965 Z-14.391
X28.142 Z-14.392
X28.32 Z-14.394
X28.498 Z-14.395
X28.676 Z-14.397
X28.853 Z-14.398
X29.031
X29.209 Z-14.399
X29.386 Z-14.4
X29.564
X29.65
X29.737
X48.104
X48.106 Y-32.304
Y32.304
X48.104 Y32.306
X-83.104
X-83.106 Y32.304
Y-32.304
X-83.104 Y-32.306
X29.737
X29.781
X29.825
X29.914
X30.092
X30.27 Z-14.401
X30.447 Z-14.402
X30.625
X30.803 Z-14.403
X30.98 Z-14.405
X31.158 Z-14.406
X31.336 Z-14.408
X31.514 Z-14.409
X31.691 Z-14.411
X31.869 Z-14.413
X32.047 Z-14.416
X32.224 Z-14.418
X32.402 Z-14.421
X32.58 Z-14.424
X32.757 Z-14.426
X32.935 Z-14.429
X33.113 Z-14.433
X33.29 Z-14.436
X33.468 Z-14.44
X33.646 Z-14.443
X33.824 Z-14.447
X34.001 Z-14.451
X34.179 Z-14.455
X34.357 Z-14.459
X34.534 Z-14.464
X34.712 Z-14.468
X34.89 Z-14.473
X35.067 Z-14.477
X35.245 Z-14.482
X35.423 Z-14.487
X35.6 Z-14.492
X35.778 Z-14.497
X35.956 Z-14.503
X36.134 Z-14.508
X36.311 Z-14.514
X36.489 Z-14.519
X36.667 Z-14.525
X36.844 Z-14.531
X37.022 Z-14.537
X37.2 Z-14.543
X37.377 Z-14.549
X37.555 Z-14.555
X48.039 Z-14.921
X48.082 Z-14.922
X48.096
X48.105 Z-14.923
X48.106 Y-32.302
Y-32.297
Y-32.271
Y-32.195 Z-14.926
Y-28.641 Z-15.05
Y-28.463 Z-15.056
Y-28.286 Z-15.062
Y-28.108 Z-15.068
Y-27.93 Z-15.074
Y-27.752 Z-15.079
Y-27.575 Z-15.085
Y-27.397 Z-15.091
Y-27.219 Z-15.096
Y-27.042 Z-15.101
Y-26.864 Z-15.107
Y-26.686 Z-15.112
Y-26.509 Z-15.117
Y-26.331 Z-15.121
Y-26.153 Z-15.126
Y-25.976 Z-15.131
Y-25.798 Z-15.135
Y-25.62 Z-15.14
Y-25.442 Z-15.144
Y-25.265 Z-15.148
Y-25.087 Z-15.152
Y-24.909 Z-15.156
Y-24.732 Z-15.16
Y-24.554 Z-15.163
Y-24.376 Z-15.167
Y-24.199 Z-15.17
Y-24.021 Z-15.173
Y-23.843 Z-15.176
Y-23.666 Z-15.179
Y-23.488 Z-15.181
Y-23.31 Z-15.184
Y-23.133 Z-15.186
Y-22.955 Z-15.188
Y-22.777 Z-15.19
Y-22.599 Z-15.192
Y-22.422 Z-15.194
Y-22.244 Z-15.195
Y-22.066 Z-15.196
Y-21.889 Z-15.197
Y-21.711 Z-15.198
Y-21.533 Z-15.199
Y-21.356 Z-15.2
Y-21.178
Y-20.979
Y-20.958
Y32.304
X48.104 Y32.306
X-83.104
X-83.106 Y32.304
Y-32.304
X-83.104 Y-32.306
X48.104
X48.106 Y-32.304
Y-20.958
Y-20.913
Y-20.869
Y-20.78
Y-20.603
Y-20.425 Z-15.201
Y-20.247 Z-15.202
Y-20.069
Y-19.892 Z-15.203
Y-19.714 Z-15.205
Y-19.536 Z-15.206
Y-19.359 Z-15.208
Y-19.181 Z-15.209
Y-19.003 Z-15.211
Y-18.826 Z-15.213
Y-18.648 Z-15.216
Y-18.47 Z-15.218
Y-18.293 Z-15.221
Y-18.115 Z-15.224
Y-17.937 Z-15.226
Y-17.759 Z-15.229
Y-17.582 Z-15.233
Y-17.404 Z-15.236
Y-17.226 Z-15.24
Y-17.049 Z-15.243
Y-16.871 Z-15.247
Y-16.693 Z-15.251
Y-16.516 Z-15.255
Y-16.338 Z-15.259
Y-16.16 Z-15.264
Y-15.983 Z-15.268
Y-15.805 Z-15.273
Y-15.627 Z-15.277
Y-15.449 Z-15.282
Y-15.272 Z-15.287
Y-15.094 Z-15.292
Y-14.916 Z-15.297
Y-14.739 Z-15.303
Y-14.561 Z-15.308
Y-14.383 Z-15.314
Y-14.206 Z-15.319
Y-14.028 Z-15.325
Y-13.85 Z-15.331
Y-13.673 Z-15.337
Y-13.495 Z-15.343
Y-13.317 Z-15.349
Y-13.139 Z-15.355
Y0.898 Z-15.845
Y1.076 Z-15.851
Y1.254 Z-15.857
Y1.431 Z-15.863
Y1.609 Z-15.869
Y1.787 Z-15.875
Y1.964 Z-15.881
Y2.142 Z-15.886
Y2.32 Z-15.892
Y2.497 Z-15.897
Y2.675 Z-15.903
Y2.853 Z-15.908
Y3.03 Z-15.913
Y3.208 Z-15.918
Y3.386 Z-15.923
Y3.564 Z-15.927
Y3.741 Z-15.932
Y3.919 Z-15.937
Y4.097 Z-15.941
Y4.274 Z-15.945
Y4.452 Z-15.949
Y4.63 Z-15.953
Y4.807 Z-15.957
Y4.985 Z-15.961
Y5.163 Z-15.964
Y5.34 Z-15.967
Y5.518 Z-15.971
Y5.696 Z-15.974
Y5.874 Z-15.977
Y6.051 Z-15.979
Y6.229 Z-15.982
Y6.407 Z-15.984
Y6.584 Z-15.987
Y6.762 Z-15.989
Y6.94 Z-15.991
Y7.117 Z-15.992
Y7.295 Z-15.994
Y7.473 Z-15.995
Y7.65 Z-15.997
Y7.828 Z-15.998
Y8.006
Y8.184 Z-15.999
Y8.361 Z-16.
Y8.539
Y8.625
Y8.712
Y32.304
X48.104 Y32.306
X-83.104
X-83.106 Y32.304
Y-32.304
X-83.104 Y-32.306
X48.104
X48.106 Y-32.304
Y8.712
Y8.756
Y8.8
Y8.889
Y9.067
Y9.245 Z-16.001
Y9.422 Z-16.002
Y9.6
Y9.778 Z-16.003
Y9.955 Z-16.005
Y10.133 Z-16.006
Y10.311 Z-16.008
Y10.488 Z-16.009
Y10.666 Z-16.011
Y10.844 Z-16.013
Y11.022 Z-16.016
Y11.199 Z-16.018
Y11.377 Z-16.021
Y11.555 Z-16.024
Y11.732 Z-16.026
Y11.91 Z-16.029
Y12.088 Z-16.033
Y12.265 Z-16.036
Y12.443 Z-16.04
Y12.621 Z-16.043
Y12.798 Z-16.047
Y12.976 Z-16.051
Y13.154 Z-16.055
Y13.332 Z-16.059
Y13.509 Z-16.064
Y13.687 Z-16.068
Y13.865 Z-16.073
Y14.042 Z-16.077
Y14.22 Z-16.082
Y14.398 Z-16.087
Y14.575 Z-16.092
Y14.753 Z-16.097
Y14.931 Z-16.103
Y15.108 Z-16.108
Y15.286 Z-16.114
Y15.464 Z-16.119
Y15.642 Z-16.125
Y15.819 Z-16.131
Y15.997 Z-16.137
Y16.175 Z-16.143
Y16.352 Z-16.149
Y16.53 Z-16.155
Y30.568 Z-16.645
Y30.745 Z-16.651
Y30.923 Z-16.657
Y31.101 Z-16.663
Y31.278 Z-16.669
Y31.456 Z-16.675
Y31.634 Z-16.681
Y31.811 Z-16.686
Y31.989 Z-16.692
Y32.167 Z-16.697
Y32.242 Z-16.7
Y32.286 Z-16.701
Y32.302 Z-16.702
X48.105 Y32.306
X48.1
X48.092
X48.067
X47.889 Z-16.708
X47.711 Z-16.713
X47.534 Z-16.718
X47.356 Z-16.723
X47.178 Z-16.727
X47.001 Z-16.732
X46.823 Z-16.736
X46.645 Z-16.741
X46.468 Z-16.745
X46.29 Z-16.749
X46.112 Z-16.753
X45.935 Z-16.757
X45.757 Z-16.76
X45.579 Z-16.764
X45.401 Z-16.767
X45.224 Z-16.77
X45.046 Z-16.774
X44.868 Z-16.776
X44.691 Z-16.779
X44.513 Z-16.782
X44.335 Z-16.784
X44.158 Z-16.786
X43.98 Z-16.789
X43.802 Z-16.791
X43.625 Z-16.792
X43.447 Z-16.794
X43.269 Z-16.795
X43.091 Z-16.797
X42.914 Z-16.798
X42.736
X42.558 Z-16.799
X42.381 Z-16.8
X42.203
X42.02
X-83.104
X-83.106 Y32.304
Y-32.304
X-83.104 Y-32.306
X48.104
X48.106 Y-32.304
Y8.712
Y32.304
X48.104 Y32.306
X42.02
X41.976
X41.931
X41.843
X41.665
X41.487 Z-16.801
X41.31 Z-16.802
X41.132
X40.954 Z-16.803
X40.776 Z-16.805
X40.599 Z-16.806
X40.421 Z-16.808
X40.243 Z-16.809
X40.066 Z-16.811
X39.888 Z-16.813
X39.71 Z-16.816
X39.533 Z-16.818
X39.355 Z-16.821
X39.177 Z-16.824
X39. Z-16.826
X38.822 Z-16.829
X38.644 Z-16.833
X38.466 Z-16.836
X38.289 Z-16.84
X38.111 Z-16.843
X37.933 Z-16.847
X37.756 Z-16.851
X37.578 Z-16.855
X37.4 Z-16.859
X37.223 Z-16.864
X37.045 Z-16.868
X36.867 Z-16.873
X36.69 Z-16.877
X36.512 Z-16.882
X36.334 Z-16.887
X36.156 Z-16.892
X35.979 Z-16.897
X35.801 Z-16.903
X35.623 Z-16.908
X35.446 Z-16.914
X35.268 Z-16.919
X35.09 Z-16.925
X34.913 Z-16.931
X34.735 Z-16.937
X34.557 Z-16.943
X34.38 Z-16.949
X34.202 Z-16.955
X20.164 Z-17.445
X19.987 Z-17.451
X19.809 Z-17.457
X19.631 Z-17.463
X19.453 Z-17.469
X19.276 Z-17.475
X19.098 Z-17.481
X18.92 Z-17.486
X18.743 Z-17.492
X18.565 Z-17.497
X18.387 Z-17.503
X18.21 Z-17.508
X18.032 Z-17.513
X17.854 Z-17.518
X17.677 Z-17.523
X17.499 Z-17.527
X17.321 Z-17.532
X17.143 Z-17.537
X16.966 Z-17.541
X16.788 Z-17.545
X16.61 Z-17.549
X16.433 Z-17.553
X16.255 Z-17.557
X16.077 Z-17.561
X15.9 Z-17.564
X15.722 Z-17.567
X15.544 Z-17.571
X15.367 Z-17.574
X15.189 Z-17.577
X15.011 Z-17.579
X14.833 Z-17.582
X14.656 Z-17.584
X14.478 Z-17.587
X14.3 Z-17.589
X14.123 Z-17.591
X13.945 Z-17.592
X13.767 Z-17.594
X13.59 Z-17.595
X13.412 Z-17.597
X13.234 Z-17.598
X13.057
X12.879 Z-17.599
X12.701 Z-17.6
X12.523
X12.437
X12.351
X-83.104
X-83.106 Y32.304
Y-32.304
X-83.104 Y-32.306
X48.104
X48.106 Y-32.304
Y32.304
X48.104 Y32.306
X12.351
X12.306
X12.262
X12.173
X11.995
X11.818 Z-17.601
X11.64 Z-17.602
X11.462
X11.285 Z-17.603
X11.107 Z-17.605
X10.929 Z-17.606
X10.752 Z-17.608
X10.574 Z-17.609
X10.396 Z-17.611
X10.219 Z-17.613
X10.041 Z-17.616
X9.863 Z-17.618
X9.685 Z-17.621
X9.508 Z-17.624
X9.33 Z-17.626
X9.152 Z-17.629
X8.975 Z-17.633
X8.797 Z-17.636
X8.619 Z-17.64
X8.442 Z-17.643
X8.264 Z-17.647
X8.086 Z-17.651
X7.909 Z-17.655
X7.731 Z-17.659
X7.553 Z-17.664
X7.375 Z-17.668
X7.198 Z-17.673
X7.02 Z-17.677
X6.842 Z-17.682
X6.665 Z-17.687
X6.487 Z-17.692
X6.309 Z-17.697
X6.132 Z-17.703
X5.954 Z-17.708
X5.776 Z-17.714
X5.599 Z-17.719
X5.421 Z-17.725
X5.243 Z-17.731
X5.066 Z-17.737
X4.888 Z-17.743
X4.71 Z-17.749
X4.532 Z-17.755
X-9.505 Z-18.245
X-9.683 Z-18.251
X-9.861 Z-18.257
X-10.038 Z-18.263
X-10.216 Z-18.269
X-10.394 Z-18.275
X-10.571 Z-18.281
X-10.749 Z-18.286
X-10.927 Z-18.292
X-11.104 Z-18.297
X-11.282 Z-18.303
X-11.46 Z-18.308
X-11.638 Z-18.313
X-11.815 Z-18.318
X-11.993 Z-18.323
X-12.171 Z-18.327
X-12.348 Z-18.332
X-12.526 Z-18.337
X-12.704 Z-18.341
X-12.881 Z-18.345
X-13.059 Z-18.349
X-13.237 Z-18.353
X-13.414 Z-18.357
X-13.592 Z-18.361
X-13.77 Z-18.364
X-13.947 Z-18.367
X-14.125 Z-18.371
X-14.303 Z-18.374
X-14.481 Z-18.377
X-14.658 Z-18.379
X-14.836 Z-18.382
X-15.014 Z-18.384
X-15.191 Z-18.387
X-15.369 Z-18.389
X-15.547 Z-18.391
X-15.724 Z-18.392
X-15.902 Z-18.394
X-16.08 Z-18.395
X-16.257 Z-18.397
X-16.435 Z-18.398
X-16.613
X-16.791 Z-18.399
X-16.968 Z-18.4
X-17.146
X-17.232
X-17.319
X-83.104
X-83.106 Y32.304
Y-32.304
X-83.104 Y-32.306
X48.104
X48.106 Y-32.304
Y32.304
X48.104 Y32.306
X12.351
X-17.319
X-17.363
X-17.407
X-17.496
X-17.674
X-17.852 Z-18.401
X-18.029 Z-18.402
X-18.207
X-18.385 Z-18.403
X-18.562 Z-18.405
X-18.74 Z-18.406
X-18.918 Z-18.408
X-19.095 Z-18.409
X-19.273 Z-18.411
X-19.451 Z-18.413
X-19.629 Z-18.416
X-19.806 Z-18.418
X-19.984 Z-18.421
X-20.162 Z-18.424
X-20.339 Z-18.426
X-20.517 Z-18.429
X-20.695 Z-18.433
X-20.872 Z-18.436
X-21.05 Z-18.44
X-21.228 Z-18.443
X-21.405 Z-18.447
X-21.583 Z-18.451
X-21.761 Z-18.455
X-21.939 Z-18.459
X-22.116 Z-18.464
X-22.294 Z-18.468
X-22.472 Z-18.473
X-22.649 Z-18.477
X-22.827 Z-18.482
X-23.005 Z-18.487
X-23.182 Z-18.492
X-23.36 Z-18.497
X-23.538 Z-18.503
X-23.715 Z-18.508
X-23.893 Z-18.514
X-24.071 Z-18.519
X-24.249 Z-18.525
X-24.426 Z-18.531
X-24.604 Z-18.537
X-24.782 Z-18.543
X-24.959 Z-18.549
X-25.137 Z-18.555
X-39.175 Z-19.045
X-39.352 Z-19.051
X-39.53 Z-19.057
X-39.708 Z-19.063
X-39.885 Z-19.069
X-40.063 Z-19.075
X-40.241 Z-19.081
X-40.418 Z-19.086
X-40.596 Z-19.092
X-40.774 Z-19.097
X-40.952 Z-19.103
X-41.129 Z-19.108
X-41.307 Z-19.113
X-41.485 Z-19.118
X-41.662 Z-19.123
X-41.84 Z-19.127
X-42.018 Z-19.132
X-42.195 Z-19.137
X-42.373 Z-19.141
X-42.551 Z-19.145
X-42.728 Z-19.149
X-42.906 Z-19.153
X-43.084 Z-19.157
X-43.262 Z-19.161
X-43.439 Z-19.164
X-43.617 Z-19.167
X-43.795 Z-19.171
X-43.972 Z-19.174
X-44.15 Z-19.177
X-44.328 Z-19.179
X-44.505 Z-19.182
X-44.683 Z-19.184
X-44.861 Z-19.187
X-45.038 Z-19.189
X-45.216 Z-19.191
X-45.394 Z-19.192
X-45.572 Z-19.194
X-45.749 Z-19.195
X-45.927 Z-19.197
X-46.105 Z-19.198
X-46.282
X-46.46 Z-19.199
X-46.638 Z-19.2
X-46.815
X-46.902
X-46.988
X-83.104
X-83.106 Y32.304
Y-32.304
X-83.104 Y-32.306
X48.104
X48.106 Y-32.304
Y32.304
X48.104 Y32.306
X-17.319
X-46.988
X-47.032
X-47.077
X-47.166
X-47.343
X-47.521 Z-19.201
X-47.699 Z-19.202
X-47.876
X-48.054 Z-19.203
X-48.232 Z-19.205
X-48.41 Z-19.206
X-48.587 Z-19.208
X-48.765 Z-19.209
X-48.943 Z-19.211
X-49.12 Z-19.213
X-49.298 Z-19.216
X-49.476 Z-19.218
X-49.653 Z-19.221
X-49.831 Z-19.224
X-50.009 Z-19.226
X-50.186 Z-19.229
X-50.364 Z-19.233
X-50.542 Z-19.236
X-50.72 Z-19.24
X-50.897 Z-19.243
X-51.075 Z-19.247
X-51.253 Z-19.251
X-51.43 Z-19.255
X-51.608 Z-19.259
X-51.786 Z-19.264
X-51.963 Z-19.268
X-52.141 Z-19.273
X-52.319 Z-19.277
X-52.496 Z-19.282
X-52.674 Z-19.287
X-52.852 Z-19.292
X-53.03 Z-19.297
X-53.207 Z-19.303
X-53.385 Z-19.308
X-53.563 Z-19.314
X-53.74 Z-19.319
X-53.918 Z-19.325
X-54.096 Z-19.331
X-54.273 Z-19.337
X-54.451 Z-19.343
X-54.629 Z-19.349
X-54.806 Z-19.355
X-68.844 Z-19.845
X-69.022 Z-19.851
X-69.199 Z-19.857
X-69.377 Z-19.863
X-69.555 Z-19.869
X-69.733 Z-19.875
X-69.91 Z-19.881
X-70.088 Z-19.886
X-70.266 Z-19.892
X-70.443 Z-19.897
X-70.621 Z-19.903
X-70.799 Z-19.908
X-70.976 Z-19.913
X-71.154 Z-19.918
X-71.332 Z-19.923
X-71.509 Z-19.927
X-71.687 Z-19.932
X-71.865 Z-19.937
X-72.043 Z-19.941
X-72.22 Z-19.945
X-72.398 Z-19.949
X-72.576 Z-19.953
X-72.753 Z-19.957
X-72.931 Z-19.961
X-73.109 Z-19.964
X-73.286 Z-19.967
X-73.464 Z-19.971
X-73.642 Z-19.974
X-73.819 Z-19.977
X-73.997 Z-19.979
X-74.175 Z-19.982
X-74.353 Z-19.984
X-74.53 Z-19.987
X-74.708 Z-19.989
X-74.886 Z-19.991
X-75.063 Z-19.992
X-75.241 Z-19.994
X-75.419 Z-19.995
X-75.596 Z-19.997
X-75.774 Z-19.998
X-75.952
X-76.129 Z-19.999
X-76.307 Z-20.
X-76.485
X-76.571
X-76.657
X-83.104
X-83.106 Y32.304
Y-32.304
X-83.104 Y-32.306
X48.104
X48.106 Y-32.304
Y32.304
X48.104 Y32.306
X-46.988
X-76.657
X-76.702
X-76.746
X-76.835
X-77.013
X-77.191 Z-20.001
X-77.368 Z-20.002
X-77.546
X-77.724 Z-20.003
X-77.901 Z-20.005
X-78.079 Z-20.006
X-78.257 Z-20.008
X-78.434 Z-20.009
X-78.612 Z-20.011
X-78.79 Z-20.013
X-78.967 Z-20.016
X-79.145 Z-20.018
X-79.323 Z-20.021
X-79.501 Z-20.024
X-79.678 Z-20.026
X-79.856 Z-20.029
X-80.034 Z-20.033
X-80.211 Z-20.036
X-80.389 Z-20.04
X-80.567 Z-20.043
X-80.744 Z-20.047
X-80.922 Z-20.051
X-81.1 Z-20.055
X-81.277 Z-20.059
X-81.455 Z-20.064
X-81.633 Z-20.068
X-81.811 Z-20.073
X-81.988 Z-20.077
X-82.166 Z-20.082
X-82.344 Z-20.087
X-82.521 Z-20.092
X-82.699 Z-20.097
X-82.877 Z-20.103
X-83.054 Z-20.108
X-83.103 Z-20.109
X-83.106 Y32.305
Y32.253 Z-20.111
Y32.179 Z-20.113
Y32.002 Z-20.119
Y31.824 Z-20.124
Y31.646 Z-20.13
Y31.469 Z-20.136
Y31.291 Z-20.142
Y31.113 Z-20.148
Y30.936 Z-20.154
Y16.72 Z-20.651
Y16.543 Z-20.657
Y16.365 Z-20.663
Y16.187 Z-20.669
Y16.009 Z-20.674
Y15.832 Z-20.68
Y15.654 Z-20.686
Y15.476 Z-20.691
Y15.299 Z-20.697
Y15.121 Z-20.702
Y14.943 Z-20.707
Y14.766 Z-20.712
Y14.588 Z-20.717
Y14.41 Z-20.722
Y14.233 Z-20.727
Y14.055 Z-20.731
Y13.877 Z-20.736
Y13.699 Z-20.74
Y13.522 Z-20.745
Y13.344 Z-20.749
Y13.166 Z-20.753
Y12.989 Z-20.756
Y12.811 Z-20.76
Y12.633 Z-20.764
Y12.456 Z-20.767
Y12.278 Z-20.77
Y12.1 Z-20.773
Y11.923 Z-20.776
Y11.745 Z-20.779
Y11.567 Z-20.782
Y11.389 Z-20.784
Y11.212 Z-20.786
Y11.034 Z-20.788
Y10.856 Z-20.79
Y10.679 Z-20.792
Y10.501 Z-20.794
Y10.323 Z-20.795
Y10.146 Z-20.796
Y9.968 Z-20.797
Y9.79 Z-20.798
Y9.613 Z-20.799
Y9.435 Z-20.8
Y9.257
Y9.061
Y-32.304
X-83.104 Y-32.306
X48.104
X48.106 Y-32.304
Y32.304
X48.104 Y32.306
X-76.657
X-83.104
X-83.106 Y32.304
Y9.061
Y9.017
Y8.972
Y8.884
Y8.706
Y8.528 Z-20.801
Y8.351 Z-20.802
Y8.173
Y7.995 Z-20.803
Y7.817 Z-20.805
Y7.64 Z-20.806
Y7.462 Z-20.808
Y7.284 Z-20.809
Y7.107 Z-20.811
Y6.929 Z-20.813
Y6.751 Z-20.816
Y6.574 Z-20.818
Y6.396 Z-20.821
Y6.218 Z-20.824
Y6.041 Z-20.826
Y5.863 Z-20.829
Y5.685 Z-20.833
Y5.507 Z-20.836
Y5.33 Z-20.84
Y5.152 Z-20.843
Y4.974 Z-20.847
Y4.797 Z-20.851
Y4.619 Z-20.855
Y4.441 Z-20.859
Y4.264 Z-20.864
Y4.086 Z-20.868
Y3.908 Z-20.873
Y3.731 Z-20.877
Y3.553 Z-20.882
Y3.375 Z-20.887
Y3.197 Z-20.892
Y3.02 Z-20.897
Y2.842 Z-20.903
Y2.664 Z-20.908
Y2.487 Z-20.914
Y2.309 Z-20.919
Y2.131 Z-20.925
Y1.954 Z-20.931
Y1.776 Z-20.937
Y1.598 Z-20.943
Y1.421 Z-20.949
Y1.243 Z-20.955
Y-12.795 Z-21.445
Y-12.972 Z-21.451
Y-13.15 Z-21.457
Y-13.328 Z-21.463
Y-13.506 Z-21.469
Y-13.683 Z-21.475
Y-13.861 Z-21.481
Y-14.039 Z-21.486
Y-14.216 Z-21.492
Y-14.394 Z-21.497
Y-14.572 Z-21.503
Y-14.749 Z-21.508
Y-14.927 Z-21.513
Y-15.105 Z-21.518
Y-15.282 Z-21.523
Y-15.46 Z-21.527
Y-15.638 Z-21.532
Y-15.816 Z-21.537
Y-15.993 Z-21.541
Y-16.171 Z-21.545
Y-16.349 Z-21.549
Y-16.526 Z-21.553
Y-16.704 Z-21.557
Y-16.882 Z-21.561
Y-17.059 Z-21.564
Y-17.237 Z-21.567
Y-17.415 Z-21.571
Y-17.592 Z-21.574
Y-17.77 Z-21.577
Y-17.948 Z-21.579
Y-18.126 Z-21.582
Y-18.303 Z-21.584
Y-18.481 Z-21.587
Y-18.659 Z-21.589
Y-18.836 Z-21.591
Y-19.014 Z-21.592
Y-19.192 Z-21.594
Y-19.369 Z-21.595
Y-19.547 Z-21.597
Y-19.725 Z-21.598
Y-19.902
Y-20.08 Z-21.599
Y-20.258 Z-21.6
Y-20.436
Y-20.522
Y-20.608
Y-32.304
X-83.104 Y-32.306
X48.104
X48.106 Y-32.304
Y32.304
X48.104 Y32.306
X-83.104
X-83.106 Y32.304
Y-20.608
Y-20.653
Y-20.697
Y-20.786
Y-20.964
Y-21.141 Z-21.601
Y-21.319 Z-21.602
Y-21.497
Y-21.674 Z-21.603
Y-21.852 Z-21.605
Y-22.03 Z-21.606
Y-22.207 Z-21.608
Y-22.385 Z-21.609
Y-22.563 Z-21.611
Y-22.74 Z-21.613
Y-22.918 Z-21.616
Y-23.096 Z-21.618
Y-23.274 Z-21.621
Y-23.451 Z-21.624
Y-23.629 Z-21.626
Y-23.807 Z-21.629
Y-23.984 Z-21.633
Y-24.162 Z-21.636
Y-24.34 Z-21.64
Y-24.517 Z-21.643
Y-24.695 Z-21.647
Y-24.873 Z-21.651
Y-25.05 Z-21.655
Y-25.228 Z-21.659
Y-25.406 Z-21.664
Y-25.584 Z-21.668
Y-25.761 Z-21.673
Y-25.939 Z-21.677
Y-26.117 Z-21.682
Y-26.294 Z-21.687
Y-26.472 Z-21.692
Y-26.65 Z-21.697
Y-26.827 Z-21.703
Y-27.005 Z-21.708
Y-27.183 Z-21.714
Y-27.36 Z-21.719
Y-27.538 Z-21.725
Y-27.716 Z-21.731
Y-27.894 Z-21.737
Y-28.071 Z-21.743
Y-28.249 Z-21.749
Y-28.427 Z-21.755
Y-32.158 Z-21.885
Y-32.235 Z-21.888
Y-32.277 Z-21.889
Y-32.303 Z-21.89
X-83.105 Y-32.306
X-83.076 Z-21.891
X-77.39 Z-22.089
X-72.77 Z-22.25
X-72.592 Z-22.257
X-72.414 Z-22.263
X-72.236 Z-22.268
X-72.059 Z-22.274
X-71.881 Z-22.28
X-71.703 Z-22.286
X-71.526 Z-22.291
X-71.348 Z-22.297
X-71.17 Z-22.302
X-70.993 Z-22.307
X-70.815 Z-22.312
X-70.637 Z-22.317
X-70.46 Z-22.322
X-70.282 Z-22.327
X-70.104 Z-22.331
X-69.926 Z-22.336
X-69.749 Z-22.34
X-69.571 Z-22.344
X-69.393 Z-22.349
X-69.216 Z-22.352
X-69.038 Z-22.356
X-68.86 Z-22.36
X-68.683 Z-22.364
X-68.505 Z-22.367
X-68.327 Z-22.37
X-68.15 Z-22.373
X-67.972 Z-22.376
X-67.794 Z-22.379
X-67.616 Z-22.382
X-67.439 Z-22.384
X-67.261 Z-22.386
X-67.083 Z-22.388
X-66.906 Z-22.39
X-66.728 Z-22.392
X-66.55 Z-22.394
X-66.373 Z-22.395
X-66.195 Z-22.396
X-66.017 Z-22.397
X-65.84 Z-22.398
X-65.662 Z-22.399
X-65.484 Z-22.4
X-65.306
X-65.108
X48.104
X48.106 Y-32.304
Y32.304
X48.104 Y32.306
X-83.104
X-83.106 Y32.304
Y-20.608
Y-32.304
X-83.104 Y-32.306
X-65.108
X-65.063
X-65.019
X-64.93
X-64.752
X-64.575 Z-22.401
X-64.397 Z-22.402
X-64.219
X-64.041 Z-22.403
X-63.864 Z-22.405
X-63.686 Z-22.406
X-63.508 Z-22.408
X-63.331 Z-22.409
X-63.153 Z-22.411
X-62.975 Z-22.413
X-62.798 Z-22.416
X-62.62 Z-22.418
X-62.442 Z-22.421
X-62.265 Z-22.424
X-62.087 Z-22.426
X-61.909 Z-22.429
X-61.731 Z-22.433
X-61.554 Z-22.436
X-61.376 Z-22.44
X-61.198 Z-22.443
X-61.021 Z-22.447
X-60.843 Z-22.451
X-60.665 Z-22.455
X-60.488 Z-22.459
X-60.31 Z-22.464
X-60.132 Z-22.468
X-59.955 Z-22.473
X-59.777 Z-22.477
X-59.599 Z-22.482
X-59.421 Z-22.487
X-59.244 Z-22.492
X-59.066 Z-22.497
X-58.888 Z-22.503
X-58.711 Z-22.508
X-58.533 Z-22.514
X-58.355 Z-22.519
X-58.178 Z-22.525
X-58. Z-22.531
X-57.822 Z-22.537
X-57.645 Z-22.543
X-57.467 Z-22.549
X-57.289 Z-22.555
X-43.252 Z-23.045
X-43.074 Z-23.051
X-42.896 Z-23.057
X-42.718 Z-23.063
X-42.541 Z-23.069
X-42.363 Z-23.075
X-42.185 Z-23.081
X-42.008 Z-23.086
X-41.83 Z-23.092
X-41.652 Z-23.097
X-41.475 Z-23.103
X-41.297 Z-23.108
X-41.119 Z-23.113
X-40.942 Z-23.118
X-40.764 Z-23.123
X-40.586 Z-23.127
X-40.408 Z-23.132
X-40.231 Z-23.137
X-40.053 Z-23.141
X-39.875 Z-23.145
X-39.698 Z-23.149
X-39.52 Z-23.153
X-39.342 Z-23.157
X-39.165 Z-23.161
X-38.987 Z-23.164
X-38.809 Z-23.167
X-38.632 Z-23.171
X-38.454 Z-23.174
X-38.276 Z-23.177
X-38.098 Z-23.179
X-37.921 Z-23.182
X-37.743 Z-23.184
X-37.565 Z-23.187
X-37.388 Z-23.189
X-37.21 Z-23.191
X-37.032 Z-23.192
X-36.855 Z-23.194
X-36.677 Z-23.195
X-36.499 Z-23.197
X-36.322 Z-23.198
X-36.144
X-35.966 Z-23.199
X-35.788 Z-23.2
X-35.611
X-35.524
X-35.438
X48.104
X48.106 Y-32.304
Y32.304
X48.104 Y32.306
X-83.104
X-83.106 Y32.304
Y-32.304
X-83.104 Y-32.306
X-35.438
X-35.394
X-35.349
X-35.26
X-35.083
X-34.905 Z-23.201
X-34.727 Z-23.202
X-34.55
X-34.372 Z-23.203
X-34.194 Z-23.205
X-34.017 Z-23.206
X-33.839 Z-23.208
X-33.661 Z-23.209
X-33.484 Z-23.211
X-33.306 Z-23.213
X-33.128 Z-23.216
X-32.95 Z-23.218
X-32.773 Z-23.221
X-32.595 Z-23.224
X-32.417 Z-23.226
X-32.24 Z-23.229
X-32.062 Z-23.233
X-31.884 Z-23.236
X-31.707 Z-23.24
X-31.529 Z-23.243
X-31.351 Z-23.247
X-31.174 Z-23.251
X-30.996 Z-23.255
X-30.818 Z-23.259
X-30.64 Z-23.264
X-30.463 Z-23.268
X-30.285 Z-23.273
X-30.107 Z-23.277
X-29.93 Z-23.282
X-29.752 Z-23.287
X-29.574 Z-23.292
X-29.397 Z-23.297
X-29.219 Z-23.303
X-29.041 Z-23.308
X-28.864 Z-23.314
X-28.686 Z-23.319
X-28.508 Z-23.325
X-28.33 Z-23.331
X-28.153 Z-23.337
X-27.975 Z-23.343
X-27.797 Z-23.349
X-27.62 Z-23.355
X-13.582 Z-23.845
X-13.404 Z-23.851
X-13.227 Z-23.857
X-13.049 Z-23.863
X-12.871 Z-23.869
X-12.694 Z-23.875
X-12.516 Z-23.881
X-12.338 Z-23.886
X-12.161 Z-23.892
X-11.983 Z-23.897
X-11.805 Z-23.903
X-11.627 Z-23.908
X-11.45 Z-23.913
X-11.272 Z-23.918
X-11.094 Z-23.923
X-10.917 Z-23.927
X-10.739 Z-23.932
X-10.561 Z-23.937
X-10.384 Z-23.941
X-10.206 Z-23.945
X-10.028 Z-23.949
X-9.851 Z-23.953
X-9.673 Z-23.957
X-9.495 Z-23.961
X-9.317 Z-23.964
X-9.14 Z-23.967
X-8.962 Z-23.971
X-8.784 Z-23.974
X-8.607 Z-23.977
X-8.429 Z-23.979
X-8.251 Z-23.982
X-8.074 Z-23.984
X-7.896 Z-23.987
X-7.718 Z-23.989
X-7.541 Z-23.991
X-7.363 Z-23.992
X-7.185 Z-23.994
X-7.007 Z-23.995
X-6.83 Z-23.997
X-6.652 Z-23.998
X-6.474
X-6.297 Z-23.999
X-6.119 Z-24.
X-5.941
X-5.855
X-5.769
X48.104
X48.106 Y-32.304
Y32.304
X48.104 Y32.306
X-83.104
X-83.106 Y32.304
Y-32.304
X-83.104 Y-32.306
X-5.769
X-5.724
X-5.68
X-5.591
X-5.413
X-5.236 Z-24.001
X-5.058 Z-24.002
X-4.88
X-4.703 Z-24.003
X-4.525 Z-24.005
X-4.347 Z-24.006
X-4.169 Z-24.008
X-3.992 Z-24.009
X-3.814 Z-24.011
X-3.636 Z-24.013
X-3.459 Z-24.016
X-3.281 Z-24.018
X-3.103 Z-24.021
X-2.926 Z-24.024
X-2.748 Z-24.026
X-2.57 Z-24.029
X-2.393 Z-24.033
X-2.215 Z-24.036
X-2.037 Z-24.04
X-1.859 Z-24.043
X-1.682 Z-24.047
X-1.504 Z-24.051
X-1.326 Z-24.055
X-1.149 Z-24.059
X-0.971 Z-24.064
X-0.793 Z-24.068
X-0.616 Z-24.073
X-0.438 Z-24.077
X-0.26 Z-24.082
X-0.083 Z-24.087
X0.095 Z-24.092
X0.273 Z-24.097
X0.451 Z-24.103
X0.628 Z-24.108
X0.806 Z-24.114
X0.984 Z-24.119
X1.161 Z-24.125
X1.339 Z-24.131
X1.517 Z-24.137
X1.694 Z-24.143
X1.872 Z-24.149
X2.05 Z-24.155
X16.087 Z-24.645
X16.265 Z-24.651
X16.443 Z-24.657
X16.62 Z-24.663
X16.798 Z-24.669
X16.976 Z-24.675
X17.154 Z-24.681
X17.331 Z-24.686
X17.509 Z-24.692
X17.687 Z-24.697
X17.864 Z-24.703
X18.042 Z-24.708
X18.22 Z-24.713
X18.397 Z-24.718
X18.575 Z-24.723
X18.753 Z-24.727
X18.93 Z-24.732
X19.108 Z-24.737
X19.286 Z-24.741
X19.464 Z-24.745
X19.641 Z-24.749
X19.819 Z-24.753
X19.997 Z-24.757
X20.174 Z-24.761
X20.352 Z-24.764
X20.53 Z-24.767
X20.707 Z-24.771
X20.885 Z-24.774
X21.063 Z-24.777
X21.24 Z-24.779
X21.418 Z-24.782
X21.596 Z-24.784
X21.774 Z-24.787
X21.951 Z-24.789
X22.129 Z-24.791
X22.307 Z-24.792
X22.484 Z-24.794
X22.662 Z-24.795
X22.84 Z-24.797
X23.017 Z-24.798
X23.195
X23.373 Z-24.799
X23.55 Z-24.8
X23.728
X23.814
X23.901
X48.104
X48.106 Y-32.304
Y32.304
X48.104 Y32.306
X-83.104
X-83.106 Y32.304
Y-32.304
X-83.104 Y-32.306
X23.901
X23.945
X23.99
X24.078
X24.256
X24.434 Z-24.801
X24.612 Z-24.802
X24.789
X24.967 Z-24.803
X25.145 Z-24.805
X25.322 Z-24.806
X25.5 Z-24.808
X25.678 Z-24.809
X25.855 Z-24.811
X26.033 Z-24.813
X26.211 Z-24.816
X26.388 Z-24.818
X26.566 Z-24.821
X26.744 Z-24.824
X26.922 Z-24.826
X27.099 Z-24.829
X27.277 Z-24.833
X27.455 Z-24.836
X27.632 Z-24.84
X27.81 Z-24.843
X27.988 Z-24.847
X28.165 Z-24.851
X28.343 Z-24.855
X28.521 Z-24.859
X28.698 Z-24.864
X28.876 Z-24.868
X29.054 Z-24.873
X29.231 Z-24.877
X29.409 Z-24.882
X29.587 Z-24.887
X29.765 Z-24.892
X29.942 Z-24.897
X30.12 Z-24.903
X30.298 Z-24.908
X30.475 Z-24.914
X30.653 Z-24.919
X30.831 Z-24.925
X31.008 Z-24.931
X31.186 Z-24.937
X31.364 Z-24.943
X31.541 Z-24.949
X31.719 Z-24.955
X45.757 Z-25.445
X45.935 Z-25.451
X46.112 Z-25.457
X46.29 Z-25.463
X46.468 Z-25.469
X46.645 Z-25.475
X46.823 Z-25.481
X47.001 Z-25.486
X47.178 Z-25.492
X47.356 Z-25.497
X47.534 Z-25.503
X47.711 Z-25.508
X47.889 Z-25.513
X48.067 Z-25.518
X48.092 Z-25.519
X48.1
X48.104
X48.106 Y-32.302
Y-32.286
Y-32.242 Z-25.52
Y-32.167 Z-25.523
Y-31.989 Z-25.527
Y-31.811 Z-25.532
Y-31.634 Z-25.537
Y-31.456 Z-25.541
Y-31.278 Z-25.545
Y-31.101 Z-25.549
Y-30.923 Z-25.553
Y-30.745 Z-25.557
Y-30.568 Z-25.561
Y-30.39 Z-25.564
Y-30.212 Z-25.567
Y-30.035 Z-25.571
Y-29.857 Z-25.574
Y-29.679 Z-25.577
Y-29.501 Z-25.579
Y-29.324 Z-25.582
Y-29.146 Z-25.584
Y-28.968 Z-25.587
Y-28.791 Z-25.589
Y-28.613 Z-25.591
Y-28.435 Z-25.592
Y-28.258 Z-25.594
Y-28.08 Z-25.595
Y-27.902 Z-25.597
Y-27.725 Z-25.598
Y-27.547
Y-27.369 Z-25.599
Y-27.191 Z-25.6
Y-27.014
Y-26.927
Y-26.841
Y32.304
X48.104 Y32.306
X-83.104
X-83.106 Y32.304
Y-32.304
X-83.104 Y-32.306
X48.104
X48.106 Y-32.304
Y-26.841
Y-26.797
Y-26.752
Y-26.663
Y-26.486
Y-26.308 Z-25.601
Y-26.13 Z-25.602
Y-25.953
Y-25.775 Z-25.603
Y-25.597 Z-25.605
Y-25.42 Z-25.606
Y-25.242 Z-25.608
Y-25.064 Z-25.609
Y-24.887 Z-25.611
Y-24.709 Z-25.613
Y-24.531 Z-25.616
Y-24.353 Z-25.618
Y-24.176 Z-25.621
Y-23.998 Z-25.624
Y-23.82 Z-25.626
Y-23.643 Z-25.629
Y-23.465 Z-25.633
Y-23.287 Z-25.636
Y-23.11 Z-25.64
Y-22.932 Z-25.643
Y-22.754 Z-25.647
Y-22.577 Z-25.651
Y-22.399 Z-25.655
Y-22.221 Z-25.659
Y-22.043 Z-25.664
Y-21.866 Z-25.668
Y-21.688 Z-25.673
Y-21.51 Z-25.677
Y-21.333 Z-25.682
Y-21.155 Z-25.687
Y-20.977 Z-25.692
Y-20.8 Z-25.697
Y-20.622 Z-25.703
Y-20.444 Z-25.708
Y-20.267 Z-25.714
Y-20.089 Z-25.719
Y-19.911 Z-25.725
Y-19.734 Z-25.731
Y-19.556 Z-25.737
Y-19.378 Z-25.743
Y-19.2 Z-25.749
Y-19.023 Z-25.755
Y-4.985 Z-26.245
Y-4.807 Z-26.251
Y-4.63 Z-26.257
Y-4.452 Z-26.263
Y-4.274 Z-26.269
Y-4.097 Z-26.275
Y-3.919 Z-26.281
Y-3.741 Z-26.286
Y-3.564 Z-26.292
Y-3.386 Z-26.297
Y-3.208 Z-26.303
Y-3.03 Z-26.308
Y-2.853 Z-26.313
Y-2.675 Z-26.318
Y-2.497 Z-26.323
Y-2.32 Z-26.327
Y-2.142 Z-26.332
Y-1.964 Z-26.337
Y-1.787 Z-26.341
Y-1.609 Z-26.345
Y-1.431 Z-26.349
Y-1.254 Z-26.353
Y-1.076 Z-26.357
Y-0.898 Z-26.361
Y-0.721 Z-26.364
Y-0.543 Z-26.367
Y-0.365 Z-26.371
Y-0.187 Z-26.374
Y-0.01 Z-26.377
Y0.168 Z-26.379
Y0.346 Z-26.382
Y0.523 Z-26.384
Y0.701 Z-26.387
Y0.879 Z-26.389
Y1.056 Z-26.391
Y1.234 Z-26.392
Y1.412 Z-26.394
Y1.589 Z-26.395
Y1.767 Z-26.397
Y1.945 Z-26.398
Y2.123
Y2.3 Z-26.399
Y2.478 Z-26.4
Y2.656
Y2.742
Y2.828
Y32.304
X48.104 Y32.306
X-83.104
X-83.106 Y32.304
Y-32.304
X-83.104 Y-32.306
X48.104
X48.106 Y-32.304
Y2.828
Y2.873
Y2.917
Y3.006
Y3.184
Y3.361 Z-26.401
Y3.539 Z-26.402
Y3.717
Y3.894 Z-26.403
Y4.072 Z-26.405
Y4.25 Z-26.406
Y4.427 Z-26.408
Y4.605 Z-26.409
Y4.783 Z-26.411
Y4.961 Z-26.413
Y5.138 Z-26.416
Y5.316 Z-26.418
Y5.494 Z-26.421
Y5.671 Z-26.424
Y5.849 Z-26.426
Y6.027 Z-26.429
Y6.204 Z-26.433
Y6.382 Z-26.436
Y6.56 Z-26.44
Y6.737 Z-26.443
Y6.915 Z-26.447
Y7.093 Z-26.451
Y7.271 Z-26.455
Y7.448 Z-26.459
Y7.626 Z-26.464
Y7.804 Z-26.468
Y7.981 Z-26.473
Y8.159 Z-26.477
Y8.337 Z-26.482
Y8.514 Z-26.487
Y8.692 Z-26.492
Y8.87 Z-26.497
Y9.047 Z-26.503
Y9.225 Z-26.508
Y9.403 Z-26.514
Y9.581 Z-26.519
Y9.758 Z-26.525
Y9.936 Z-26.531
Y10.114 Z-26.537
Y10.291 Z-26.543
Y10.469 Z-26.549
Y10.647 Z-26.555
Y24.684 Z-27.045
Y24.862 Z-27.051
Y25.04 Z-27.057
Y25.217 Z-27.063
Y25.395 Z-27.069
Y25.573 Z-27.075
Y25.75 Z-27.081
Y25.928 Z-27.086
Y26.106 Z-27.092
Y26.284 Z-27.097
Y26.461 Z-27.103
Y26.639 Z-27.108
Y26.817 Z-27.113
Y26.994 Z-27.118
Y27.172 Z-27.123
Y27.35 Z-27.127
Y27.527 Z-27.132
Y27.705 Z-27.137
Y27.883 Z-27.141
Y28.06 Z-27.145
Y28.238 Z-27.149
Y28.416 Z-27.153
Y28.594 Z-27.157
Y28.771 Z-27.161
Y28.949 Z-27.164
Y29.127 Z-27.167
Y29.304 Z-27.171
Y29.482 Z-27.174
Y29.66 Z-27.177
Y29.837 Z-27.179
Y30.015 Z-27.182
Y30.193 Z-27.184
Y30.37 Z-27.187
Y30.548 Z-27.189
Y30.726 Z-27.191
Y30.904 Z-27.192
Y31.081 Z-27.194
Y31.259 Z-27.195
Y31.437 Z-27.197
Y31.614 Z-27.198
Y31.792
Y31.97 Z-27.199
Y32.147 Z-27.2
Y32.228
Y32.301
Y32.304
X48.105 Y32.306
X48.086
X48.
X47.914
X-83.104
X-83.106 Y32.304
Y-32.304
X-83.104 Y-32.306
X48.104
X48.106 Y-32.304
Y2.828
Y32.304
X48.104 Y32.306
X47.914
X47.869
X47.825
X47.736
X47.558
X47.381 Z-27.201
X47.203 Z-27.202
X47.025
X46.847 Z-27.203
X46.67 Z-27.205
X46.492 Z-27.206
X46.314 Z-27.208
X46.137 Z-27.209
X45.959 Z-27.211
X45.781 Z-27.213
X45.604 Z-27.216
X45.426 Z-27.218
X45.248 Z-27.221
X45.071 Z-27.224
X44.893 Z-27.226
X44.715 Z-27.229
X44.538 Z-27.233
X44.36 Z-27.236
X44.182 Z-27.24
X44.004 Z-27.243
X43.827 Z-27.247
X43.649 Z-27.251
X43.471 Z-27.255
X43.294 Z-27.259
X43.116 Z-27.264
X42.938 Z-27.268
X42.761 Z-27.273
X42.583 Z-27.277
X42.405 Z-27.282
X42.228 Z-27.287
X42.05 Z-27.292
X41.872 Z-27.297
X41.694 Z-27.303
X41.517 Z-27.308
X41.339 Z-27.314
X41.161 Z-27.319
X40.984 Z-27.325
X40.806 Z-27.331
X40.628 Z-27.337
X40.451 Z-27.343
X40.273 Z-27.349
X40.095 Z-27.355
X26.058 Z-27.845
X25.88 Z-27.851
X25.702 Z-27.857
X25.524 Z-27.863
X25.347 Z-27.869
X25.169 Z-27.875
X24.991 Z-27.881
X24.814 Z-27.886
X24.636 Z-27.892
X24.458 Z-27.897
X24.281 Z-27.903
X24.103 Z-27.908
X23.925 Z-27.913
X23.748 Z-27.918
X23.57 Z-27.923
X23.392 Z-27.927
X23.215 Z-27.932
X23.037 Z-27.937
X22.859 Z-27.941
X22.681 Z-27.945
X22.504 Z-27.949
X22.326 Z-27.953
X22.148 Z-27.957
X21.971 Z-27.961
X21.793 Z-27.964
X21.615 Z-27.967
X21.438 Z-27.971
X21.26 Z-27.974
X21.082 Z-27.977
X20.905 Z-27.979
X20.727 Z-27.982
X20.549 Z-27.984
X20.371 Z-27.987
X20.194 Z-27.989
X20.016 Z-27.991
X19.838 Z-27.992
X19.661 Z-27.994
X19.483 Z-27.995
X19.305 Z-27.997
X19.128 Z-27.998
X18.95
X18.772 Z-27.999
X18.595 Z-28.
X18.417
X18.331
X18.244
X-83.104
X-83.106 Y32.304
Y-32.304
X-83.104 Y-32.306
X48.104
X48.106 Y-32.304
Y32.304
X48.104 Y32.306
X18.244
X18.2
X18.155
X18.067
X17.889
X17.711 Z-28.001
X17.533 Z-28.002
X17.356
X17.178 Z-28.003
X17. Z-28.005
X16.823 Z-28.006
X16.645 Z-28.008
X16.467 Z-28.009
X16.29 Z-28.011
X16.112 Z-28.013
X15.934 Z-28.016
X15.757 Z-28.018
X15.579 Z-28.021
X15.401 Z-28.024
X15.223 Z-28.026
X15.046 Z-28.029
X14.868 Z-28.033
X14.69 Z-28.036
X14.513 Z-28.04
X14.335 Z-28.043
X14.157 Z-28.047
X13.98 Z-28.051
X13.802 Z-28.055
X13.624 Z-28.059
X13.447 Z-28.064
X13.269 Z-28.068
X13.091 Z-28.073
X12.913 Z-28.077
X12.736 Z-28.082
X12.558 Z-28.087
X12.38 Z-28.092
X12.203 Z-28.097
X12.025 Z-28.103
X11.847 Z-28.108
X11.67 Z-28.114
X11.492 Z-28.119
X11.314 Z-28.125
X11.137 Z-28.131
X10.959 Z-28.137
X10.781 Z-28.143
X10.603 Z-28.149
X10.426 Z-28.155
X-3.612 Z-28.645
X-3.79 Z-28.651
X-3.967 Z-28.657
X-4.145 Z-28.663
X-4.323 Z-28.669
X-4.5 Z-28.675
X-4.678 Z-28.681
X-4.856 Z-28.686
X-5.033 Z-28.692
X-5.211 Z-28.697
X-5.389 Z-28.703
X-5.566 Z-28.708
X-5.744 Z-28.713
X-5.922 Z-28.718
X-6.1 Z-28.723
X-6.277 Z-28.727
X-6.455 Z-28.732
X-6.633 Z-28.737
X-6.81 Z-28.741
X-6.988 Z-28.745
X-7.166 Z-28.749
X-7.343 Z-28.753
X-7.521 Z-28.757
X-7.699 Z-28.761
X-7.876 Z-28.764
X-8.054 Z-28.767
X-8.232 Z-28.771
X-8.41 Z-28.774
X-8.587 Z-28.777
X-8.765 Z-28.779
X-8.943 Z-28.782
X-9.12 Z-28.784
X-9.298 Z-28.787
X-9.476 Z-28.789
X-9.653 Z-28.791
X-9.831 Z-28.792
X-10.009 Z-28.794
X-10.186 Z-28.795
X-10.364 Z-28.797
X-10.542 Z-28.798
X-10.72
X-10.897 Z-28.799
X-11.075 Z-28.8
X-11.253
X-11.339
X-11.425
X-83.104
X-83.106 Y32.304
Y-32.304
X-83.104 Y-32.306
X48.104
X48.106 Y-32.304
Y32.304
X48.104 Y32.306
X18.244
X-11.425
X-11.47
X-11.514
X-11.603
X-11.781
X-11.958 Z-28.801
X-12.136 Z-28.802
X-12.314
X-12.491 Z-28.803
X-12.669 Z-28.805
X-12.847 Z-28.806
X-13.024 Z-28.808
X-13.202 Z-28.809
X-13.38 Z-28.811
X-13.558 Z-28.813
X-13.735 Z-28.816
X-13.913 Z-28.818
X-14.091 Z-28.821
X-14.268 Z-28.824
X-14.446 Z-28.826
X-14.624 Z-28.829
X-14.801 Z-28.833
X-14.979 Z-28.836
X-15.157 Z-28.84
X-15.334 Z-28.843
X-15.512 Z-28.847
X-15.69 Z-28.851
X-15.868 Z-28.855
X-16.045 Z-28.859
X-16.223 Z-28.864
X-16.401 Z-28.868
X-16.578 Z-28.873
X-16.756 Z-28.877
X-16.934 Z-28.882
X-17.111 Z-28.887
X-17.289 Z-28.892
X-17.467 Z-28.897
X-17.644 Z-28.903
X-17.822 Z-28.908
X-18. Z-28.914
X-18.178 Z-28.919
X-18.355 Z-28.925
X-18.533 Z-28.931
X-18.711 Z-28.937
X-18.888 Z-28.943
X-19.066 Z-28.949
X-19.244 Z-28.955
X-33.281 Z-29.445
X-33.459 Z-29.451
X-33.637 Z-29.457
X-33.814 Z-29.463
X-33.992 Z-29.469
X-34.17 Z-29.475
X-34.347 Z-29.481
X-34.525 Z-29.486
X-34.703 Z-29.492
X-34.881 Z-29.497
X-35.058 Z-29.503
X-35.236 Z-29.508
X-35.414 Z-29.513
X-35.591 Z-29.518
X-35.769 Z-29.523
X-35.947 Z-29.527
X-36.124 Z-29.532
X-36.302 Z-29.537
X-36.48 Z-29.541
X-36.657 Z-29.545
X-36.835 Z-29.549
X-37.013 Z-29.553
X-37.191 Z-29.557
X-37.368 Z-29.561
X-37.546 Z-29.564
X-37.724 Z-29.567
X-37.901 Z-29.571
X-38.079 Z-29.574
X-38.257 Z-29.577
X-38.434 Z-29.579
X-38.612 Z-29.582
X-38.79 Z-29.584
X-38.967 Z-29.587
X-39.145 Z-29.589
X-39.323 Z-29.591
X-39.501 Z-29.592
X-39.678 Z-29.594
X-39.856 Z-29.595
X-40.034 Z-29.597
X-40.211 Z-29.598
X-40.389
X-40.567 Z-29.599
X-40.744 Z-29.6
X-40.922
X-41.008
X-41.095
X-83.104
X-83.106 Y32.304
Y-32.304
X-83.104 Y-32.306
X48.104
X48.106 Y-32.304
Y32.304
X48.104 Y32.306
X-11.425
X-41.095
X-41.139
X-41.184
X-41.272
X-41.45
X-41.628 Z-29.601
X-41.805 Z-29.602
X-41.983
X-42.161 Z-29.603
X-42.339 Z-29.605
X-42.516 Z-29.606
X-42.694 Z-29.608
X-42.872 Z-29.609
X-43.049 Z-29.611
X-43.227 Z-29.613
X-43.405 Z-29.616
X-43.582 Z-29.618
X-43.76 Z-29.621
X-43.938 Z-29.624
X-44.115 Z-29.626
X-44.293 Z-29.629
X-44.471 Z-29.633
X-44.649 Z-29.636
X-44.826 Z-29.64
X-45.004 Z-29.643
X-45.182 Z-29.647
X-45.359 Z-29.651
X-45.537 Z-29.655
X-45.715 Z-29.659
X-45.892 Z-29.664
X-46.07 Z-29.668
X-46.248 Z-29.673
X-46.425 Z-29.677
X-46.603 Z-29.682
X-46.781 Z-29.687
X-46.959 Z-29.692
X-47.136 Z-29.697
X-47.314 Z-29.703
X-47.492 Z-29.708
X-47.669 Z-29.714
X-47.847 Z-29.719
X-48.025 Z-29.725
X-48.202 Z-29.731
X-48.38 Z-29.737
X-48.558 Z-29.743
X-48.735 Z-29.749
X-48.913 Z-29.755
X-62.951 Z-30.245
X-63.128 Z-30.251
X-63.306 Z-30.257
X-63.484 Z-30.263
X-63.662 Z-30.269
X-63.839 Z-30.275
X-64.017 Z-30.281
X-64.195 Z-30.286
X-64.372 Z-30.292
X-64.55 Z-30.297
X-64.728 Z-30.303
X-64.905 Z-30.308
X-65.083 Z-30.313
X-65.261 Z-30.318
X-65.438 Z-30.323
X-65.616 Z-30.327
X-65.794 Z-30.332
X-65.972 Z-30.337
X-66.149 Z-30.341
X-66.327 Z-30.345
X-66.505 Z-30.349
X-66.682 Z-30.353
X-66.86 Z-30.357
X-67.038 Z-30.361
X-67.215 Z-30.364
X-67.393 Z-30.367
X-67.571 Z-30.371
X-67.748 Z-30.374
X-67.926 Z-30.377
X-68.104 Z-30.379
X-68.282 Z-30.382
X-68.459 Z-30.384
X-68.637 Z-30.387
X-68.815 Z-30.389
X-68.992 Z-30.391
X-69.17 Z-30.392
X-69.348 Z-30.394
X-69.525 Z-30.395
X-69.703 Z-30.397
X-69.881 Z-30.398
X-70.058
X-70.236 Z-30.399
X-70.414 Z-30.4
X-70.591
X-70.678
X-70.764
X-83.104
X-83.106 Y32.304
Y-32.304
X-83.104 Y-32.306
X48.104
X48.106 Y-32.304
Y32.304
X48.104 Y32.306
X-41.095
X-70.764
X-70.809
X-70.853
X-70.942
X-71.12
X-71.297 Z-30.401
X-71.475 Z-30.402
X-71.653
X-71.83 Z-30.403
X-72.008 Z-30.405
X-72.186 Z-30.406
X-72.363 Z-30.408
X-72.541 Z-30.409
X-72.719 Z-30.411
X-72.896 Z-30.413
X-73.074 Z-30.416
X-73.252 Z-30.418
X-73.429 Z-30.421
X-73.607 Z-30.424
X-73.785 Z-30.426
X-73.963 Z-30.429
X-74.14 Z-30.433
X-74.318 Z-30.436
X-74.496 Z-30.44
X-74.673 Z-30.443
X-74.851 Z-30.447
X-75.029 Z-30.451
X-75.206 Z-30.455
X-75.384 Z-30.459
X-75.562 Z-30.464
X-75.739 Z-30.468
X-75.917 Z-30.473
X-76.095 Z-30.477
X-76.273 Z-30.482
X-76.45 Z-30.487
X-76.628 Z-30.492
X-76.806 Z-30.497
X-76.983 Z-30.503
X-77.161 Z-30.508
X-77.339 Z-30.514
X-77.516 Z-30.519
X-77.694 Z-30.525
X-77.872 Z-30.531
X-78.049 Z-30.537
X-78.227 Z-30.543
X-78.405 Z-30.549
X-78.583 Z-30.555
X-83.025 Z-30.71
X-83.067 Z-30.711
X-83.089 Z-30.712
X-83.104
X-83.106 Y32.303
Y32.292
Y32.209 Z-30.715
Y26.878 Z-30.901
Y22.614 Z-31.05
Y22.436 Z-31.056
Y22.258 Z-31.062
Y22.08 Z-31.068
Y21.903 Z-31.074
Y21.725 Z-31.079
Y21.547 Z-31.085
Y21.37 Z-31.09
Y21.192 Z-31.096
Y21.014 Z-31.101
Y20.837 Z-31.106
Y20.659 Z-31.112
Y20.481 Z-31.117
Y20.304 Z-31.121
Y20.126 Z-31.126
Y19.948 Z-31.131
Y19.77 Z-31.135
Y19.593 Z-31.14
Y19.415 Z-31.144
Y19.237 Z-31.148
Y19.06 Z-31.152
Y18.882 Z-31.156
Y18.704 Z-31.159
Y18.527 Z-31.163
Y18.349 Z-31.166
Y18.171 Z-31.17
Y17.994 Z-31.173
Y17.816 Z-31.176
Y17.638 Z-31.179
Y17.461 Z-31.181
Y17.283 Z-31.184
Y17.105 Z-31.186
Y16.927 Z-31.188
Y16.75 Z-31.19
Y16.572 Z-31.192
Y16.394 Z-31.194
Y16.217 Z-31.195
Y16.039 Z-31.196
Y15.861 Z-31.197
Y15.684 Z-31.198
Y15.506 Z-31.199
Y15.328 Z-31.2
Y15.151
Y14.95
Y14.927
Y-32.304
X-83.104 Y-32.306
X48.104
X48.106 Y-32.304
Y32.304
X48.104 Y32.306
X-70.764
X-83.104
X-83.106 Y32.304
Y14.927
Y14.883
Y14.838
Y14.75
Y14.572
Y14.394 Z-31.201
Y14.217 Z-31.202
Y14.039
Y13.861 Z-31.203
Y13.683 Z-31.205
Y13.506 Z-31.206
Y13.328 Z-31.208
Y13.15 Z-31.209
Y12.973 Z-31.211
Y12.795 Z-31.213
Y12.617 Z-31.216
Y12.44 Z-31.218
Y12.262 Z-31.221
Y12.084 Z-31.224
Y11.907 Z-31.226
Y11.729 Z-31.229
Y11.551 Z-31.233
Y11.373 Z-31.236
Y11.196 Z-31.24
Y11.018 Z-31.243
Y10.84 Z-31.247
Y10.663 Z-31.251
Y10.485 Z-31.255
Y10.307 Z-31.259
Y10.13 Z-31.264
Y9.952 Z-31.268
Y9.774 Z-31.273
Y9.597 Z-31.277
Y9.419 Z-31.282
Y9.241 Z-31.287
Y9.063 Z-31.292
Y8.886 Z-31.297
Y8.708 Z-31.303
Y8.53 Z-31.308
Y8.353 Z-31.314
Y8.175 Z-31.319
Y7.997 Z-31.325
Y7.82 Z-31.331
Y7.642 Z-31.337
Y7.464 Z-31.343
Y7.287 Z-31.349
Y7.109 Z-31.355
Y-6.929 Z-31.845
Y-7.106 Z-31.851
Y-7.284 Z-31.857
Y-7.462 Z-31.863
Y-7.64 Z-31.869
Y-7.817 Z-31.875
Y-7.995 Z-31.881
Y-8.173 Z-31.886
Y-8.35 Z-31.892
Y-8.528 Z-31.897
Y-8.706 Z-31.903
Y-8.883 Z-31.908
Y-9.061 Z-31.913
Y-9.239 Z-31.918
Y-9.416 Z-31.923
Y-9.594 Z-31.927
Y-9.772 Z-31.932
Y-9.95 Z-31.937
Y-10.127 Z-31.941
Y-10.305 Z-31.945
Y-10.483 Z-31.949
Y-10.66 Z-31.953
Y-10.838 Z-31.957
Y-11.016 Z-31.961
Y-11.193 Z-31.964
Y-11.371 Z-31.967
Y-11.549 Z-31.971
Y-11.726 Z-31.974
Y-11.904 Z-31.977
Y-12.082 Z-31.979
Y-12.26 Z-31.982
Y-12.437 Z-31.984
Y-12.615 Z-31.987
Y-12.793 Z-31.989
Y-12.97 Z-31.991
Y-13.148 Z-31.992
Y-13.326 Z-31.994
Y-13.503 Z-31.995
Y-13.681 Z-31.997
Y-13.859 Z-31.998
Y-14.036
Y-14.214 Z-31.999
Y-14.392 Z-32.
Y-14.57
Y-14.656
Y-14.742
Y-32.304
X-83.104 Y-32.306
X48.104
X48.106 Y-32.304
Y32.304
X48.104 Y32.306
X-83.104
X-83.106 Y32.304
Y-14.742
Y-14.787
Y-14.831
Y-14.92
Y-15.098
Y-15.275 Z-32.001
Y-15.453 Z-32.002
Y-15.631
Y-15.808 Z-32.003
Y-15.986 Z-32.005
Y-16.164 Z-32.006
Y-16.341 Z-32.008
Y-16.519 Z-32.009
Y-16.697 Z-32.011
Y-16.874 Z-32.013
Y-17.052 Z-32.016
Y-17.23 Z-32.018
Y-17.408 Z-32.021
Y-17.585 Z-32.024
Y-17.763 Z-32.026
Y-17.941 Z-32.029
Y-18.118 Z-32.033
Y-18.296 Z-32.036
Y-18.474 Z-32.04
Y-18.651 Z-32.043
Y-18.829 Z-32.047
Y-19.007 Z-32.051
Y-19.184 Z-32.055
Y-19.362 Z-32.059
Y-19.54 Z-32.064
Y-19.718 Z-32.068
Y-19.895 Z-32.073
Y-20.073 Z-32.077
Y-20.251 Z-32.082
Y-20.428 Z-32.087
Y-20.606 Z-32.092
Y-20.784 Z-32.097
Y-20.961 Z-32.103
Y-21.139 Z-32.108
Y-21.317 Z-32.114
Y-21.494 Z-32.119
Y-21.672 Z-32.125
Y-21.85 Z-32.131
Y-22.028 Z-32.137
Y-22.205 Z-32.143
Y-22.383 Z-32.149
Y-22.561 Z-32.155
Y-32.156 Z-32.49
Y-32.234 Z-32.493
Y-32.276 Z-32.494
Y-32.304 Z-32.495
X-83.103 Y-32.306
X-83.092
X-83.078
X-78.636 Z-32.65
X-78.458 Z-32.657
X-78.28 Z-32.663
X-78.102 Z-32.669
X-77.925 Z-32.674
X-77.747 Z-32.68
X-77.569 Z-32.686
X-77.392 Z-32.691
X-77.214 Z-32.697
X-77.036 Z-32.702
X-76.859 Z-32.707
X-76.681 Z-32.712
X-76.503 Z-32.717
X-76.326 Z-32.722
X-76.148 Z-32.727
X-75.97 Z-32.731
X-75.792 Z-32.736
X-75.615 Z-32.74
X-75.437 Z-32.744
X-75.259 Z-32.749
X-75.082 Z-32.753
X-74.904 Z-32.756
X-74.726 Z-32.76
X-74.549 Z-32.764
X-74.371 Z-32.767
X-74.193 Z-32.77
X-74.016 Z-32.773
X-73.838 Z-32.776
X-73.66 Z-32.779
X-73.482 Z-32.782
X-73.305 Z-32.784
X-73.127 Z-32.786
X-72.949 Z-32.788
X-72.772 Z-32.79
X-72.594 Z-32.792
X-72.416 Z-32.794
X-72.239 Z-32.795
X-72.061 Z-32.796
X-71.883 Z-32.797
X-71.706 Z-32.798
X-71.528 Z-32.799
X-71.35 Z-32.8
X-71.172
X-70.975
X48.104
X48.106 Y-32.304
Y32.304
X48.104 Y32.306
X-83.104
X-83.106 Y32.304
Y-14.742
Y-32.304
X-83.104 Y-32.306
X-70.975
X-70.932 Y-32.3
X-70.891 Y-32.282
X-70.858 Y-32.254
X-70.833 Y-32.218
X-70.819 Y-32.176
X-70.817 Y-32.132
X-70.96 Y-30.663
X-70.965 Y-30.614 Z-32.792
X-70.969 Y-30.57 Z-32.77
X-70.972 Y-30.535 Z-32.735
X-70.974 Y-30.513 Z-32.69
X-70.975 Y-30.505 Z-32.641
G0 Z5.
X-67.216 Y-17.341
Z-17.422
G1 Z-19.2 F356.
G3 X-67.28 Y-17.055 I-0.091 J0.13
G1 X-67.355 Y-17.017
X-67.436 Y-16.954
X-67.689 Y-16.753
X-67.758 Y-16.696
X-68.361 Y-16.198
X-68.42 Y-16.149
X-68.462 Y-16.108
X-68.663 Y-15.894
X-68.706 Y-15.847
X-68.798 Y-15.747
X-68.864 Y-15.671
X-68.883 Y-15.646
X-68.952 Y-15.545
X-68.965 Y-15.525
X-69.013 Y-15.445
X-69.066 Y-15.349
X-69.068 Y-15.344
X-69.121 Y-15.244
X-69.54 Y-14.439
X-69.569 Y-14.382
X-69.799 Y-13.936
X-69.842 Y-13.835
X-70.273 Y-12.76
X-70.286 Y-12.728
X-70.685 Y-11.722
X-70.725 Y-11.621
X-70.755 Y-11.521
X-70.935 Y-10.917
X-70.965 Y-10.816
X-71.38 Y-9.394
X-71.405 Y-9.307
X-71.426 Y-9.207
X-71.528 Y-8.703
X-71.549 Y-8.603
X-71.875 Y-6.993
X-71.883 Y-6.942
X-71.968 Y-6.289
X-71.983 Y-6.167
X-72.173 Y-4.679
X-72.181 Y-4.578
X-72.232 Y-3.773
X-72.238 Y-3.673
X-72.285 Y-2.908
X-72.318 Y-2.365
X-72.32 Y-2.264
X-72.33 Y-1.056
Y-0.956
X-72.336 Y-0.151
X-72.335 Y-0.05
X-72.277 Y1.56
X-72.274 Y1.66
X-72.258 Y2.063
X-72.253 Y2.163
X-72.111 Y4.075
X-72.103 Y4.176
X-72.095 Y4.276
X-72.01 Y5.081
X-71.999 Y5.182
X-71.988 Y5.282
X-71.983 Y5.322
X-71.976 Y5.383
X-71.964 Y5.484
X-71.951 Y5.584
X-71.938 Y5.685
X-71.923 Y5.786
X-71.908 Y5.886
X-71.892 Y5.987
X-71.883 Y6.039
X-71.874 Y6.087
X-71.853 Y6.188
X-71.83 Y6.289
X-71.807 Y6.389
X-71.38 Y8.262
X-71.372 Y8.301
X-71.314 Y8.603
X-71.295 Y8.703
X-71.024 Y10.112
X-71.007 Y10.213
X-70.799 Y11.521
X-70.783 Y11.621
X-70.75 Y11.823
X-70.736 Y11.923
X-70.56 Y13.432
X-70.548 Y13.533
X-70.538 Y13.634
X-70.525 Y13.734
X-70.508 Y13.835
X-70.488 Y13.936
X-70.474 Y14.
X-70.466 Y14.036
X-70.443 Y14.137
X-70.418 Y14.237
X-70.393 Y14.338
X-70.373 Y14.411
X-70.366 Y14.439
X-70.339 Y14.539
X-70.202 Y15.042
X-70.174 Y15.143
X-70.14 Y15.244
X-69.739 Y16.451
X-69.703 Y16.552
X-69.62 Y16.753
X-69.578 Y16.853
X-69.197 Y17.759
X-69.166 Y17.829
X-68.934 Y18.262
X-68.88 Y18.363
X-68.554 Y18.966
X-68.486 Y19.067
X-68.13 Y19.57
X-68.058 Y19.671
X-67.842 Y19.973
X-67.762 Y20.073
X-67.255 Y20.605
X-67.186 Y20.677
X-66.953 Y20.918
X-66.893 Y20.979
X-66.852 Y21.012
X-66.239 Y21.482
X-66.148 Y21.552
X-65.947 Y21.705
X-65.846 Y21.782
X-65.844 Y21.784
X-65.746 Y21.844
X-65.13 Y22.186
X-65.041 Y22.235
X-64.578 Y22.488
X-64.538 Y22.508
X-64.438 Y22.551
X-64.035 Y22.708
X-63.935 Y22.747
X-63.13 Y23.058
X-63.043 Y23.092
X-63.029 Y23.097
X-62.929 Y23.128
X-62.828 Y23.155
X-62.727 Y23.182
X-62.687 Y23.192
X-62.627 Y23.207
X-62.526 Y23.231
X-62.426 Y23.251
X-62.325 Y23.268
X-62.224 Y23.282
X-62.124 Y23.291
X-61.721 Y23.329
X-61.621 Y23.338
X-61.017 Y23.389
X-60.958 Y23.394
X-60.917 Y23.396
X-60.816 Y23.402
X-60.715 Y23.406
X-60.615 Y23.409
X-60.514 Y23.41
X-60.414 Y23.409
X-60.313 Y23.398
X-60.291 Y23.394
X-60.212 Y23.372
X-60.112 Y23.334
X-59.48 Y23.092
X-59.408 Y23.064
X-59.307 Y23.024
X-59.231 Y22.991
X-59.206 Y22.98
X-59.156 Y22.956
X-59.106 Y22.915
X-59.087 Y22.89
X-59.062 Y22.84
X-59.051 Y22.79
Y22.689
X-59.064 Y22.086
X-59.078 Y21.985
X-59.106 Y21.919
X-59.374 Y21.281
X-59.408 Y21.211
X-59.43 Y21.18
X-59.508 Y21.072
X-59.577 Y20.979
X-59.609 Y20.936
X-59.653 Y20.878
X-59.709 Y20.806
X-59.732 Y20.778
X-59.81 Y20.681
X-59.814 Y20.677
X-59.897 Y20.576
X-59.911 Y20.56
X-59.981 Y20.476
X-60.011 Y20.441
X-60.067 Y20.375
X-60.112 Y20.327
X-60.258 Y20.174
X-60.45 Y19.973
X-60.642 Y19.771
X-60.834 Y19.57
X-60.917 Y19.484
X-60.93 Y19.469
X-61.017 Y19.379
X-61.027 Y19.369
X-61.118 Y19.274
X-61.123 Y19.268
X-61.221 Y19.168
X-61.319 Y19.066
X-61.416 Y18.966
X-61.42 Y18.963
X-61.514 Y18.866
X-61.52 Y18.86
X-61.613 Y18.765
X-61.621 Y18.757
X-61.712 Y18.665
X-61.721 Y18.655
X-61.81 Y18.564
X-61.822 Y18.552
X-61.911 Y18.463
X-61.923 Y18.452
X-62.014 Y18.363
X-62.428 Y17.96
X-62.526 Y17.865
X-62.532 Y17.86
X-62.627 Y17.769
X-62.637 Y17.759
X-62.727 Y17.667
X-63.432 Y16.928
X-63.503 Y16.853
X-63.633 Y16.719
X-63.695 Y16.652
X-64.237 Y16.004
X-64.284 Y15.948
X-64.639 Y15.525
X-64.698 Y15.445
X-65.044 Y14.942
X-65.113 Y14.841
X-65.544 Y14.21
X-65.585 Y14.137
X-65.798 Y13.734
X-65.846 Y13.644
X-66.283 Y12.829
X-66.331 Y12.728
X-66.45 Y12.416
X-66.484 Y12.326
X-66.902 Y11.219
X-66.93 Y11.118
X-66.978 Y10.917
X-67.002 Y10.816
X-67.312 Y9.508
X-67.328 Y9.408
X-67.497 Y7.999
X-67.509 Y7.898
X-67.533 Y7.697
X-67.544 Y7.597
X-67.549 Y7.295
X-67.55 Y7.194
X-67.557 Y7.099
X-67.558 Y7.094
X-67.579 Y7.043
X-67.612 Y6.993
X-67.657 Y6.942
X-67.714 Y6.892
X-67.758 Y6.859
X-67.855 Y6.792
X-67.858 Y6.79
X-67.909 Y6.758
X-67.959 Y6.734
X-68.06 Y6.705
X-68.109 Y6.691
X-68.16 Y6.674
X-68.261 Y6.636
X-68.361 Y6.594
X-68.369 Y6.59
X-68.462 Y6.546
X-68.563 Y6.49
X-68.663 Y6.429
X-68.72 Y6.389
X-68.764 Y6.357
X-68.854 Y6.289
X-68.864 Y6.279
X-68.967 Y6.188
X-69.065 Y6.087
X-69.066
X-69.153 Y5.987
X-69.166 Y5.97
X-69.231 Y5.886
X-69.267 Y5.833
X-69.297 Y5.786
X-69.358 Y5.685
X-69.367 Y5.666
X-69.408 Y5.584
X-69.453 Y5.484
X-69.468 Y5.445
X-69.493 Y5.383
X-69.533 Y5.282
X-69.569 Y5.179
X-69.593 Y5.081
X-69.616 Y4.981
X-69.627 Y4.88
X-69.636 Y4.779
Y4.679
X-69.632 Y4.578
X-69.621 Y4.477
X-69.603 Y4.377
X-69.581 Y4.276
X-69.569 Y4.232
X-69.55 Y4.176
X-69.516 Y4.075
X-69.475 Y3.974
X-69.468 Y3.956
X-69.435 Y3.874
X-69.367 Y3.741
X-69.328 Y3.673
X-69.265 Y3.572
X-69.19 Y3.471
X-69.166 Y3.44
X-69.108 Y3.371
X-69.016 Y3.27
X-68.965 Y3.224
X-68.905 Y3.169
X-68.864 Y3.135
X-68.764 Y3.059
X-68.663 Y2.992
X-68.625 Y2.968
X-68.563 Y2.93
X-68.462 Y2.879
X-68.439 Y2.868
X-68.361 Y2.832
X-68.261 Y2.793
X-68.188 Y2.767
X-68.16 Y2.759
X-68.11 Y2.743
X-68.06 Y2.721
X-67.959 Y2.67
X-67.952 Y2.666
X-67.858 Y2.622
X-67.758 Y2.573
X-67.744 Y2.566
X-67.657 Y2.524
X-67.557 Y2.473
X-67.542 Y2.465
X-67.456 Y2.414
X-67.384 Y2.365
X-67.355 Y2.34
X-67.319 Y2.302
X-67.291 Y2.264
X-67.268 Y2.214
X-67.259 Y2.163
X-67.154 Y1.339
X-67.142 Y1.258
X-67.006 Y0.453
X-66.989 Y0.352
X-66.771 Y-0.956
X-66.753 Y-1.056
X-66.678 Y-1.459
X-66.659 Y-1.56
X-66.348 Y-3.27
X-66.33 Y-3.371
X-66.311 Y-3.471
X-66.113 Y-4.578
X-66.096 Y-4.679
X-66.078 Y-4.779
X-66.061 Y-4.88
X-66.047 Y-4.96
X-66.044 Y-4.981
X-66.028 Y-5.081
X-66.012 Y-5.182
X-65.996 Y-5.282
X-65.981 Y-5.383
X-65.966 Y-5.484
X-65.951 Y-5.584
X-65.947 Y-5.614
X-65.937 Y-5.685
X-65.924 Y-5.786
X-65.911 Y-5.886
X-65.898 Y-5.987
X-65.885 Y-6.087
X-65.872 Y-6.188
X-65.859 Y-6.289
X-65.846 Y-6.389
X-65.833 Y-6.49
X-65.82 Y-6.59
X-65.807 Y-6.691
X-65.795 Y-6.792
X-65.782 Y-6.892
X-65.769 Y-6.993
X-65.757 Y-7.094
X-65.668 Y-7.798
X-65.656 Y-7.898
X-65.425 Y-10.112
X-65.416 Y-10.213
X-65.404 Y-10.414
X-65.397 Y-10.515
X-65.391 Y-10.615
X-65.385 Y-10.716
X-65.379 Y-10.816
X-65.374 Y-10.917
X-65.368 Y-11.018
X-65.363 Y-11.118
X-65.358 Y-11.219
X-65.353 Y-11.319
X-65.348 Y-11.42
X-65.344 Y-11.521
X-65.343 Y-11.539
X-65.34 Y-11.621
X-65.336 Y-11.722
X-65.333 Y-11.823
X-65.33 Y-11.923
X-65.327 Y-12.024
X-65.325 Y-12.124
X-65.322 Y-12.326
Y-12.426
X-65.331 Y-12.527
X-65.502 Y-14.439
X-65.516 Y-14.539
X-65.938 Y-16.35
X-65.947 Y-16.387
X-65.962 Y-16.451
X-66.004 Y-16.552
X-66.047 Y-16.615
X-66.097 Y-16.652
X-66.148 Y-16.672
X-66.249 Y-16.709
X-67.154 Y-17.034
X-67.212 Y-17.055
X-67.255 Y-17.059
X-67.28 Y-17.055
X-67.33 Y-17.054
X-67.377 Y-17.068
X-67.418 Y-17.097
X-67.448 Y-17.137
X-67.464 Y-17.184
X-67.477 Y-17.224
X-67.5 Y-17.26
X-67.531 Y-17.288
X-69.513 Y-18.625
X-69.553 Y-18.66
X-69.582 Y-18.705
X-69.598 Y-18.756
X-69.599 Y-18.761
G3 X-69.206 Y-18.817 Z-19.222 I0.196 J-0.028
X-69.599 Y-18.761 Z-19.244 I-0.196 J0.028
X-69.206 Y-18.817 Z-19.265 I0.196 J-0.028
X-69.599 Y-18.761 Z-19.287 I-0.196 J0.028
X-69.206 Y-18.817 Z-19.309 I0.196 J-0.028
X-69.599 Y-18.761 Z-19.331 I-0.196 J0.028
X-69.206 Y-18.817 Z-19.352 I0.196 J-0.028
X-69.599 Y-18.761 Z-19.374 I-0.196 J0.028
X-69.206 Y-18.817 Z-19.396 I0.196 J-0.028
X-69.599 Y-18.761 Z-19.418 I-0.196 J0.028
X-69.206 Y-18.817 Z-19.439 I0.196 J-0.028
X-69.599 Y-18.761 Z-19.461 I-0.196 J0.028
X-69.206 Y-18.817 Z-19.483 I0.196 J-0.028
X-69.599 Y-18.761 Z-19.505 I-0.196 J0.028
X-69.206 Y-18.817 Z-19.527 I0.196 J-0.028
X-69.599 Y-18.761 Z-19.548 I-0.196 J0.028
X-69.206 Y-18.817 Z-19.57 I0.196 J-0.028
X-69.599 Y-18.761 Z-19.592 I-0.196 J0.028
X-69.206 Y-18.817 Z-19.614 I0.196 J-0.028
X-69.599 Y-18.761 Z-19.635 I-0.196 J0.028
X-69.206 Y-18.817 Z-19.657 I0.196 J-0.028
X-69.599 Y-18.761 Z-19.679 I-0.196 J0.028
X-69.206 Y-18.817 Z-19.701 I0.196 J-0.028
X-69.599 Y-18.761 Z-19.722 I-0.196 J0.028
X-69.206 Y-18.817 Z-19.744 I0.196 J-0.028
X-69.599 Y-18.761 Z-19.766 I-0.196 J0.028
X-69.206 Y-18.817 Z-19.788 I0.196 J-0.028
X-69.599 Y-18.761 Z-19.809 I-0.196 J0.028
X-69.206 Y-18.817 Z-19.831 I0.196 J-0.028
X-69.599 Y-18.761 Z-19.853 I-0.196 J0.028
X-69.206 Y-18.817 Z-19.875 I0.196 J-0.028
X-69.599 Y-18.761 Z-19.896 I-0.196 J0.028
X-69.206 Y-18.817 Z-19.918 I0.196 J-0.028
X-69.599 Y-18.761 Z-19.94 I-0.196 J0.028
X-69.206 Y-18.817 Z-19.962 I0.196 J-0.028
X-69.599 Y-18.761 Z-19.983 I-0.196 J0.028
X-69.281 Y-18.947 Z-20. I0.196 J-0.028
G1 X-69.277 Y-18.943
X-69.212 Y-18.89
G3 X-69.182 Y-18.604 I-0.128 J0.158
G1 X-69.215 Y-18.564
X-69.267 Y-18.498
X-69.293 Y-18.463
X-69.364 Y-18.363
X-69.367 Y-18.358
X-69.431 Y-18.262
X-69.468 Y-18.204
X-69.495 Y-18.161
X-69.557 Y-18.061
X-69.569 Y-18.043
X-69.616 Y-17.96
X-70.102 Y-17.015
X-70.341 Y-16.552
X-70.675 Y-15.903
X-70.703 Y-15.847
X-70.746 Y-15.747
X-71.044 Y-15.042
X-71.299 Y-14.439
X-71.597 Y-13.734
X-71.639 Y-13.634
X-71.673 Y-13.533
X-71.782 Y-13.217
X-71.812 Y-13.131
X-72.396 Y-11.42
X-72.426 Y-11.319
X-72.481 Y-11.118
X-73.029 Y-9.106
X-73.052 Y-9.005
X-73.073 Y-8.905
X-73.09 Y-8.824
X-73.511 Y-6.792
X-73.529 Y-6.691
X-73.575 Y-6.389
X-73.835 Y-4.679
X-73.865 Y-4.477
X-73.879 Y-4.377
X-73.93 Y-3.874
X-73.94 Y-3.773
X-74.104 Y-2.163
X-74.114 Y-2.063
X-74.158 Y-1.258
X-74.163 Y-1.157
X-74.234 Y0.151
X-74.237 Y0.252
X-74.25 Y1.358
X-74.251 Y1.459
X-74.261 Y2.365
Y2.465
X-74.222 Y3.874
X-74.219 Y3.974
X-74.201 Y4.578
X-74.197 Y4.662
X-74.092 Y6.188
X-74.085 Y6.289
X-74.064 Y6.59
X-74.057 Y6.691
X-74.046 Y6.792
X-73.881 Y8.301
X-73.87 Y8.402
X-73.848 Y8.603
X-73.836 Y8.703
X-73.593 Y10.288
X-73.589 Y10.313
X-73.559 Y10.515
X-73.541 Y10.615
X-73.5 Y10.816
X-73.492 Y10.856
X-73.197 Y12.326
X-73.19 Y12.355
X-73.146 Y12.527
X-73.121 Y12.627
X-72.784 Y13.936
X-72.756 Y14.036
X-72.658 Y14.338
X-72.285 Y15.486
X-72.264 Y15.545
X-72.101 Y15.948
X-72.084 Y15.989
X-71.731 Y16.853
X-71.688 Y16.954
X-71.432 Y17.457
X-71.38 Y17.56
X-71.073 Y18.161
X-71.015 Y18.262
X-70.628 Y18.866
X-70.575 Y18.949
X-70.37 Y19.268
X-70.305 Y19.369
X-70.273 Y19.411
X-69.733 Y20.073
X-69.669 Y20.152
X-69.468 Y20.399
X-69.396 Y20.476
X-68.764 Y21.088
X-68.669 Y21.18
X-68.563 Y21.283
X-68.462 Y21.376
X-68.456 Y21.381
X-68.361 Y21.453
X-67.657 Y21.986
X-67.557 Y22.062
X-67.456 Y22.138
X-67.39 Y22.186
X-67.355 Y22.208
X-67.255 Y22.267
X-66.45 Y22.738
X-66.249 Y22.856
X-66.19 Y22.89
X-66.148 Y22.913
X-66.047 Y22.959
X-65.306 Y23.293
X-65.243 Y23.322
X-64.857 Y23.494
X-64.84 Y23.502
X-64.79 Y23.523
X-64.74 Y23.541
X-64.639 Y23.575
X-64.136 Y23.746
X-63.989 Y23.796
X-63.394 Y23.997
X-63.331 Y24.019
X-63.231 Y24.048
X-63.13 Y24.073
X-62.627 Y24.199
X-62.526 Y24.224
X-62.426 Y24.249
X-62.325 Y24.272
X-62.224 Y24.293
X-62.197 Y24.299
X-62.124 Y24.313
X-62.023 Y24.332
X-61.923 Y24.349
X-61.822 Y24.367
X-61.721 Y24.383
X-61.621 Y24.397
X-61.593 Y24.4
X-61.52 Y24.407
X-60.816 Y24.478
X-60.715 Y24.488
X-60.212 Y24.538
X-60.112 Y24.547
X-60.011 Y24.553
X-59.911 Y24.554
X-59.81 Y24.551
X-59.709 Y24.547
X-59.508 Y24.539
X-59.408 Y24.535
X-59.307 Y24.53
X-59.206 Y24.524
X-59.106 Y24.519
X-59.005 Y24.512
X-58.904 Y24.506
X-58.828 Y24.5
X-58.804 Y24.499
X-58.703 Y24.491
X-58.603 Y24.479
X-58.552 Y24.47
X-58.502 Y24.459
X-58.401 Y24.431
X-57.697 Y24.231
X-57.597 Y24.202
X-57.584 Y24.199
X-57.496 Y24.169
X-57.446 Y24.146
X-57.395 Y24.117
X-57.367 Y24.098
X-57.295 Y24.048
X-57.224 Y23.997
X-57.194 Y23.974
X-57.108 Y23.897
X-57.094 Y23.882
X-56.993 Y23.776
X-56.792 Y23.563
X-56.727 Y23.494
X-56.691 Y23.442
X-56.67 Y23.394
X-56.646 Y23.293
X-56.608 Y23.092
X-56.6 Y23.041
X-56.598 Y22.991
X-56.613 Y22.89
X-56.667 Y22.589
X-56.691 Y22.459
X-56.705 Y22.387
X-56.725 Y22.287
X-56.768 Y22.186
X-56.993 Y21.72
X-57.011 Y21.683
X-57.064 Y21.582
X-57.094 Y21.531
X-57.128 Y21.482
X-57.194 Y21.396
X-57.205 Y21.381
X-57.285 Y21.281
X-57.295 Y21.268
X-57.365 Y21.18
X-57.395 Y21.142
X-57.447 Y21.079
X-57.496 Y21.019
X-57.697 Y20.774
X-57.783 Y20.677
X-58.401 Y19.994
X-58.421 Y19.973
X-58.515 Y19.872
X-59.106 Y19.236
X-59.169 Y19.168
X-59.206 Y19.127
X-59.81 Y18.453
X-59.891 Y18.363
X-59.911 Y18.341
X-59.98 Y18.262
X-60.011 Y18.225
X-60.065 Y18.161
X-60.112 Y18.107
X-60.151 Y18.061
X-60.212 Y17.989
X-60.237 Y17.96
X-60.313 Y17.873
X-60.325 Y17.86
X-60.414 Y17.758
X-60.502 Y17.658
X-60.514 Y17.645
X-60.593 Y17.558
X-60.775 Y17.357
X-60.816 Y17.308
X-61.52 Y16.435
X-61.589 Y16.35
X-61.621 Y16.311
X-61.668 Y16.25
X-62.23 Y15.445
X-62.3 Y15.344
X-62.44 Y15.143
X-62.506 Y15.042
X-62.967 Y14.237
X-63.082 Y14.036
X-63.231 Y13.777
X-63.251 Y13.734
X-63.615 Y12.929
X-63.633 Y12.89
X-63.887 Y12.326
X-63.92 Y12.225
X-64.153 Y11.521
X-64.186 Y11.42
X-64.387 Y10.816
X-64.418 Y10.716
X-64.599 Y9.911
X-64.622 Y9.81
X-64.78 Y9.106
X-64.8 Y9.005
X-64.92 Y8.1
X-65.038 Y7.194
X-65.041 Y7.152
X-65.08 Y6.389
X-65.085 Y6.289
X-65.09 Y6.188
X-65.105 Y5.886
X-65.116 Y5.685
X-65.124 Y5.584
X-65.14 Y5.484
X-65.142 Y5.475
X-65.172 Y5.383
X-65.199 Y5.333
X-65.239 Y5.282
X-65.243 Y5.279
X-65.293 Y5.254
X-65.343
X-65.382 Y5.266
X-65.42 Y5.282
X-65.444 Y5.293
X-65.494 Y5.323
X-65.544 Y5.359
X-65.574 Y5.383
X-65.61 Y5.414
X-65.645 Y5.438
X-65.705 Y5.484
X-65.746 Y5.516
X-65.79 Y5.553
X-65.835 Y5.584
X-65.846 Y5.593
X-65.947 Y5.67
X-65.969 Y5.685
X-66.047 Y5.737
X-66.118 Y5.786
X-66.148 Y5.804
X-66.249 Y5.865
X-66.283 Y5.886
X-66.291 Y5.891
X-66.297 Y5.895
X-66.3 Y5.896
X-66.316 Y5.905
X-66.349 Y5.922
X-66.45 Y5.976
X-66.469 Y5.987
X-66.477 Y5.991
X-66.478 Y5.992
X-66.49 Y5.997
X-66.51 Y6.006
X-66.55 Y6.024
X-66.651 Y6.073
X-66.678 Y6.087
X-66.696 Y6.098
X-66.706 Y6.104
X-66.708 Y6.105
X-66.715 Y6.108
X-66.752 Y6.125
X-66.852 Y6.172
X-66.871 Y6.181
X-66.874 Y6.182
X-66.89 Y6.188
X-66.953 Y6.211
X-67.003 Y6.23
X-67.028 Y6.239
X-67.041 Y6.244
X-67.043 Y6.245
X-67.054 Y6.248
X-67.154 Y6.275
X-67.201 Y6.289
X-67.216 Y6.293
X-67.218
X-67.228 Y6.295
X-67.255 Y6.3
X-67.355 Y6.32
X-67.38 Y6.325
X-67.393 Y6.327
X-67.395
X-67.406 Y6.329
X-67.456 Y6.334
X-67.557 Y6.345
X-67.574 Y6.347
X-67.575
X-67.582
X-67.607
X-67.657 Y6.349
X-67.748 Y6.351
X-67.75
X-67.915 Y6.339
X-67.917
X-68.082 Y6.311
X-68.083 Y6.31
X-68.244 Y6.267
X-68.246 Y6.266
X-68.4 Y6.207
X-68.402 Y6.206
X-68.548 Y6.133
X-68.55 Y6.132
X-68.691 Y6.043
X-68.693 Y6.042
X-68.824 Y5.94
X-68.825 Y5.939
X-68.946 Y5.825
X-68.949 Y5.822
X-69.055 Y5.699
X-69.056 Y5.697
X-69.152 Y5.562
X-69.153 Y5.561
X-69.235 Y5.416
X-69.236 Y5.414
X-69.304 Y5.262
X-69.305 Y5.26
X-69.357 Y5.103
X-69.358 Y5.102
X-69.395 Y4.941
Y4.94
X-69.415 Y4.776
X-69.416 Y4.775
X-69.42 Y4.606
X-69.408 Y4.44
Y4.438
X-69.38 Y4.273
X-69.379 Y4.272
X-69.335 Y4.111
Y4.11
X-69.276 Y3.956
X-69.275 Y3.953
X-69.201 Y3.806
X-69.2 Y3.805
X-69.112 Y3.664
X-69.11 Y3.662
X-69.009 Y3.531
X-69.007 Y3.53
X-68.895 Y3.41
X-68.893 Y3.409
X-68.768 Y3.3
X-68.766 Y3.299
X-68.63 Y3.203
X-68.629 Y3.202
X-68.484 Y3.12
X-68.482 Y3.119
X-68.332 Y3.051
X-68.33 Y3.05
X-68.174 Y2.998
X-68.173
X-68.01 Y2.961
X-68.008
X-67.843 Y2.94
X-67.841
X-67.676 Y2.935
X-67.674
X-67.509 Y2.947
X-67.508
X-67.456 Y2.956
X-67.383 Y2.968
X-67.355 Y2.973
X-67.333 Y2.976
X-67.332 Y2.977
X-67.33
X-67.305 Y2.983
X-67.255 Y2.996
X-67.154 Y3.021
X-67.153
X-67.142 Y3.025
X-67.129 Y3.029
X-67.104 Y3.038
X-67.054 Y3.054
X-67.01 Y3.069
X-66.981 Y3.078
X-66.98 Y3.079
X-66.967 Y3.084
X-66.953 Y3.09
X-66.852 Y3.134
X-66.761 Y3.169
X-66.752 Y3.174
X-66.651 Y3.218
X-66.601 Y3.239
X-66.588 Y3.244
X-66.58 Y3.247
X-66.579 Y3.248
X-66.576 Y3.25
X-66.55 Y3.263
X-66.536 Y3.27
X-66.45 Y3.313
X-66.4 Y3.337
X-66.387 Y3.343
X-66.374 Y3.351
X-66.349 Y3.365
X-66.34 Y3.371
X-66.249 Y3.42
X-66.227 Y3.432
X-66.217 Y3.437
X-66.213 Y3.439
X-66.206 Y3.444
X-66.163 Y3.471
X-66.148 Y3.481
X-66.047 Y3.542
X-66.025 Y3.556
X-66.003 Y3.572
X-65.947 Y3.613
X-65.905 Y3.642
X-65.864 Y3.673
X-65.846 Y3.687
X-65.746 Y3.767
X-65.738 Y3.773
X-65.692 Y3.811
X-65.645 Y3.852
X-65.62 Y3.874
X-65.544 Y3.931
X-65.495 Y3.974
X-65.444 Y4.014
X-65.394 Y4.044
X-65.343 Y4.062
X-65.293 Y4.064
X-65.243 Y4.045
X-65.206 Y4.01
X-65.183 Y3.974
X-65.147 Y3.874
X-65.142 Y3.853
X-65.128 Y3.773
X-65.117 Y3.673
X-65.114 Y3.572
X-65.113 Y3.471
X-65.109 Y3.27
X-65.108 Y3.169
X-65.103 Y3.069
X-65.09 Y2.868
X-65.063 Y2.465
X-65.05 Y2.264
X-64.963 Y0.956
X-64.953 Y0.855
X-64.911 Y0.453
X-64.88 Y0.151
X-64.733 Y-1.258
X-64.722 Y-1.358
X-64.696 Y-1.56
X-64.446 Y-3.572
X-64.438 Y-3.634
X-64.419 Y-3.773
X-64.406 Y-3.874
X-64.393 Y-3.974
X-64.38 Y-4.075
X-64.367 Y-4.176
X-64.354 Y-4.276
X-64.342 Y-4.377
X-64.337 Y-4.415
X-64.33 Y-4.477
X-64.317 Y-4.578
X-64.306 Y-4.679
X-64.294 Y-4.779
X-64.282 Y-4.88
X-64.271 Y-4.981
X-64.259 Y-5.081
X-64.248 Y-5.182
X-64.237 Y-5.282
X-64.225 Y-5.383
X-64.214 Y-5.484
X-64.181 Y-5.786
X-64.171 Y-5.886
X-63.943 Y-7.999
X-63.935 Y-8.076
X-63.932 Y-8.1
X-63.922 Y-8.2
X-63.728 Y-10.213
X-63.708 Y-10.414
X-63.701 Y-10.515
X-63.563 Y-12.426
X-63.556 Y-12.527
X-63.549 Y-12.627
X-63.545 Y-12.728
X-63.497 Y-14.137
X-63.494 Y-14.237
X-63.491 Y-14.338
X-63.488 Y-14.439
X-63.485 Y-14.539
X-63.482 Y-14.64
X-63.479 Y-14.74
X-63.48 Y-14.841
X-63.484 Y-14.942
X-63.489 Y-15.042
X-63.495 Y-15.143
X-63.502 Y-15.244
X-63.509 Y-15.344
X-63.615 Y-16.753
X-63.624 Y-16.853
X-63.746 Y-17.558
X-63.764 Y-17.658
X-63.94 Y-18.665
X-63.964 Y-18.765
X-64.18 Y-19.469
X-64.211 Y-19.57
X-64.237 Y-19.637
X-64.252 Y-19.671
X-64.31 Y-19.771
X-64.74 Y-20.415
X-64.786 Y-20.476
X-64.84 Y-20.531
X-65.142 Y-20.834
X-65.186 Y-20.878
X-65.243 Y-20.918
X-65.343 Y-20.945
X-65.558 Y-20.979
X-65.645 Y-20.992
X-66.249 Y-21.076
X-66.276 Y-21.079
X-66.309
X-66.349 Y-21.073
X-66.45 Y-21.032
X-66.753 Y-20.878
X-66.852 Y-20.827
X-67.522 Y-20.476
X-67.557 Y-20.457
X-67.607 Y-20.426
X-67.657 Y-20.387
X-67.672 Y-20.375
X-67.758 Y-20.294
X-67.778 Y-20.274
X-67.858 Y-20.194
X-67.959 Y-20.093
X-67.978 Y-20.073
X-68.06 Y-19.977
X-68.563 Y-19.364
X-68.641 Y-19.268
X-69.182 Y-18.604
X-69.412 Y-18.346
X-69.663 Y-18.099
X-69.924 Y-17.859
X-70.206 Y-17.628
X-70.461 Y-17.423
X-70.747 Y-17.185
X-71.02 Y-16.941
X-71.268 Y-16.685
X-71.482 Y-16.414
X-71.653 Y-16.123
X-71.793 Y-15.818
X-71.795 Y-15.813
X-71.825 Y-15.747 Z-20.003
X-71.867 Y-15.646 Z-20.006
X-72.141 Y-14.942 Z-20.033
X-72.184 Y-14.829 Z-20.037
X-72.689 Y-13.533 Z-20.086
X-72.723 Y-13.432 Z-20.089
X-72.889 Y-12.925 Z-20.108
X-72.92 Y-12.829 Z-20.111
X-73.411 Y-11.319 Z-20.167
X-73.442 Y-11.219 Z-20.171
X-73.593 Y-10.662 Z-20.191
X-74.04 Y-9.005 Z-20.251
X-74.065 Y-8.905 Z-20.254
X-74.197 Y-8.301 Z-20.276
X-74.219 Y-8.2 Z-20.279
X-74.549 Y-6.691 Z-20.333
X-74.57 Y-6.59 Z-20.337
X-74.708 Y-5.786 Z-20.366
X-74.726 Y-5.685 Z-20.369
X-74.966 Y-4.276 Z-20.419
X-74.979 Y-4.176 Z-20.423
X-75.12 Y-3.069 Z-20.461
X-75.261 Y-1.962 Z-20.5
X-75.271 Y-1.861 Z-20.504
X-75.454 Y0.352 Z-20.582
X-75.459 Y0.453 Z-20.585
X-75.504 Y1.587 Z-20.625
X-75.523 Y2.063 Z-20.641
X-75.544 Y2.566 Z-20.659
X-75.546 Y2.666 Z-20.662
X-75.542 Y4.477 Z-20.726
X-75.541 Y4.779 Z-20.736
X-75.537 Y4.88 Z-20.74
X-75.456 Y6.601 Z-20.8
Y6.607
X-75.447 Y6.792
X-75.442 Y6.892
X-75.434 Y6.993
X-75.261 Y8.804
X-75.251 Y8.905
X-75.237 Y9.005
X-74.987 Y10.716
X-74.972 Y10.816
X-74.952 Y10.917
X-74.616 Y12.527
X-74.599 Y12.608
X-74.594 Y12.627
X-74.498 Y12.975
X-74.152 Y14.237
X-74.118 Y14.338
X-73.617 Y15.747
X-73.593 Y15.811
X-73.577 Y15.847
X-73.492 Y16.034
X-72.987 Y17.155
X-72.936 Y17.256
X-72.788 Y17.516
X-72.765 Y17.558
X-72.252 Y18.463
X-72.185 Y18.564
X-71.474 Y19.57
X-71.4 Y19.671
X-71.38 Y19.694
X-70.977 Y20.149
X-70.575 Y20.605
X-70.511 Y20.677
X-70.474 Y20.715
X-70.406 Y20.778
X-69.966 Y21.18
X-69.87 Y21.267
X-69.526 Y21.582
X-69.468 Y21.633
X-69.401 Y21.683
X-68.851 Y22.086
X-68.764 Y22.149
X-68.439 Y22.387
X-68.361 Y22.444
X-68.289 Y22.488
X-67.606 Y22.89
X-67.557 Y22.92
X-67.255 Y23.097
X-67.154 Y23.155
X-67.08 Y23.192
X-66.438 Y23.494
X-66.349 Y23.536
X-65.947 Y23.725
X-65.846 Y23.772
X-65.785 Y23.796
X-65.242 Y23.997
X-65.142 Y24.034
X-64.538 Y24.258
X-64.438 Y24.295
X-64.424 Y24.299
X-64.337 Y24.325
X-64.035 Y24.412
X-63.029 Y24.704
X-62.929 Y24.731
X-62.828 Y24.752
X-62.727 Y24.772
X-62.627 Y24.792
X-62.568 Y24.802
X-61.822 Y24.935
X-61.721 Y24.953
X-61.42 Y25.006
X-61.319 Y25.023
X-61.218 Y25.036
X-60.313 Y25.142
X-60.212 Y25.152
X-60.112 Y25.16
X-60.011 Y25.165
X-59.81 Y25.174
X-59.709 Y25.178
X-59.408 Y25.191
X-59.307 Y25.195
X-59.206 Y25.196
X-59.106
X-58.904
X-58.804
X-58.703
X-58.603 Y25.191
X-58.502 Y25.182
X-57.999 Y25.131
X-57.898 Y25.121
X-57.597 Y25.089
X-57.496 Y25.078
X-57.446 Y25.071
X-57.395 Y25.061
X-57.295 Y25.036
X-56.993 Y24.958
X-56.892 Y24.932
X-56.591 Y24.852
X-56.49 Y24.824
X-56.432 Y24.802
X-56.389 Y24.783
X-56.289 Y24.731
X-55.786 Y24.473
X-55.685 Y24.419
X-55.656 Y24.4
X-55.62 Y24.373
X-55.584 Y24.34
X-55.541 Y24.299
X-55.484 Y24.241
X-55.448 Y24.199
X-55.413 Y24.152
X-55.383 Y24.106
X-55.137 Y23.695
X-55.081 Y23.6
X-55.079 Y23.595
X-55.059 Y23.544
X-55.046 Y23.494
X-55.029 Y23.394
X-55.025 Y23.343
X-55.026 Y23.293
X-55.041 Y23.192
X-55.057 Y23.092
X-55.107 Y22.79
X-55.124 Y22.689
X-55.135 Y22.639
X-55.154 Y22.589
X-55.283 Y22.297
X-55.332 Y22.186
X-55.377 Y22.086
X-55.422 Y21.985
X-55.448 Y21.935
X-55.481 Y21.884
X-55.817 Y21.381
X-55.886 Y21.277
X-55.962 Y21.18
X-56.389 Y20.657
X-56.456 Y20.576
X-56.49 Y20.535
X-56.543 Y20.476
X-57.094 Y19.866
X-57.179 Y19.771
X-57.194 Y19.755
X-57.834 Y19.067
X-57.928 Y18.966
X-57.999 Y18.888
X-58.563 Y18.262
X-58.603 Y18.218
X-58.703 Y18.106
X-58.744 Y18.061
X-59.33 Y17.357
X-59.508 Y17.143
X-59.58 Y17.055
X-60.028 Y16.451
X-60.103 Y16.35
X-60.325 Y16.048
X-60.394 Y15.948
X-60.715 Y15.442
X-60.777 Y15.344
X-61.096 Y14.841
X-61.118 Y14.805
X-61.42 Y14.23
X-61.468 Y14.137
X-61.783 Y13.533
X-61.822 Y13.449
X-62.038 Y12.929
X-62.372 Y12.124
X-62.412 Y12.024
X-62.569 Y11.521
X-62.881 Y10.515
X-62.907 Y10.414
X-63.029 Y9.854
X-63.259 Y8.804
X-63.277 Y8.703
X-63.442 Y7.496
X-63.51 Y6.993
X-63.523 Y6.892
X-63.604 Y5.685
X-63.611 Y5.584
X-63.651 Y4.981
X-63.653 Y4.88
X-63.661 Y3.773
X-63.662 Y3.673
X-63.667 Y2.968
Y2.868
X-63.625 Y1.761
X-63.621 Y1.66
X-63.585 Y0.755
X-63.579 Y0.654
X-63.512 Y-0.252
X-63.505 Y-0.352
X-63.423 Y-1.459
X-63.415 Y-1.56
X-63.347 Y-2.264
X-63.338 Y-2.365
X-63.199 Y-3.773
X-63.189 Y-3.874
X-63.13 Y-4.411
X-62.948 Y-6.087
X-62.905 Y-6.49
X-62.872 Y-6.792
X-62.706 Y-8.301
X-62.696 Y-8.402
X-62.676 Y-8.603
X-62.482 Y-10.615
X-62.474 Y-10.716
X-62.467 Y-10.816
X-62.323 Y-12.829
X-62.319 Y-12.929
X-62.253 Y-14.942
X-62.252 Y-15.042
X-62.254 Y-15.143
X-62.256 Y-15.244
X-62.29 Y-16.954
X-62.293 Y-17.055
X-62.338 Y-17.558
X-62.347 Y-17.658
X-62.457 Y-18.866
X-62.469 Y-18.966
X-62.727 Y-20.403
X-62.741 Y-20.476
X-62.777 Y-20.677
X-62.802 Y-20.778
X-62.832 Y-20.878
X-62.862 Y-20.979
X-62.895 Y-21.079
X-62.929 Y-21.166
X-62.935 Y-21.18
X-62.982 Y-21.281
X-63.46 Y-22.287
X-63.518 Y-22.387
X-63.734 Y-22.696
X-63.803 Y-22.79
X-63.834 Y-22.822
X-63.924 Y-22.89
X-64.347 Y-23.192
X-64.438 Y-23.256
X-64.639 Y-23.396
X-64.689 Y-23.43
X-64.74 Y-23.455
X-64.84 Y-23.473
X-65.544 Y-23.534
X-65.645 Y-23.542
X-65.695 Y-23.539
X-65.746 Y-23.529
X-65.835 Y-23.494
X-66.45 Y-23.237
X-66.55 Y-23.194
X-66.651 Y-23.151
X-66.752 Y-23.106
X-66.778 Y-23.092
X-66.852 Y-23.044
X-66.919 Y-22.991
X-67.355 Y-22.632
X-67.408 Y-22.589
X-68.014 Y-22.086
X-68.06 Y-22.047
X-68.126 Y-21.985
X-68.16 Y-21.95
X-68.222 Y-21.884
X-68.261 Y-21.841
X-68.311 Y-21.784
X-68.361 Y-21.722
X-68.391 Y-21.683
X-69.066 Y-20.775
X-69.77 Y-19.827
X-69.808 Y-19.771
X-69.869 Y-19.671
X-69.87 Y-19.668
X-69.928 Y-19.57
X-69.971 Y-19.494
X-69.985 Y-19.469
X-70.041 Y-19.369
X-70.072 Y-19.313
X-70.096 Y-19.268
X-70.15 Y-19.168
X-70.637 Y-18.262
X-70.853 Y-17.86
X-70.877 Y-17.815
X-70.902 Y-17.759
X-71.38 Y-16.719
X-71.41 Y-16.652
X-71.825 Y-15.747
X-71.867 Y-15.646
X-72.141 Y-14.942
X-72.184 Y-14.829
X-72.689 Y-13.533
X-72.723 Y-13.432
X-72.889 Y-12.925
X-72.92 Y-12.829
X-73.411 Y-11.319
X-73.442 Y-11.219
X-73.593 Y-10.662
X-74.04 Y-9.005
X-74.065 Y-8.905
X-74.197 Y-8.301
X-74.219 Y-8.2
X-74.549 Y-6.691
X-74.57 Y-6.59
X-74.708 Y-5.786
X-74.726 Y-5.685
X-74.966 Y-4.276
X-74.979 Y-4.176
X-75.12 Y-3.069
X-75.261 Y-1.962
X-75.271 Y-1.861
X-75.454 Y0.352
X-75.459 Y0.453
X-75.504 Y1.587
X-75.523 Y2.063
X-75.544 Y2.566
X-75.546 Y2.666
X-75.542 Y4.477
X-75.541 Y4.779
X-75.537 Y4.88
X-75.456 Y6.607
X-75.469 Y6.904
X-75.507 Y7.159
X-75.585 Y7.465
X-75.689 Y7.772
X-75.806 Y8.081
X-75.925 Y8.39
X-76.034 Y8.699
X-76.12 Y9.004
X-76.162 Y9.304
X-76.156 Y9.603
X-76.114 Y9.897
X-76.113 Y9.902
X-75.963 Y10.917 Z-20.836
X-75.947 Y11.018 Z-20.839
X-75.676 Y12.326 Z-20.886
X-75.613 Y12.627 Z-20.897
X-75.592 Y12.728 Z-20.9
X-75.568 Y12.829 Z-20.904
X-75.236 Y14.036 Z-20.948
X-75.203 Y14.157 Z-20.952
X-75.153 Y14.338 Z-20.959
X-75.125 Y14.439 Z-20.962
X-75.102 Y14.503 Z-20.965
X-74.66 Y15.747 Z-21.011
X-74.588 Y15.948 Z-21.018
X-74.545 Y16.048 Z-21.022
X-73.995 Y17.269 Z-21.069
X-73.956 Y17.357 Z-21.072
X-73.902 Y17.457 Z-21.076
X-73.845 Y17.558 Z-21.08
X-73.794 Y17.647 Z-21.084
X-73.787 Y17.658
X-73.73 Y17.759 Z-21.088
X-73.693 Y17.822 Z-21.091
X-73.672 Y17.86 Z-21.092
X-73.613 Y17.96 Z-21.097
X-73.593 Y17.995 Z-21.098
X-73.554 Y18.061 Z-21.101
X-73.495 Y18.161 Z-21.105
X-73.492 Y18.166
X-73.435 Y18.262 Z-21.109
X-73.392 Y18.335 Z-21.112
X-73.375 Y18.363 Z-21.113
X-73.315 Y18.463 Z-21.117
X-73.291 Y18.503 Z-21.119
X-73.254 Y18.564 Z-21.121
X-73.193 Y18.665 Z-21.125
X-73.19 Y18.668
X-73.124 Y18.765 Z-21.129
X-73.09 Y18.81 Z-21.131
X-73.048 Y18.866 Z-21.134
X-72.361 Y19.771 Z-21.174
X-72.285 Y19.87 Z-21.178
X-72.283 Y19.872
X-72.191 Y19.973 Z-21.183
X-72.184 Y19.979
X-72.084 Y20.086 Z-21.188
X-71.34 Y20.878 Z-21.226
X-71.279 Y20.938 Z-21.229
X-71.178 Y21.025 Z-21.234
X-71.078 Y21.112 Z-21.238
X-70.273 Y21.812 Z-21.276
X-70.225 Y21.85 Z-21.278
X-70.178 Y21.884 Z-21.28
X-69.971 Y22.031 Z-21.289
X-69.893 Y22.086 Z-21.292
X-69.166 Y22.599 Z-21.323
X-69.066 Y22.666 Z-21.327
X-68.678 Y22.89 Z-21.343
X-67.959 Y23.307 Z-21.372
X-67.858 Y23.363 Z-21.376
X-67.794 Y23.394 Z-21.378
X-67.355 Y23.601 Z-21.395
X-66.651 Y23.934 Z-21.423
X-66.55 Y23.978 Z-21.426
X-66.237 Y24.098 Z-21.438
X-66.148 Y24.132 Z-21.441
X-65.343 Y24.441 Z-21.472
X-65.243 Y24.478 Z-21.475
X-65.173 Y24.5 Z-21.478
X-65.041 Y24.541 Z-21.483
X-64.941 Y24.572 Z-21.486
X-63.935 Y24.885 Z-21.523
X-63.876 Y24.903 Z-21.525
X-63.834 Y24.914 Z-21.527
X-63.734 Y24.939 Z-21.53
X-63.633 Y24.963 Z-21.534
X-63.532 Y24.987 Z-21.538
X-63.461 Y25.003 Z-21.54
X-63.432 Y25.01 Z-21.541
X-63.331 Y25.033 Z-21.545
X-62.627 Y25.189 Z-21.57
X-62.426 Y25.233 Z-21.577
X-62.325 Y25.252 Z-21.581
X-61.786 Y25.34 Z-21.6
X-61.78 Y25.341
X-61.621 Y25.367
X-60.816 Y25.498
X-60.76 Y25.507
X-60.715 Y25.512
X-60.615 Y25.523
X-60.514 Y25.535
X-60.414 Y25.544
X-60.313 Y25.551
X-59.709 Y25.592
X-59.609 Y25.599
X-59.005 Y25.639
X-58.904 Y25.646
X-58.804 Y25.65
X-58.703 Y25.649
X-57.999 Y25.624
X-57.898 Y25.62
X-57.697 Y25.613
X-57.597 Y25.609
X-57.572 Y25.607
X-57.496 Y25.6
X-57.194 Y25.563
X-57.094 Y25.551
X-56.691 Y25.501
X-56.591 Y25.488
X-56.49 Y25.467
X-56.289 Y25.419
X-56.236 Y25.406
X-55.786 Y25.296
X-55.735 Y25.282
X-55.685 Y25.264
X-55.584 Y25.223
X-55.383 Y25.139
X-55.299 Y25.104
X-55.06 Y25.003
X-54.981 Y24.967
X-54.88 Y24.904
X-54.679 Y24.77
X-54.578 Y24.702
X-54.577
X-54.528 Y24.665
X-54.478 Y24.626
X-54.449 Y24.601
X-54.377 Y24.534
X-54.343 Y24.5
X-54.277 Y24.436
X-54.246 Y24.4
X-54.213 Y24.349
X-54.185 Y24.299
X-53.975 Y23.919
X-53.963 Y23.897
X-53.94 Y23.846
X-53.923 Y23.796
X-53.902 Y23.695
X-53.866 Y23.494
X-53.852 Y23.394
X-53.849 Y23.343
X-53.85 Y23.293
X-53.857 Y23.192
X-53.864 Y23.092
X-53.874 Y23.026
X-53.883 Y22.991
X-53.917 Y22.89
X-53.952 Y22.79
X-54.075 Y22.434
X-54.093 Y22.387
X-54.145 Y22.287
X-54.26 Y22.086
X-54.277 Y22.056
X-54.433 Y21.784
X-54.478 Y21.707
X-54.494 Y21.683
X-54.578 Y21.57
X-54.718 Y21.381
X-54.78 Y21.298
X-54.942 Y21.079
X-54.981 Y21.028
X-55.023 Y20.979
X-55.283 Y20.672
X-55.364 Y20.576
X-55.534 Y20.375
X-55.584 Y20.316
X-55.893 Y19.973
X-55.983 Y19.872
X-56.289 Y19.533
X-56.346 Y19.469
X-56.616 Y19.168
X-56.691 Y19.084
X-56.977 Y18.765
X-56.993 Y18.748
X-57.323 Y18.363
X-57.395 Y18.279
X-57.753 Y17.86
X-57.798 Y17.803
X-57.999 Y17.547
X-58.07 Y17.457
X-58.502 Y16.904
X-58.54 Y16.853
X-58.703 Y16.618
X-58.75 Y16.552
X-59.238 Y15.847
X-59.304 Y15.747
X-59.408 Y15.573
X-59.424 Y15.545
X-59.961 Y14.64
X-60.011 Y14.546
X-60.064 Y14.439
X-60.615 Y13.317
X-60.652 Y13.231
X-60.692 Y13.131
X-61.165 Y11.923
X-61.204 Y11.823
X-61.385 Y11.219
X-61.42 Y11.102
X-61.445 Y11.018
X-61.475 Y10.917
X-61.505 Y10.816
X-61.52 Y10.767
